/* XPM */
static char *_989af5ca5df43479fa30a18cd612a78A53LgLOTVsz7N10N[] = {
/* columns rows colors chars-per-pixel */
"512 512 256 2 ",
"   c None",
".  c #740400",
"X  c #730801",
"o  c #030877",
"O  c #171C71",
"+  c #4F487E",
"@  c #821B02",
"#  c #872500",
"$  c #892801",
"%  c #8A2C17",
"&  c #8D342A",
"*  c #D41B00",
"=  c #D92700",
"-  c #DA3800",
";  c #CB2C02",
":  c #E53900",
">  c #EA3000",
",  c #E61F00",
"<  c #DD4702",
"1  c #D9510F",
"2  c #E34501",
"3  c #E34D01",
"4  c #EA4B01",
"5  c #F74800",
"6  c #E55201",
"7  c #EA5501",
"8  c #EC5901",
"9  c #E55A03",
"0  c #F25D01",
"q  c #FB5C00",
"w  c #F75401",
"e  c #E1521A",
"r  c #ED6504",
"t  c #F46201",
"y  c #FC6401",
"u  c #FE6D01",
"i  c #F46A02",
"p  c #FE7201",
"a  c #FF7C01",
"s  c #F57505",
"d  c #EF7314",
"f  c #DE682D",
"g  c #A9655C",
"h  c #DB734A",
"j  c #994736",
"k  c #FF8401",
"l  c #FF8C01",
"z  c #F98708",
"x  c #FF9301",
"c  c #FF9B01",
"v  c #F79907",
"b  c #F58A17",
"n  c #FEA500",
"m  c #FFAB01",
"M  c #F8A806",
"N  c #FFB301",
"B  c #FEB902",
"V  c #F9B608",
"C  c #F8B316",
"Z  c #F38F32",
"A  c #F7B62C",
"S  c #DC8230",
"D  c #FCC703",
"F  c #FCD904",
"G  c #FCCF18",
"H  c #FDE402",
"J  c #FEE40C",
"K  c #FEEA08",
"L  c #FEF709",
"P  c #FFE415",
"I  c #FEEA13",
"U  c #FFE61C",
"Y  c #FFE91D",
"T  c #F7E710",
"R  c #FEF616",
"E  c #F9CB31",
"W  c #FFE621",
"Q  c #FFE924",
"!  c #FFEA2C",
"~  c #FDE629",
"^  c #FDF927",
"/  c #FFEC32",
"(  c #FEEC39",
")  c #FDF638",
"_  c #EC9250",
"`  c #F2AA52",
"'  c #F2AF6B",
"]  c #E19367",
"[  c #F8D54D",
"{  c #FEFE5D",
"}  c #FDF956",
"|  c #FCEE4C",
" . c #F7CF75",
".. c #FFFE64",
"X. c #FFFE6B",
"o. c #FCF468",
"O. c #FEFE74",
"+. c #FEFE7C",
"@. c #FAF476",
"#. c #FBE872",
"$. c #BC8778",
"%. c #000588",
"&. c #001899",
"*. c #020F91",
"=. c #092994",
"-. c #2E338E",
";. c #0019A6",
":. c #0014AC",
">. c #0127A8",
",. c #0138B7",
"<. c #062FAF",
"1. c #2A33A0",
"2. c #014CBD",
"3. c #0246B7",
"4. c #0152BD",
"5. c #104FB0",
"6. c #2755AA",
"7. c #6E74AB",
"8. c #555DA0",
"9. c #0039C4",
"0. c #014DC3",
"q. c #004DCA",
"w. c #0144C6",
"e. c #0052C5",
"r. c #0159C5",
"t. c #0055CA",
"y. c #005ACC",
"u. c #0A57C6",
"i. c #005DD1",
"p. c #0155D2",
"a. c #0C54CB",
"s. c #0062CE",
"d. c #056AC9",
"f. c #0164D2",
"g. c #006BD5",
"h. c #006ED9",
"j. c #0165D7",
"k. c #0072D6",
"l. c #0074DA",
"z. c #007CDC",
"x. c #017AD5",
"c. c #0D74CA",
"v. c #017AE1",
"b. c #2462C7",
"n. c #4F67BA",
"m. c #847AA5",
"M. c #0082DE",
"N. c #048AD9",
"B. c #0C94D6",
"V. c #0BADDB",
"C. c #2EABD9",
"Z. c #0083E0",
"A. c #019CE9",
"S. c #00A8E7",
"D. c #00B2E3",
"F. c #0CBEE6",
"G. c #03BFEB",
"H. c #0DBFE9",
"J. c #04B9E7",
"K. c #15BEE6",
"L. c #1ABCE6",
"P. c #16BEE9",
"I. c #14BEE9",
"U. c #1ABDE8",
"Y. c #1ABDE8",
"T. c #1CB3E7",
"R. c #01BEF3",
"E. c #00B6F5",
"W. c #07ABEF",
"Q. c #2BB3E6",
"!. c #2797D5",
"~. c #5DAED9",
"^. c #05C2E6",
"/. c #0DC2E6",
"(. c #03C1EC",
"). c #0BC1E9",
"_. c #06CBEB",
"`. c #13C1E6",
"'. c #13C1E9",
"]. c #19C0E9",
"[. c #18C1E7",
"{. c #01C1F2",
"}. c #01C6F9",
"|. c #09D7F4",
" X c #0FD7EF",
".X c #28D3F1",
"XX c #18E8F8",
"oX c #11EFFC",
"OX c #26EEFC",
"+X c #0DC3DE",
"@X c #6DC7E3",
"#X c #6385B0",
"$X c #9090AF",
"%X c #B2AEB3",
"&X c #9F919A",
"*X c #EAB895",
"=X c #CFB4B1",
"-X c #D2A495",
";X c #F7C887",
":X c #F5D197",
">X c #FEEE8C",
",X c #FDEB86",
"<X c #FFFF83",
"1X c #FEF28D",
"2X c #FEFE8B",
"3X c #FDF285",
"4X c #FEEE93",
"5X c #FFEE99",
"6X c #F7E798",
"7X c #FFF293",
"8X c #FEFC94",
"9X c #FEFD9B",
"0X c #FEF29A",
"qX c #D2CCB7",
"wX c #EBC6AD",
"eX c #F6D8A7",
"rX c #EBC6B2",
"tX c #EBC8B2",
"yX c #F7D7B7",
"uX c #F0CFB1",
"iX c #FEFEA4",
"pX c #FEFEAB",
"aX c #FDF5A5",
"sX c #FEFEB4",
"dX c #FEFEBB",
"fX c #F9F3B9",
"gX c #F4E8B4",
"hX c #86BEED",
"jX c #85A8E5",
"kX c #A0A6CC",
"lX c #86C3EC",
"zX c #93DFF3",
"xX c #93D2E9",
"cX c #ADD8E9",
"vX c #92E1F3",
"bX c #8EE4F4",
"nX c #A8CEDE",
"mX c #D1CDCD",
"MX c #EFD9C9",
"NX c #FEFEC3",
"BX c #FEFECB",
"VX c #F8F4C7",
"CX c #FEFFD4",
"ZX c #FEFFDB",
"AX c #F9F4D7",
"SX c #F3E8CC",
"DX c #D2E6EC",
"FX c #FEFEE3",
"GX c #FEFFEC",
"HX c #F7F5E9",
"JX c #FEFEF5",
"KX c #FEFEFB",
"LX c #F7F6F4",
"PX c #ECEDED",
"IX c #D1DBE4",
"UX c #C4BDC6",
/* pixels */
"                                                                                                                                                                                                                                                                                                                                                                                                                                                                                                                                                                                                                                                                                                                                                                                                                                                                                                                                                                                                                                                                ",
"                                                                                                                                                                                                                                                                                                                                                                                                                                                                                                                                                                                                                                                                                                                                                                                                                                                                                                                                                                                                                                                                ",
"                                                                                                                                                                                                                                                                                                                                                                                                                                                                                                                                                                                                                                                                                                                                                                                                                                                                                                                                                                                                                                                                ",
"                                                                                                                                                                                                                                                                                                                                                                                                                                                                                                                                                                                                                                                                                                                                                                                                                                                                                                                                                                                                                                                                ",
"                                                                                                                                                                                                                                                                                                                                                                                                                                                                                                                                                                                                                                                                                                                                                                                                                                                                                                                                                                                                                                                                ",
"                                                                                                                                                                                                                                                                                                                                                                                                                                                                                                                                                                                                                                                                                                                                                                                                                                                                                                                                                                                                                                                                ",
"                                                                                                                                                                                                                                                                                                                                                                                                                                                                                                                                                                                                                                                                                                                                                                                                                                                                                                                                                                                                                                                                ",
"                                                                                                                                                                                L.L.L.L.L.L.L.U.U.L.L.L.U.L.L.L.L.L.L.L.L.L.L.L.L.L.L.L.L.L.L.L.L.U.U.U.Y.L.L.L.L.L.L.U.U.U.L.L.L.L.L.L.L.L.L.L.U.L.L.L.L.L.L.L.U.L.L.L.U.L.L.L.L.U.L.L.L.L.L.U.U.U.U.L.L.L.U.U.L.L.L.L.L.L.L.L.L.L.L.Y.U.L.L.L.L.L.L.P.U.U.K.K.K.K.K.K.K.K.K.L.L.P.U.U.Y.U.K.L.L.L.L.L.L.L.U.U.U.U.L.L.K.K.U.U.P.P.P.P.K.U.U.K.K.K.K.K.K.K.K.K.K.K.K.K.K.K.K.K.P.P.K.K.K.K.K.K.K.K.K.K.K.K.K.K.K.P.K.K.K.K.K.P.K.K.K.K.U.K.K.K.K.K.L.L.L.U.L.L.L.L.L.L.L.L.K.K.U.P.P.I.I.I.I.I.I.P.I.'.I.I.'.'.P.P.P.P.P.P.I.I.I.I.'.'.I.P.'.I.I.'.P.P.P.P.U.U.U.P.P.U.U.U.U.U.Y.Y.Y.Y.Y.U.L.L.L.U.U.L.L.L.L.L.Y.L.L.L.U.U.L.U.L.L.L.L.L.L.L.L.L.L.L.L.U.L.L.L.L.U.Y.L.L.L.L.L.U.L.L.U.L.L.U.L.L.L.L.L.L.L.L.L.L.L.L.L.L.L.L.L.U.                                                                                                                                                                              ",
"                                                                                                                                                                  L.L.L.L.L.L.L.L.L.L.L.L.L.L.L.L.L.L.L.L.L.L.L.L.L.L.U.L.U.U.L.L.L.U.L.L.L.L.L.L.Y.Y.U.L.L.L.L.L.U.L.L.L.L.L.L.L.L.L.L.L.L.L.L.L.L.L.L.L.L.L.L.L.L.U.U.U.U.L.L.L.L.L.U.L.L.L.U.U.U.U.L.L.L.U.U.L.K.P.K.K.K.K.K.K.K.U.P.P.K.K.K.K.K.K.P.P.U.U.L.K.K.L.L.L.U.U.L.K.Y.U.U.Y.P.K.K.K.K.L.U.U.L.U.U.L.U.U.L.K.K.U.U.U.U.K.P.K.K.K.P.L.L.K.K.K.K.K.K.K.K.K.K.L.K.K.P.P.K.K.K.K.K.K.K.K.L.L.L.K.K.K.K.K.K.K.K.K.K.P.P.K.K.K.K.K.K.K.K.L.L.L.L.U.L.U.Y.L.K.L.U.K.L.L.K.K.K.P.P.I.I.I.I.P.P.P.'.P.P.I.I.I.'.'.'.P.P.I.P.P.P.P.P.I.I.I.I.I.'.P.I.I.P.U.].U.P.P.U.U.U.U.U.Y.Y.Y.U.K.L.U.U.U.U.U.L.L.L.L.L.L.L.L.L.U.U.L.L.L.L.L.L.L.L.L.L.L.L.L.L.Y.L.L.L.U.U.Y.U.L.L.L.L.L.L.L.U.L.L.L.L.L.L.L.L.U.L.L.L.L.L.Y.L.L.L.L.U.L.L.U.L.L.U.U.L.                                                                                                                                                                ",
"                                                                                                                                                          L.L.L.L.L.L.L.L.L.L.L.L.L.L.L.L.L.L.L.L.L.L.L.L.L.L.L.L.L.L.L.U.U.U.U.L.L.L.U.L.L.L.L.L.U.U.L.L.U.L.L.L.U.L.L.L.L.L.L.L.L.L.L.L.L.L.L.L.L.L.L.L.L.L.L.L.L.U.U.L.U.L.U.L.L.U.U.U.U.U.U.U.L.L.U.K.K.K.K.U.K.K.K.U.K.K.K.K.K.U.Y.P.K.K.K.K.K.K.P.L.Y.Y.K.K.K.L.K.U.U.U.U.K.L.L.L.L.L.L.L.L.L.L.L.L.U.U.U.L.U.U.U.U.U.P.P.P.K.K.L.L.K.K.K.P.K.K.K.K.L.K.U.K.K.K.K.K.K.K.P.P.K.K.K.K.K.K.K.K.K.K.K.K.K.K.P.U.P.P.P.P.U.P.P.K.K.K.K.K.K.K.K.K.K.K.K.L.L.L.L.L.K.L.L.K.K.K.K.K.P.P.P.I.I.].].I.P.'.I.P.P.'.I.I.I.I.I.I.P.'.'.P.'.P.P.I.I.I.I.I.P.P.P.I.P.P.P.U.U.U.Y.U.U.U.U.U.Y.Y.Y.Y.Y.Y.Y.Y.L.L.L.U.L.L.L.L.L.L.L.L.L.L.L.L.L.L.L.L.L.L.L.L.L.L.L.L.L.L.L.L.L.L.U.U.L.L.U.U.L.L.U.L.L.L.L.L.L.L.L.L.L.L.L.U.L.L.U.U.L.L.L.L.L.L.L.L.L.U.U.L.L.U.U.                                                                                                                                                        ",
"                                                                                                                                                  L.L.L.L.L.L.L.L.L.L.L.L.L.L.L.L.L.L.L.L.L.L.L.L.L.L.L.L.L.L.L.L.L.L.U.U.U.U.L.L.L.L.L.U.L.L.U.U.U.U.U.U.U.L.L.L.U.L.L.L.L.L.L.L.L.L.L.L.L.L.L.L.L.L.L.L.L.L.L.L.L.U.U.U.L.L.U.U.L.U.U.U.U.L.U.U.L.L.L.L.L.K.P.U.K.K.K.K.P.P.P.P.P.L.P.P.P.K.K.K.K.K.P.U.L.L.K.U.K.K.K.P.U.L.L.K.L.L.L.L.L.L.L.U.L.L.L.L.L.L.L.L.L.U.U.K.P.P.K.K.K.L.L.L.L.K.K.P.K.K.K.P.K.K.K.K.K.K.K.K.K.K.K.K.K.K.K.K.K.K.K.K.K.K.K.K.K.P.P.P.P.P.P.P.P.U.P.K.K.K.K.K.K.L.K.K.K.K.K.L.L.L.L.L.K.L.L.K.K.K.P.P.P.P.P.I.I.P.P.I.'.'.I.I.'.I.I.I.I.I.I.'.'.'.'.P.'.'.I.P.P.P.I.P.P.P.P.P.I.I.P.U.U.U.Y.U.U.U.U.U.Y.Y.U.Y.Y.Y.Y.Y.Y.Y.Y.Y.Y.Y.L.L.L.L.L.L.L.L.L.L.L.L.L.L.L.L.L.L.L.L.L.L.L.L.L.L.L.L.L.L.U.L.U.U.L.L.Y.L.L.L.L.L.Y.L.L.L.L.L.Y.U.L.L.U.Y.L.L.L.L.U.L.L.U.U.L.U.L.U.U.U.U.U.U.U.                                                                                                                                                ",
"                                                                                                                                          L.L.L.L.L.L.L.L.L.L.L.L.L.L.L.L.L.L.L.L.L.L.L.L.L.L.L.L.L.L.L.L.L.L.L.L.L.L.U.U.U.U.L.L.L.U.U.U.U.U.U.U.U.U.U.L.U.U.L.L.U.L.L.L.L.L.L.L.L.L.L.L.L.L.L.L.L.L.L.L.L.L.L.L.L.Y.U.U.U.U.U.U.L.L.U.L.L.U.U.U.U.L.L.K.K.K.U.K.K.K.U.U.P.P.P.P.P.L.Y.P.K.K.P.P.P.P.P.K.L.L.L.K.K.K.K.K.L.L.K.K.L.L.L.L.L.L.L.L.L.L.U.U.L.L.K.K.K.K.K.P.P.K.P.K.K.L.L.K.K.K.K.L.L.K.K.K.K.K.L.L.K.K.K.K.K.K.K.K.U.K.K.K.K.K.K.K.K.K.K.K.K.K.P.P.P.K.P.P.K.P.K.K.K.K.K.K.L.L.L.K.K.K.K.L.K.L.L.K.K.U.K.K.P.K.P.P.P.P.P.I.I.P.].'.I.'.'.H.H.I.I.'.'.'.I.'.'.'.'.I.P.'.P.P.P.P.P.I.P.'.P.P.P.I.P.U.].P.U.U.U.Y.U.K.U.Y.U.Y.Y.Y.Y.Y.Y.Y.Y.Y.Y.U.U.Y.Y.U.L.L.L.L.L.L.L.Y.L.L.L.L.L.L.L.L.L.L.L.L.L.L.L.L.L.L.U.L.U.U.U.L.U.L.L.L.L.L.L.L.U.L.L.L.Y.L.L.L.L.L.Y.Y.L.L.U.U.L.Y.L.L.U.L.L.L.U.U.U.U.U.L.U.U.L.                                                                                                                                        ",
"                                                                                                                                    L.L.L.L.L.L.L.L.L.L.L.L.L.L.L.L.L.L.L.L.L.L.L.L.L.L.L.L.L.L.L.L.L.L.L.L.L.L.L.L.L.L.L.L.L.L.L.L.U.U.U.U.U.U.U.U.L.U.U.U.U.L.L.L.L.L.L.L.L.L.L.L.L.L.L.L.L.L.L.L.L.L.L.L.L.L.L.L.L.L.L.L.U.U.L.L.L.L.L.L.U.U.L.U.U.L.P.U.K.K.K.K.L.K.K.U.K.K.K.K.K.K.L.L.P.P.P.Y.Y.Y.P.P.U.U.K.K.P.P.P.K.K.K.K.L.L.L.L.L.L.L.U.L.L.U.U.U.L.L.L.U.U.P.K.K.K.K.K.K.L.L.K.K.K.K.L.K.K.K.K.K.K.L.L.K.K.K.K.L.L.K.K.U.K.K.K.K.P.K.K.K.K.K.K.L.K.K.P.P.P.P.P.P.K.K.K.K.K.K.L.K.L.L.K.K.K.K.L.K.L.L.K.K.K.P.K.K.P.P.P.P.P.P.P.P.'.'.I.'.'.I.I.H.I.'.'.'.I.I.I.I.I.'.I.I.P.I.P.I.I.I.P.P.'.I.P.P.I.P.U.P.P.P.U.U.U.U.U.U.U.U.U.U.U.Y.Y.Y.U.U.Y.Y.U.U.Y.Y.Y.L.L.L.L.L.L.L.Y.L.U.U.L.L.L.L.L.L.L.L.L.L.L.L.L.L.L.L.L.L.L.L.L.L.L.L.L.U.L.L.L.L.L.L.U.U.L.L.L.L.L.L.Y.Y.U.U.L.U.U.L.L.U.U.U.U.U.L.U.U.U.L.Y.Y.U.L.U.U.                                                                                                                                  ",
"                                                                                                                                L.L.L.L.L.L.L.L.L.L.L.L.L.L.L.L.L.L.L.L.L.L.L.L.L.L.L.L.L.L.L.L.L.L.U.U.L.L.L.L.L.L.L.L.L.L.L.L.U.U.U.U.L.U.U.U.U.U.U.U.U.U.U.U.U.L.L.L.L.L.L.U.L.L.U.L.L.L.L.L.L.L.L.L.L.L.L.L.L.L.L.L.L.L.U.U.U.U.U.L.L.L.L.L.L.U.U.L.U.U.K.K.U.U.U.P.U.L.K.K.K.P.P.P.P.K.U.U.P.Y.Y.P.P.P.P.U.P.P.P.P.P.K.K.L.L.L.L.L.L.L.L.L.U.U.L.U.U.K.L.U.L.U.L.K.P.K.L.L.K.K.L.U.P.K.K.K.L.K.K.K.K.K.U.K.K.K.L.K.L.L.K.K.K.K.P.K.K.K.K.K.K.K.K.K.K.K.K.K.K.K.P.K.P.P.K.K.K.K.K.L.K.K.K.K.K.K.K.K.K.K.K.K.P.K.K.P.P.K.P.P.P.P.P.P.P.P.].'.'.'.'.'.).H.H.H.'.'.P.'.I.I.I.P.P.'.'.'.'.I.'.'.P.I.P.P.I.P.P.I.P.U.P.P.U.U.U.U.U.U.P.Y.U.U.Y.Y.Y.U.U.U.Y.Y.U.U.Y.Y.Y.L.L.L.L.L.L.L.L.L.Y.Y.L.L.L.L.L.L.L.L.L.L.L.L.U.L.L.L.L.Y.L.L.Y.L.L.L.L.Y.Y.L.L.L.L.L.U.Y.L.L.L.U.L.L.L.Y.U.U.U.L.L.U.U.U.L.U.Y.U.L.U.Y.U.Y.L.Y.U.Y.Y.L.L.L.                                                                                                                              ",
"                                                                                                                          L.L.L.L.L.L.L.L.L.L.L.L.L.L.L.L.L.L.L.L.L.L.L.L.L.L.L.L.L.L.L.L.L.L.L.L.L.U.L.L.L.L.L.L.L.L.L.L.L.L.L.U.U.U.U.U.U.U.U.U.L.L.L.U.U.U.U.U.U.L.L.L.L.L.L.L.L.L.L.L.L.L.L.L.U.U.L.L.U.U.U.U.U.U.U.U.U.L.U.U.U.L.U.U.U.L.L.U.L.L.U.U.L.K.K.U.U.U.Y.P.P.P.U.P.P.P.P.P.P.P.U.Y.Y.Y.U.P.P.Y.Y.U.U.K.K.L.L.L.L.L.L.L.L.L.U.L.U.L.L.U.U.L.K.L.U.U.P.L.K.P.L.K.L.K.K.L.U.U.U.K.K.U.U.K.K.K.K.U.K.K.K.K.K.K.L.K.K.K.K.K.K.K.K.K.K.U.P.K.K.K.K.K.K.K.K.K.K.K.L.K.K.K.K.L.L.K.K.K.K.K.K.K.K.K.P.K.K.P.K.K.K.P.P.].P.I.'.'.'.P.P.P.I.I.).).).).).I.I.I.I.'.I.'.'.I.I.'.'.'.I.'.'.'.'.I.I.P.I.P.'.P.I.P.U.U.U.P.U.U.U.P.P.U.U.U.L.U.U.L.P.U.U.U.U.U.Y.U.U.Y.Y.U.L.L.L.L.L.L.L.L.L.L.L.L.Y.L.L.L.L.Y.Y.L.L.L.L.L.L.L.U.U.U.L.U.U.U.L.L.Y.L.L.L.L.U.L.L.L.U.L.Y.L.Y.Y.L.L.U.U.U.U.L.U.U.L.Y.U.U.U.L.U.U.U.L.L.U.U.L.L.L.L.L.U.U.                                                                                                                        ",
"                                                                                                                      L.L.L.L.L.L.L.L.L.L.L.L.L.L.L.L.L.L.L.L.L.L.L.L.L.L.L.L.L.L.L.L.L.L.L.L.L.L.L.L.L.L.L.L.L.L.L.L.L.L.L.L.L.L.L.L.L.U.U.U.U.U.U.L.L.U.U.U.L.L.U.L.L.L.L.L.L.L.L.L.L.Y.Y.U.U.L.L.L.L.L.U.U.U.U.U.U.L.U.U.L.U.U.U.L.L.L.U.L.P.P.K.K.U.U.L.K.K.U.P.P.P.P.P.P.P.P.P.P.P.P.P.P.U.Y.Y.Y.P.P.P.P.P.Y.P.K.K.L.L.L.L.L.U.L.L.L.U.L.U.U.U.U.U.U.K.U.U.U.K.U.L.K.K.P.P.[.K.P.U.U.U.U.K.U.U.U.K.K.K.U.K.L.L.K.K.K.L.L.K.K.K.K.K.K.K.K.K.K.K.P.K.K.K.K.L.L.L.K.K.K.K.K.K.K.K.L.K.K.K.K.K.K.K.K.K.K.K.K.K.P.P.K.P.P.[.I.I.I.'.'.'.H.'.'.H.H.).).).H.I.I.I.H.H.H.I.'.'.'.'.'.'.'.I.'.'.I.I.I.'.'.I.I.].'.I.I.P.U.U.P.U.U.U.U.U.U.U.U.U.U.U.U.P.P.P.P.U.U.U.U.U.Y.U.Y.Y.U.U.Y.Y.L.Y.L.Y.Y.L.Y.L.Y.L.L.L.L.Y.Y.L.L.L.U.L.L.L.U.U.L.U.U.U.Y.Y.Y.L.L.L.L.L.Y.Y.L.Y.L.L.L.L.Y.Y.L.L.L.U.U.U.L.U.U.U.U.U.U.L.U.U.U.U.L.U.L.L.L.L.L.U.U.U.U.U.                                                                                                                    ",
"                                                                                                                  L.L.L.L.L.L.L.L.L.L.L.L.L.L.L.L.L.L.L.L.L.L.L.L.L.L.L.L.L.L.L.L.L.L.L.L.L.L.L.L.L.L.L.L.L.L.L.L.L.L.L.L.L.L.L.L.L.L.L.L.U.U.U.U.U.L.L.U.U.L.L.L.L.L.Y.U.U.L.U.L.L.L.L.L.L.U.U.L.L.L.L.L.U.U.U.U.U.U.L.U.U.L.L.L.U.U.U.L.L.L.U.K.K.U.U.U.K.K.P.U.K.K.K.K.Y.P.P.P.P.P.U.U.P.P.P.U.P.P.P.P.P.P.P.P.P.K.L.L.L.U.U.U.U.L.L.U.U.U.U.U.U.U.U.U.U.U.K.U.U.U.K.[.K.P.K.[.K.K.U.U.U.P.K.U.U.U.K.K.K.L.L.K.L.L.L.L.K.K.K.K.K.K.K.K.K.K.K.K.K.U.L.L.K.K.K.K.K.K.K.K.K.K.K.K.K.K.K.K.K.K.K.L.K.K.K.K.K.K.K.P.K.P.I.I.'.].I.'.'.'.'.H.).).).).H.).).).).).H.I.H.H.'.'.'.'.'.'.'.'.'.].].].'.P.'.'.].'.'.'.P.P.I.P.U.U.U.U.U.U.U.Y.U.P.U.U.U.U.P.U.U.P.U.U.P.Y.Y.Y.Y.Y.Y.U.U.Y.Y.Y.Y.Y.Y.Y.Y.Y.L.Y.L.L.Y.L.Y.U.L.L.L.U.U.U.L.L.L.U.L.L.U.U.U.L.L.L.L.L.L.L.Y.L.L.L.L.L.U.U.U.U.U.U.L.L.U.U.L.U.U.U.U.U.U.U.U.U.U.L.Y.L.L.L.U.U.U.U.U.U.U.L.U.                                                                                                                ",
"                                                                                                              L.L.L.L.L.L.L.L.L.L.L.L.L.L.L.L.L.L.L.L.L.L.L.L.L.L.L.L.L.L.L.L.L.L.L.L.L.L.L.L.L.L.L.L.L.L.L.L.L.L.L.L.L.L.L.L.L.L.U.U.U.U.U.U.U.L.U.U.U.U.L.L.L.U.U.L.L.L.L.L.L.L.U.U.U.L.L.L.L.U.U.U.L.L.L.U.Y.U.U.L.U.L.U.L.L.L.K.U.L.L.L.Y.U.L.U.U.P.P.U.U.P.K.K.K.K.K.P.P.P.P.P.P.P.P.P.P.P.U.P.P.P.P.P.P.P.K.K.K.P.P.K.U.U.U.L.U.U.U.L.P.U.U.U.U.U.K.K.K.K.L.K.K.K.K.K.[.L.L.L.L.L.U.P.K.[.K.[.L.L.K.K.K.K.K.L.L.K.K.L.L.K.K.K.K.K.U.U.K.L.K.P.K.U.U.K.K.K.K.K.K.K.K.K.K.K.K.P.P.K.K.K.K.K.K.K.K.K.K.K.K.P.P.P.P.P.I.'.'.'.'.'.).).).).).).).H.).).).).).).).I.H.'.'.I.I.'.'.'.'.'.'.'.'.].P.'.].].'.P.P.'.].P.'.'.P.P.U.U.P.U.Y.U.U.L.U.U.U.Y.Y.U.P.P.U.U.Y.Y.Y.Y.Y.Y.Y.U.Y.Y.Y.Y.L.L.L.L.L.L.L.L.L.L.Y.Y.L.L.U.U.U.U.U.U.Y.Y.U.U.L.U.U.L.L.L.L.L.L.Y.Y.Y.U.L.L.L.L.U.U.U.U.U.L.L.L.L.U.L.U.L.U.L.L.U.U.U.U.U.L.Y.L.L.L.Y.U.U.U.U.U.U.L.U.U.U.                                                                                                            ",
"                                                                                                          L.L.L.L.L.L.L.L.L.L.L.L.L.L.L.L.L.L.L.L.L.L.L.L.L.L.L.L.L.L.L.L.L.L.L.L.L.L.L.L.L.L.L.L.L.L.L.L.L.L.L.L.L.L.L.L.L.U.U.U.U.U.U.U.U.U.U.U.U.U.U.U.L.L.L.U.U.L.L.L.U.L.L.U.U.U.U.Y.Y.L.L.U.U.U.L.L.U.U.L.L.L.L.L.L.L.U.U.L.L.L.L.L.P.Y.U.U.L.U.U.U.L.L.K.K.P.U.U.U.P.P.P.P.P.P.P.P.P.P.U.U.U.P.K.P.P.P.K.K.K.K.P.P.K.U.L.L.U.L.L.U.L.P.U.U.P.U.K.K.K.P.K.K.K.K.K.K.K.[.[.L.L.[.K.K.K.K.K.K.K.K.[.K.K.K.K.K.[.[.K.[.[.L.K.K.K.K.K.K.P.P.K.L.U.K.U.P.P.K.K.K.P.K.K.K.K.K.K.K.P.P.P.P.P.P.P.L.L.K.K.P.P.K.P.[.].'.'.).'.'.).).).).).).).).).).H.).).).).).).).).).).).).H.'.'.'.).).'.'.'.'.'.'.'.'.'.'.'.].'.'.'.'.].U.U.U.P.U.U.U.U.U.U.U.Y.U.U.U.U.L.Y.Y.U.Y.Y.U.U.Y.Y.U.U.Y.L.L.L.L.L.L.L.L.L.L.Y.Y.L.L.U.U.U.U.L.Y.U.U.U.U.U.U.Y.U.L.L.L.L.U.U.L.Y.Y.Y.L.U.Y.L.L.U.U.L.L.L.U.L.Y.U.U.L.U.L.U.U.Y.U.U.U.U.L.L.L.L.Y.Y.Y.L.L.U.U.U.U.U.U.U.U.U.U.                                                                                                        ",
"                                                                                                      L.L.L.L.L.L.L.L.L.L.L.L.L.L.L.L.L.L.L.L.L.L.L.L.L.L.L.L.L.L.L.L.L.L.L.L.L.L.L.L.L.L.L.L.L.L.L.L.L.L.L.L.L.L.L.L.L.L.L.L.U.U.U.U.U.U.U.U.U.U.U.U.U.U.U.L.L.L.L.L.L.L.U.U.U.U.U.Y.L.U.U.L.L.U.U.L.L.L.U.U.U.L.L.L.L.L.U.K.L.L.L.L.K.K.K.P.P.U.U.U.U.P.P.P.P.P.P.P.P.P.P.P.P.P.P.P.U.U.P.U.P.P.P.P.K.K.K.K.K.P.P.P.P.P.U.U.K.K.P.U.K.K.U.U.U.U.U.U.K.[.K.L.K.K.K.K.K.K.K.K.K.[.K.K.K.K.K.K.K.K.K.[.[.[.K.K.K.L.K.K.K.L.[.L.K.P.P.P.K.K.P.K.K.K.P.K.K.P.K.K.P.P.P.P.P.P.P.K.K.P.P.P.P.P.P.P.P.P.U.U.P.P.P.K.K.].P.].'.'.'.).).).).).).).).).).).).).H.).).'.).).).).).).).).).'.).).).).).).'.).).).'.'.'.'.'.'.'.I.'.'.P.P.P.].U.P.].U.U.U.P.U.U.U.U.L.L.U.U.U.U.Y.Y.U.U.Y.L.L.L.L.L.L.L.Y.Y.L.L.L.L.L.Y.L.L.L.U.U.L.U.U.L.L.U.U.L.L.U.U.U.L.U.L.L.U.Y.L.Y.L.L.U.L.L.U.L.U.U.L.L.U.U.U.U.L.L.L.U.U.U.Y.Y.U.U.U.L.L.L.L.L.Y.U.U.L.U.U.U.U.U.U.U.U.L.U.U.L.                                                                                                    ",
"                                                                                                    U.L.L.L.L.L.L.L.L.L.L.L.L.L.L.L.L.L.L.L.L.L.L.L.L.L.L.L.L.L.L.L.L.L.L.L.L.L.L.L.L.L.L.L.L.L.L.L.L.L.L.L.L.L.L.L.L.L.L.L.L.L.U.U.U.U.U.U.U.U.U.U.U.L.U.U.Y.L.L.L.L.L.L.U.L.U.L.U.L.L.U.U.L.L.L.Y.U.L.U.U.U.U.L.L.L.L.L.L.K.P.K.K.L.L.K.K.U.P.P.P.P.P.P.P.P.U.U.P.P.P.P.P.P.P.P.P.P.P.P.P.P.P.P.P.P.P.P.P.P.P.P.P.P.K.K.L.U.K.K.U.U.U.U.U.U.L.U.L.K.K.K.K.K.K.K.K.K.[.K.K.K.K.K.[.[.[.[.K.K.K.[.[.[.[.[.[.K.[.[.L.L.L.K.K.].].P.I.K.K.I.I.I.I.K.K.K.K.K.K.K.P.P.P.I.I.P.P.K.P.P.P.P.P.P.P.P.P.I.K.K.K.K.K.K.K.'.'.).).).).).).).).).).^.).).).).).).).).).).).).).'.).H.H.).).).).).).).).).'.'.).).'.'.'.'.).H.I.I.H.I.'.'.I.P.].].U.U.].].U.P.U.U.U.U.U.U.L.U.Y.Y.Y.U.Y.Y.U.Y.Y.Y.Y.L.L.L.L.L.L.L.L.L.U.L.U.Y.U.U.L.L.U.U.L.U.U.L.U.U.U.U.L.L.L.L.U.U.U.U.Y.U.L.L.Y.U.U.L.U.U.U.U.Y.L.U.L.L.U.U.U.L.U.U.U.L.L.L.L.L.L.L.L.U.U.U.U.U.U.U.U.U.U.U.U.U.U.L.L.                                                                                                  ",
"                                                                                                U.L.U.L.L.L.L.L.L.L.L.L.L.L.L.L.L.L.L.L.L.L.L.L.L.L.L.L.L.L.L.L.L.L.L.L.L.L.L.L.L.L.L.L.L.L.L.L.L.L.L.L.L.L.L.L.L.L.L.L.L.L.L.L.L.U.U.U.L.L.L.L.L.U.U.L.L.L.L.L.L.L.L.L.U.U.U.L.U.L.L.L.L.U.U.L.L.U.L.L.L.L.L.L.L.L.L.L.L.L.L.K.K.K.K.L.L.K.U.P.P.P.P.P.P.P.P.P.P.P.P.P.P.P.P.P.P.P.P.P.P.P.P.P.P.P.P.P.P.P.P.P.P.P.P.P.P.P.P.U.P.U.P.K.U.K.P.U.U.K.K.K.K.K.[.[.K.K.[.[.K.[.[.K.K.K.[.[.[.[.[.[.[.[.[.[.[.[.[.[.K.K.[.P.I.K.K.K.K.K.K.K.I.I.I.I.K.K.].'.I.I.P.I.I.I.I.I.P.P.P.P.P.P.P.P.P.P.P.P.P.P.I.K.K.].K.`.).).).).).).).^.).).).).^.).).H.).).).).).).).'.).'.'.'.'.'.I.'.'.H.H.).).).).).).).).).).).).H.H.'.'.H.).'.'.'.I.'.I.P.P.'.'.P.I.P.U.P.P.U.U.U.U.Y.Y.Y.U.U.U.U.Y.Y.Y.Y.U.Y.L.Y.L.L.L.L.Y.Y.L.U.U.L.L.U.L.U.U.L.L.Y.Y.U.L.U.U.U.U.U.U.L.L.U.U.L.L.U.U.U.U.U.U.U.U.U.Y.U.L.L.U.U.U.U.U.U.L.U.L.L.L.L.L.L.L.Y.U.L.U.U.U.U.U.U.U.L.U.U.U.U.L.L.L.L.L.                                                                                              ",
"                                                                                              L.U.U.U.U.U.U.U.U.L.L.L.L.L.L.L.L.L.L.L.L.L.L.L.L.L.L.L.L.L.L.L.L.L.L.L.L.L.L.L.L.L.L.L.L.L.L.L.L.L.L.L.L.L.L.L.L.L.L.L.L.L.L.Y.L.L.Y.U.L.L.L.L.L.L.L.L.L.L.L.L.L.L.L.U.U.U.U.L.U.U.L.U.L.L.L.U.L.L.U.L.L.L.L.L.L.U.U.L.U.U.U.L.U.P.P.P.P.U.P.P.U.P.K.K.K.K.P.P.P.P.P.P.P.P.P.P.P.P.P.P.].P.I.I.P.P.P.P.P.P.K.K.P.P.P.P.P.P.P.P.P.P.K.K.K.U.K.K.P.P.P.P.K.K.[.[.K.K.[.[.[.[.`.].].[.[.[.[.[.[.[.[.[.[.[.[.[.K.[.K.I.`.`.`.`.K.K.P.'.I.I.I.I.I.I.I.I.I.I.I.I.'.I.I.I.I.I.P.P.P.P.P.P.P.P.P.P.P.P.P.P.I.I.P.I.K.H.).).).).).).).).^.^.^.).).^.).I.H.'.).).).).).).).'.'.'.).H.).'.'.).).).).).).).).).).).'.).).).).).).).'.'.'.'.'.'.I.I.'.].P.P.P.P.P.P.I.P.P.U.P.P.U.Y.U.U.U.U.U.Y.Y.Y.Y.U.U.Y.U.U.L.L.L.U.Y.L.U.U.U.Y.L.L.L.L.U.L.L.L.L.L.Y.U.U.L.U.U.U.L.L.U.U.L.U.U.U.U.L.Y.Y.U.U.U.U.U.L.L.U.Y.U.U.U.L.L.L.L.U.L.U.U.U.L.L.L.U.U.U.U.U.U.L.L.U.U.L.L.L.L.L.L.L.U.                                                                                            ",
"                                                                                          L.L.U.Y.U.U.U.U.L.L.L.L.L.L.L.L.L.L.L.L.L.L.L.L.L.L.L.L.L.L.L.L.L.L.L.L.L.L.L.L.L.L.L.L.L.L.L.L.L.L.L.L.L.L.L.L.L.L.L.L.L.L.L.L.L.Y.U.L.U.U.L.L.L.L.L.L.L.L.L.L.L.U.L.U.U.L.U.U.U.L.U.U.U.L.L.U.U.U.L.L.U.L.L.L.L.L.L.L.L.L.L.U.P.P.P.U.U.U.U.U.P.P.U.U.P.P.P.P.P.P.P.P.P.P.P.P.P.P.P.].P.P.].P.P.I.].P.P.P.I.P.P.P.P.P.I.P.P.P.P.P.P.P.K.P.P.K.P.P.K.P.P.P.K.K.K.K.K.K.[.[.[.[.`.K.[.].[.[.`.`.].'.].].].`.K.K.`.'.I.I.I.I.P.P.P.P.K.K.I.I.I.I.I.I.I.I.I.I.I.I.I.I.I.I.I.I.I.I.I.P.P.P.P.P.P.P.].I.I.H.H.H.'.H.F.).).).).).).).).).^.^.^.^.).^.).I.I.I.).).).).).).).).).).).).).).).).).).).).).).).).).).).).).).).).).).).).).'.'.).'.'.I.'.'.'.'.P.I.I.I.I.P.K.K.P.U.U.P.U.U.U.U.U.U.U.U.U.U.U.U.U.L.L.L.L.L.L.Y.U.U.Y.U.U.L.L.U.U.U.U.U.U.Y.Y.U.U.U.L.U.L.L.U.U.U.L.L.U.Y.L.L.Y.U.U.U.U.U.L.U.U.U.U.U.Y.L.L.L.L.U.U.U.U.U.U.U.U.U.U.U.U.L.L.U.U.U.U.U.L.L.L.U.L.U.U.U.U.                                                                                        ",
"                                                                                        L.L.L.U.Y.U.U.U.U.L.L.U.L.L.L.L.L.L.L.L.L.L.L.L.L.L.L.L.L.L.L.L.L.L.L.L.L.L.L.L.L.L.L.L.L.L.L.L.L.L.L.L.L.L.L.L.L.L.L.L.L.L.L.L.L.L.U.U.L.U.U.L.L.L.L.L.L.U.U.L.L.L.U.U.U.U.U.U.U.U.U.U.U.U.U.L.L.U.U.L.L.L.L.L.L.L.L.L.U.L.U.K.P.U.P.P.P.U.U.P.P.P.U.U.U.P.P.P.P.P.P.].P.P.P.P.P.P.P.P.I.I.I.I.I.I.I.P.P.P.P.I.I.I.P.I.I.I.I.P.U.Y.P.P.P.P.P.P.K.P.P.K.P.P.K.K.K.[.].].].].[.[.[.`.[.].P.].I.K.I.I.I.I.I.I.I.I.I.I.I.I.I.I.I.I.P.P.I.I.I.I.I.I.I.I.I.I.I.I.I.I.I.I.I.I.I.I.I.I.I.I.I.I.I.I.P.I.I.H.I.H.H.H.H.H.H.).).).).).).^.^.).).^.^.^.^.).^.).H.H.H.).F.).).).).).).).).).).).).).).).).).).).).).).).).).).).).).).).).).).).).).).).).'.'.'.'.'.].'.'.'.'.I.I.].P.U.P.K.P.P.U.U.U.U.U.P.U.U.Y.Y.U.L.L.U.L.L.U.U.U.L.L.U.L.U.U.U.U.U.U.U.U.U.U.U.U.L.U.U.U.L.L.U.U.L.L.L.Y.U.U.U.U.U.U.U.U.L.U.U.U.L.L.L.L.L.L.L.L.U.U.U.U.U.U.U.U.U.U.U.L.U.U.U.L.U.U.L.L.L.U.U.U.U.U.U.U.                                                                                      ",
"                                                                                    L.L.L.L.L.U.U.U.U.L.L.L.U.Y.L.L.L.L.L.L.L.L.L.L.L.L.L.L.L.L.L.L.L.L.L.L.L.L.L.L.L.L.L.L.L.L.[.[.L.L.L.[.[.L.L.L.L.L.L.L.L.L.L.L.L.L.L.L.U.L.L.U.U.L.L.L.L.L.L.Y.L.L.L.L.L.L.L.L.U.U.U.U.U.U.U.U.L.L.L.L.U.U.L.L.L.L.L.L.L.L.L.U.U.K.P.P.P.P.P.P.P.U.U.P.P.P.P.P.P.P.P.P.P.P.P.P.P.P.P.P.P.P.I.I.I.I.I.P.I.I.P.I.I.P.P.P.P.I.I.I.I.P.P.P.P.P.P.K.P.P.K.P.P.K.P.K.P.K.[.`.[.[.[.[.].`.`.'.`.K.I.'.I.I.I.I.P.P.P.I.I.I.I.I.I.I.P.I.I.I.I.I.I.I.I.I.I.I.I.I.I.P.I.I.I.I.I.I.I.I.I.I.I.I.I.I.I.I.I.I.I.I.F.H.I.I.I.'.I.I.H.).).).).).).^.^.^.^.^.^.^.).).)./.F.).).).H.).I.).).H.).H.H.H.).).).).).).).).).).).).).).).).).).).).).).).).).).).).).).).).).).).'.'.'.'.].'.).I.I.I.P.P.K.P.P.P.].P.P.P.P.U.U.P.P.U.Y.Y.Y.Y.L.L.L.U.L.L.U.U.U.U.U.U.U.U.U.U.U.U.U.U.U.L.L.U.U.L.L.L.L.L.Y.U.U.U.U.U.L.U.U.U.U.U.U.U.U.L.L.L.U.U.U.U.U.U.U.U.U.U.U.U.U.U.U.U.U.U.U.L.L.L.L.U.L.L.Y.U.U.U.U.U.U.U.                                                                                  ",
"                                                                                  L.L.L.L.L.L.L.L.L.L.U.K.L.L.L.L.L.L.L.L.L.L.L.L.L.L.L.L.L.L.L.L.L.L.L.L.L.L.L.L.L.L.L.L.L.L.L.L.L.L.L.L.L.L.L.L.L.L.L.L.L.L.L.L.L.L.L.L.Y.L.L.Y.Y.U.L.L.L.L.L.L.L.U.L.L.L.L.L.L.L.L.L.L.U.U.U.U.U.L.L.U.L.U.U.L.L.L.L.L.L.L.L.P.P.K.P.P.P.P.P.P.P.P.U.U.P.P.P.P.P.P.P.P.P.P.P.P.P.P.P.P.P.P.P.I.P.I.I.I.I.I.I.I.I.P.P.P.P.P.P.P.P.P.I.P.K.K.P.K.K.].[.K.P.P.P.P.P.[.[.`.`.`.'.`.K.K.I.I.I.I.I.I.I.I.I.I.I.I.'.'.I.I.I.I.I.I.I.P.P.P.I.I.I.I.I.I.P.I.I.I.I.I.I.I.I.I.I.I.I.I.I.I.I.I.P.I.I.I.I.I.I.I.I.I.'.I.I.I.H.F.F.).).).^.^.).^.^.^.).^.^.).).).).).F./././.).).).).).).H.).H.).H.H.'.'.'.).).).).).).'.).).).).).).).).^.).).).).).).).).).).).).).).).).).'.'.'.'.I.P.I.F.I.P.P.I.P.P.P.P.P.P.P.U.K.K.P.U.U.U.U.U.Y.U.L.L.L.L.L.L.U.U.U.L.U.U.U.L.L.U.Y.Y.L.L.L.U.U.L.L.L.L.L.U.L.L.U.U.Y.L.L.U.U.U.U.L.L.U.L.L.U.U.U.U.U.U.L.U.U.U.U.U.U.U.U.L.U.U.U.L.L.L.L.L.U.U.U.L.L.U.U.U.U.U.L.L.                                                                                ",
"                                                                                U.L.L.L.U.L.L.L.L.L.L.U.L.L.L.L.L.L.L.L.L.L.L.L.L.L.L.L.L.L.L.L.L.L.L.L.L.L.L.L.L.L.L.L.L.L.L.L.L.U.L.L.L.L.L.L.L.L.L.L.L.L.L.L.L.L.L.L.L.U.L.L.U.L.U.L.L.L.L.L.L.U.U.L.L.L.L.L.L.L.L.L.L.U.U.U.U.U.U.U.L.L.L.L.L.L.L.L.L.L.L.L.P.P.L.U.Y.Y.P.U.Y.P.P.P.P.P.P.P.P.P.P.].P.P.P.P.P.P.].P.I.P.I.I.I.P.P.I.I.P.P.P.P.P.P.P.P.P.P.P.P.P.P.I.P.K.K.K.K.'.K.K.K.K.P.P.P.P.K.K.P.K.I.I.I.I.I.I.I.I.I.I.I.I.I.I.I.I.I.I.I.I.'.'.'.I.I.I.'.I.I.P.P.I.I.I.P.P.I.I.I.I.I.I.I.I.I.I.I.I.I.I.I.I.].I.I.I.I.I.I.I.I.K.I.H.H.H.F.^.^.^.^.^.^.^.^.^.^.^.^.^.^.^.).F.).).F.H.).).).).).).).).H.I.).).H.H.'.'.'.'.).).).).H.I.).).).).).).).^.).^.^.).).).).^.).^.).).).).).).).).).).).).'.'.P.'.).'.'.I.I.I.P.P.P.P.P.P.L.L.U.P.U.Y.U.U.U.U.U.U.L.L.U.U.L.L.L.U.U.L.L.L.L.U.L.Y.U.L.L.U.U.L.L.L.L.L.L.U.U.L.L.U.Y.L.L.Y.U.L.L.L.Y.L.U.L.U.U.U.U.U.U.U.U.U.U.L.L.U.U.U.U.L.L.L.L.L.Y.U.U.U.U.U.L.L.U.U.U.U.U.U.U.U.                                                                              ",
"                                                                              U.L.L.L.U.U.U.U.U.U.U.U.U.L.L.L.L.L.L.L.L.L.L.L.L.L.L.L.L.L.L.L.L.L.L.L.L.L.L.L.L.L.L.L.L.L.L.L.L.L.L.L.L.L.L.L.L.L.L.L.L.L.L.L.L.L.L.L.L.L.U.L.L.Y.L.L.L.L.L.L.L.L.U.L.L.L.L.L.L.L.L.L.L.L.U.L.L.L.U.U.U.U.L.L.L.L.L.L.L.L.U.L.L.P.U.L.L.Y.Y.L.L.L.K.K.K.K.P.K.P.P.P.P.P.P.P.P.P.I.P.P.P.I.P.I.I.I.P.I.P.P.P.P.P.P.P.P.P.P.P.P.P.P.P.P.P.P.P.K.K.K.K.K.K.K.P.P.P.P.P.I.I.P.P.P.I.I.P.I.I.I.I.I.I.I.'.'.I.I.I.I.I.'.I.I.I.'.].].].].P.P.P.].I.I.I.P.P.I.I.I.I.I.P.I.I.I.I.I.P.I.P.P.I.I.I.H.F.H.I.I.I.F.H.).F.).).).^.^.^.^.^.^.^.^.^.^.^.^.^.).).).F.F.F.F.).F.H.).).)./.F.H.H.'.).'.H.).'.).).).).).).).).).).).^.^.^.).).^.^.).^.^.).).).).).).).).).).).).^.^.).^.^.).).).'.).'.I.'.).I.I.I.K.K.K.K.P.P.P.U.U.U.P.U.U.U.L.U.U.U.U.U.U.U.L.L.L.U.U.L.U.U.U.U.L.U.U.L.U.L.L.L.Y.U.L.L.U.U.L.L.L.Y.L.Y.Y.L.L.L.Y.U.Y.Y.U.U.L.U.U.U.U.U.U.U.U.U.U.U.L.L.U.U.L.L.L.L.Y.U.U.U.U.U.U.U.L.L.U.U.U.U.U.U.U.                                                                            ",
"                                                                          U.L.U.U.L.L.L.U.U.U.U.U.U.U.U.L.L.L.L.L.L.L.L.L.L.L.L.L.L.L.L.L.L.L.L.L.L.L.L.L.L.L.L.L.L.L.L.L.L.L.L.L.L.L.L.L.L.L.L.L.L.L.L.L.L.L.L.L.L.L.L.L.U.L.L.U.Y.Y.U.L.L.L.L.L.U.U.L.L.L.L.L.L.L.L.L.L.U.L.L.L.U.U.U.U.U.L.L.L.L.L.L.L.U.L.U.P.U.L.L.L.L.L.L.K.K.K.P.P.P.P.P.P.P.P.P.P.I.I.I.I.P.].I.I.I.I.I.P.P.I.P.P.P.P.P.P.P.P.P.P.P.P.P.P.P.P.I.I.I.P.K.K.K.K.P.P.P.U.P.P.P.P.P.P.I.I.I.I.I.I.I.I.I.'.'.I.I.'.'.I.I.'.'.'.I.I.'.'.'.'.'.I.I.'.I.'.'.H.H.H.H.H.H.H.H.H.H.H.).H.H.H.I.I.I.I.H.H.I.H.H.H.H.H.F.F.).).^.).F.).).).).^.^.^.^.^.^.^.^.^.).).^.).F.F.).H.).H.H.H.H.H.).H.H.'.).).).).).'.'.).).).).).).^.^.^.^.).).^.^.^.).).).).^.^.^.).).).).).^.).).).).).).).).).).).).).).'.'.).).'.'.I.'.K.K.P.P.P.P.P.P.P.K.K.K.K.U.U.L.U.U.U.L.U.U.U.L.U.U.U.U.U.U.U.U.U.U.L.L.U.U.U.U.U.L.U.L.L.L.L.L.L.L.L.Y.L.L.U.U.U.Y.U.U.L.L.U.U.U.U.U.U.U.U.U.L.L.L.U.Y.U.L.L.U.U.U.U.L.U.U.U.U.U.U.L.U.U.U.U.U.L.U.U.L.                                                                        ",
"                                                                        U.U.U.L.U.L.L.U.U.U.U.U.U.U.U.U.Y.L.L.L.L.L.L.L.L.L.L.L.L.L.L.L.L.L.L.L.L.L.L.L.L.L.K.L.L.[.L.L.L.L.L.L.L.L.L.L.L.L.L.L.L.L.L.L.L.L.L.L.L.L.L.L.L.U.L.L.L.L.L.U.L.L.L.L.L.U.U.L.L.L.L.L.L.L.L.L.L.U.L.L.L.L.L.L.L.L.L.U.U.U.L.L.L.L.U.L.U.U.L.L.L.L.L.K.K.L.P.P.P.P.P.P.P.K.P.P.I.I.P.I.I.I.P.I.I.P.I.I.].P.P.P.P.P.P.P.P.I.P.P.P.P.P.K.K.P.I.I.I.I.I.P.K.P.P.P.P.P.P.P.I.I.P.P.I.I.I.I.I.I.I.I.I.I.I.I.'.'.'.'.'.'.'.'.H.).).).).).).).).).).H.H.H.).).).).).).H.H.F.H.H.H.F.F.H.H.H.H.H.I.I.I.H.).).).).).G.^.).).).).).).^.).^.^.^.^.^.^.^.^.).).).)./.F.H.H.H.H.H.H.H.H.H.).H.H.).).).).).).).).).).).).).).).^.^.^.^.).).).^.).).).).).^.).).).).).).).^.^.^.).).).).).).).).).^.).).).).'.).H.F.H.I.H.I.I.I.I.K.K.K.K.P.K.K.U.U.U.U.U.P.L.U.U.U.U.U.U.L.L.U.U.U.U.U.U.U.U.L.U.U.L.L.U.U.L.L.U.L.L.L.L.L.L.U.L.U.U.L.U.U.U.Y.L.U.U.U.U.U.U.U.U.U.U.U.U.L.L.L.L.L.U.U.L.L.U.U.U.U.U.U.U.U.U.U.L.U.U.L.U.U.U.U.                                                                      ",
"                                                                      U.U.Y.U.L.U.U.L.U.U.U.U.U.U.L.U.L.L.U.L.L.L.L.L.L.L.L.L.L.L.L.L.L.L.L.L.L.L.L.L.L.L.L.L.L.L.L.L.L.L.L.L.L.L.L.L.L.L.L.L.L.L.L.L.L.L.L.L.L.L.L.L.L.L.L.L.L.L.L.L.L.L.L.L.L.L.U.U.U.U.U.L.L.L.U.U.U.U.U.U.U.L.L.L.L.L.L.U.U.L.U.L.U.L.U.U.U.U.L.K.U.L.K.P.U.K.K.K.L.U.P.I.P.K.P.P.P.I.I.I.I.I.I.I.I.P.P.I.I.I.P.P.P.P.P.P.I.P.P.P.P.P.I.K.I.I.I.I.P.P.P.P.P.P.P.I.I.I.I.I.I.I.P.I.I.I.I.I.I.I.H.I.).H.H.H.H.I.I.H.I.I.).).).H.).).).).).).).).).).).).).F.).).).).).H.).).H.H.H.F.H.H.H.H.F.H.I.H.H.H.)./.).).).F.).).).).).^.^.).).).).).).^.^.).).F.).).F.).H.H.H.H.H.H.H.).H.H.).).).).).).).).).).).).).'.I.).).^.^.^.^.^.).).).(.).).).).).).).).).).).^.).).^.^.).).).).).).).).).).).).).).).).H.H.H.'.I.I.I.I./.F.I.P.K.K.K.P.K.L.U.K.P.U.U.U.U.U.U.U.U.L.L.U.U.L.Y.U.L.U.U.U.L.U.U.L.L.L.L.L.L.L.L.L.L.L.L.U.Y.L.L.U.U.U.Y.U.U.U.U.U.U.U.U.U.U.U.U.U.L.L.L.U.U.L.L.U.L.L.L.U.U.U.U.U.U.U.U.U.L.L.U.U.U.U.U.L.U.                                                                    ",
"                                                                    U.U.U.U.U.L.L.L.L.U.U.U.U.U.U.L.U.L.L.U.L.L.L.L.L.L.L.L.L.L.L.L.L.L.L.L.L.L.L.L.L.L.L.L.L.L.L.L.L.L.L.L.L.L.L.L.L.L.L.L.L.L.L.L.L.L.L.L.L.L.L.L.L.L.L.L.L.L.L.L.L.L.L.L.L.L.L.U.U.U.U.U.L.L.L.U.U.U.U.U.U.U.L.L.L.L.L.L.U.L.L.L.L.U.L.L.U.P.K.K.K.U.U.P.P.U.P.P.U.U.P.P.P.P.].P.I.'.I.I.I.I.I.I.I.I.P.I.I.I.P.P.I.I.I.I.I.I.P.I.I.I.I.I.I.I.I.P.P.P.P.P.P.I.I.I.I.I.I.I.I.I.I.I.P.I.I.I.I.I.H.H.I.H.H.H.).).H.H.).).).H.).).).).).).).).).).).).).).).).).).).).).).).).).).).).).).).).^.).).).).F.).).).).^.^.^.).^.^.).^.^.F.).).).).).).G.).).).F.)./.H.H.H.).H.H.H.H.H.).).'.).).).).).I.'.'.'.'.).).).).).^.^.(.G.^.^.).(.(.).(.).).).).).).).).).).).).).).^.).).^.^.).).).).).^.).).).).).).).).).'.).I.'.H.I.H.H.I.I.K.K.K.P.P.P.P.P.P.K.U.U.U.U.U.L.U.U.U.U.U.U.U.Y.L.L.Y.U.L.L.L.L.L.L.L.L.L.L.L.L.U.U.L.L.U.L.L.U.U.U.L.L.U.U.U.U.U.U.L.U.U.U.U.L.U.L.L.U.U.L.L.U.L.L.L.U.U.U.U.U.U.U.L.U.L.L.U.U.L.L.L.U.L.L.                                                                  ",
"                                                                  U.U.Y.Y.U.U.L.L.L.U.U.U.U.U.U.U.U.U.L.L.L.L.L.L.L.L.L.L.L.L.L.L.L.L.L.L.L.L.L.L.L.L.L.L.L.L.L.L.L.L.L.L.L.L.L.L.L.L.L.L.L.L.L.L.L.L.L.L.L.L.L.L.L.L.L.L.L.L.L.L.L.L.L.L.L.L.L.L.U.U.U.U.U.L.L.L.U.U.U.U.U.U.U.L.L.L.L.L.L.L.L.L.L.L.L.L.L.L.K.K.P.L.L.U.U.U.P.P.U.U.L.P.P.I.P.P.I.I.'.'.I.I.I.I.I.I.I.P.P.I.I.P.I.I.I.I.I.I.P.P.P.P.I.I.I.I.P.P.P.P.P.I.I.I.H.H.H.H.I.I.I.I.I.I.I.P.I.I.H.).H.).).).).).).).).F.).).^.^.).).).).).).).).^.^.).^.).).).).^.^.^.).).).).^.^.).^.).).).).).).^.^.).).^.^.^.).^.^.^.^.^.^.).^.^.^.).).).).).F.).).).).).).F.).).F.H.H.).).).).H.H.).).'.).).).).).'.).).).).).).^.^.^.^.^.^.^.^.).).(.).).(.).).).).).).).).).).).).).).).).).^.^.).).).^.).).).).).).^.).).).).).).).'.).H.H.I.'.I.I.K.P.P.I.P.P.P.P.K.U.U.U.P.U.U.U.U.U.U.U.U.U.U.U.U.Y.U.L.L.L.L.Y.L.L.L.L.Y.L.L.U.U.L.U.U.U.L.L.U.U.U.U.L.L.U.U.U.U.U.U.U.U.L.L.U.L.L.U.U.L.U.U.L.L.U.U.L.U.L.L.U.U.L.U.L.L.U.U.U.U.L.L.L.L.L.                                                                ",
"                                                                U.U.U.U.U.U.U.L.L.L.U.U.U.L.U.U.U.U.U.L.L.U.L.L.L.L.L.L.L.L.L.L.L.L.L.L.L.L.L.L.L.L.L.L.L.L.L.L.L.L.L.L.L.L.L.L.L.L.L.L.L.L.L.L.L.L.L.L.L.L.L.L.L.L.L.L.L.L.L.L.L.L.L.L.U.Y.U.U.Y.L.U.U.U.U.L.L.L.U.U.U.U.U.U.L.L.L.L.U.L.L.U.P.U.U.L.L.U.P.K.K.K.K.L.L.U.U.U.P.U.U.U.U.K.I.I.P.I.I.I.I.I.I.I.I.I.P.I.I.I.P.I.I.I.I.I.I.I.P.P.P.P.P.P.P.P.P.P.P.P.P.P.I.H.H.H.H.H.I.I.I.H.H.).H.).H.).).H.H.).).^.).).).^.).).).^.).^.^.^.^.^.^.).^.).).).^.^.).).).).).^.^.^.^.).(.^.^.^.^.^.^.(.^.).).^.^.^.^./.^.^.^.^.^.).^.^.^.^.^.^.^.).).^.^.^.^.^.G.).).).).).).).).)./.).).).).H.).).).).).).).).).).).).).^.^.^.^.^.^.^.^.^.^.^.^.^.).).).).).(.(.).).).(.(.).^.).).^.).).).^.).).^.).^.).).^.).).).).).).).).).).).G.).).).).H.'.H.F.I.I.F.K.].K.K.K.K.K.].].K.K.K.U.U.U.U.U.U.U.L.U.U.U.U.U.U.L.L.Y.L.L.Y.U.Y.L.L.L.L.U.L.L.U.U.U.Y.U.U.L.L.U.U.U.U.U.U.U.U.U.U.U.U.L.L.L.L.L.U.L.U.U.L.L.U.U.L.U.U.U.U.U.U.L.L.L.U.U.U.U.U.U.U.U.U.U.                                                              ",
"                                                              U.U.U.U.U.U.U.U.L.L.L.U.U.U.L.U.U.L.L.U.U.L.L.L.L.L.L.L.L.L.L.L.L.L.L.L.L.L.L.L.L.L.L.L.L.L.L.L.L.L.L.L.L.L.L.L.L.L.L.L.L.L.L.L.L.L.L.L.L.L.L.L.L.L.L.L.L.L.L.L.L.L.L.L.L.L.Y.U.U.L.L.U.U.U.U.L.L.L.L.U.U.U.U.U.U.L.L.L.U.U.L.L.L.U.U.U.U.U.P.K.K.K.P.U.U.U.U.U.U.U.U.U.U.P.I.I.I.I.I.'.I.I.I.I.I.I.I.P.I.I.I.I.P.P.P.I.I.P.P.P.P.P.P.P.P.P.P.P.P.I.I.I.I.I.I.I.I.I.I.I.I.H.F.F.H.^.).).^.).).).^.^.^.).^.^.^.G.^.^.^.^.^.^.^.^.^.^.).).).).).(.(.).).).^.^.^.^.^.(.^.(.^.^.^.^.^.(.(.^.^.(.^.^.^.^.^.^.^.^.).).).^.^.^.^.^.).).G.G.G.^.^.^.^.^.^.^.^.).).^.^.^.).).).).).).).).).).).).'.).).).)./.).).^.^.^.(.^.^.^.^.^.^.^.G.).).).).^.(.(.G.).).).(.(.).^.^.).(.).).^.^.).).).).G.).).).^.).).).).F.).).F.F.G.).F.H.).).).H.H.I.H.).K.I.K.K.K.K.K.K.K.K.K.P.P.U.U.U.U.U.U.U.U.L.L.U.U.L.U.L.L.L.L.Y.U.Y.L.L.U.L.L.U.U.U.U.U.U.U.U.U.Y.U.U.U.U.L.U.U.U.U.L.U.U.U.L.L.L.L.U.L.L.U.L.U.U.L.U.U.L.L.L.L.U.U.L.L.U.U.L.U.U.L.L.L.L.L.L.                                                            ",
"                                                            U.U.U.U.U.U.U.U.Y.Y.Y.U.U.U.U.U.U.L.L.U.U.U.L.L.L.L.L.L.L.L.L.L.L.L.L.L.L.L.L.L.L.L.L.L.L.L.L.L.L.L.L.L.L.L.L.L.L.L.L.L.L.L.L.L.L.L.L.L.L.L.L.L.L.L.L.L.L.L.L.L.L.L.L.L.U.Y.L.U.U.U.L.L.U.U.U.U.L.L.L.L.L.U.U.U.U.U.U.U.L.L.U.L.U.L.L.U.U.U.U.L.K.K.K.U.U.U.U.U.U.P.P.P.P.P.P.P.K.I.I.I.I.I.'.I.I.I.I.I.I.P.I.P.P.P.P.P.P.P.P.U.P.P.P.P.P.P.P.I.P.P.I.I.I.I.I.).I.H.H.F.F.).).).).).^.).).^.^.^.^.^.).).^.^.^.^.^.^.^.^.^.^.^.(.(.^.^.^.).^.^.(.(.(.^.).(.^.).).).).^.^.(.).^.^.^.^.^.^.^.^.^.^.(.(.(.(.).^.^.^.).).^.).).).).).).^.).).^.(.^.^.^.^.G.(.^.^.^.^.^.).^.^.^.).).).).).).).).).).).)./.^.^.^.^.G.^.^.^.(.(.(.^.G.).).).).).).^.).^.^.).).).).).).).).).).).).^.^.).).G.G.).^.^.).).).).).).).F.).).).).).).).).).).).H.).).H.I.K.K.K.`.K.K.K.K.K.K.P.P.P.U.U.P.U.U.U.U.L.L.U.L.U.U.L.L.L.L.L.U.Y.Y.L.L.L.L.L.Y.L.L.Y.U.U.U.U.U.Y.U.U.U.U.L.U.Y.L.L.U.U.L.L.L.L.U.L.L.L.L.L.U.U.L.U.U.L.L.L.L.L.U.U.U.L.U.U.U.L.L.L.L.L.L.L.U.                                                          ",
"                                                          U.U.U.U.U.U.U.U.U.L.U.U.U.U.U.U.U.U.L.L.L.L.U.U.L.L.L.L.L.L.L.L.L.L.L.L.L.L.L.L.L.L.L.L.L.L.L.L.L.L.L.L.L.L.L.L.L.L.L.L.L.L.L.L.L.L.L.L.L.L.L.L.L.L.L.L.L.L.L.L.L.L.L.L.L.L.L.L.U.U.U.L.L.U.U.U.U.L.L.L.L.L.U.U.U.U.U.U.L.P.U.U.U.U.U.L.U.U.U.U.U.L.L.U.L.U.U.U.U.P.P.I.P.].'.I.I.I.I.'.I.I.I.'.I.P.I.I.I.P.P.I.P.P.P.P.P.].P.P.P.P.P.P.P.P.P.I.I.I.I.I.H.H.F.).).F.F.).G.F.).).).).^.^.).).).^.^.^.^.).).^.^.^.^.^.^.^.(.(.(.^.^.(.(.(.(.^.(.(.(.).).(.(.(.(.).(.).).(.(.(.(.^.^.^.^.(.(.(.^.(.(.(.(.(.(.(.(.(.(.(.(.(.(.(.(.(.).).^.).).(.^.^.^.^.^.^.(.(.G.G.G.(.G.^.^.(.(.(.(.^.^.).).).).^.(.^.^.(.^.^.^.^.^.^.(.(.(.(.(.G.).).).).).).(.).^.^.F.G.G.).).G.G.G.G.(.(.).).^.G.G.).G.).^.^.).H.).).).).).).F.).).)./.).).).).).).H.'.'.).).H.I.K.K.K.P.K.K.K.K.K.K.K.U.U.K.K.U.U.U.U.U.U.Y.U.U.U.U.U.L.L.L.L.L.L.L.L.L.U.L.L.L.U.U.U.U.U.L.Y.U.L.U.U.L.L.U.U.U.L.U.U.L.L.L.L.U.U.U.L.L.U.U.U.U.U.L.U.U.U.U.U.U.U.U.L.L.L.L.L.U.U.U.U.U.L.U.                                                        ",
"                                                        U.U.U.U.U.U.U.U.U.U.U.Y.L.Y.U.U.U.U.U.U.L.L.L.L.U.L.L.L.L.L.L.L.L.L.L.L.L.L.L.L.L.L.L.L.L.L.L.L.L.L.L.L.L.L.L.L.L.L.L.L.L.L.L.L.U.L.L.L.L.L.L.L.L.L.L.L.L.L.L.L.L.L.U.U.U.U.L.L.L.U.Y.L.L.U.U.U.U.L.L.U.U.U.U.U.U.U.U.L.U.K.P.U.U.U.U.U.L.L.L.U.U.U.U.U.U.U.U.U.L.U.P.].'.I.I.'.I.I.I.'.I.I.I.I.I.P.P.I.I.I.I.I.I.I.P.P.I.P.P.P.P.I.I.I.I.I.I.I.H.H.H.H.H.H.F.F.H.H.F.H.^.^.^.).).^.^.^.^.^.^.^.^.^.^.^.).(.^.^.^.).).).^.(.(.^.(.(.(.(.(.(.(.(.(.(.(.(.(.(.(.(.(.(.(.(.(.(.(.(.(.(.(.(.(.(.(.(.(.(.(.(.(.(.(.(.(.(.(.(.(.(.).(.(.(.^.^.(.(.(.(.^.^.^.^.^.^.^.^.G.G.^.G.G.G.G.G.G.G.G.(.^.^.^.^.(.(.^.(.(.^.^.^.^.^.(.(.(.(.(.(.).).).).).G.G.).^.^.^.F.G.G.G.).).G.G.G.(.).).).^.G.G.G.G.^.^.^.F.F.F.).).).).)././.).).).F./.).).H.).).H.'.'.).H.I.I.'.K.K.K.K.K.K.K.K.K.K.P.P.P.K.U.P.P.U.U.U.U.U.U.Y.Y.L.L.L.L.L.L.L.L.L.L.L.L.L.U.L.U.L.L.L.L.U.U.U.U.U.L.U.U.U.U.L.L.L.L.L.L.L.U.U.U.U.U.U.U.L.U.L.U.U.U.U.L.L.U.U.L.L.L.L.L.L.U.U.U.L.L.U.U.                                                      ",
"                                                      U.U.U.U.U.U.U.U.U.U.U.U.L.L.U.U.U.U.U.U.U.L.U.U.L.L.L.L.L.L.L.L.L.L.L.L.L.L.L.L.L.L.L.L.L.L.L.L.L.L.L.L.L.L.L.L.L.L.L.L.L.U.U.L.L.L.L.L.L.L.L.L.L.L.L.L.L.L.L.L.L.L.L.U.U.U.U.L.L.L.U.U.L.L.U.U.U.U.L.L.U.U.U.U.U.U.U.L.L.P.K.K.U.U.U.U.U.L.U.U.L.L.K.U.U.U.U.L.U.U.U.U.P.P.I.P.P.I.I.P.I.I.I.P.P.I.P.P.I.I.P.I.I.I.I.P.P.I.I.K.P.'.'.H.H.H.H.H.H.).).H.H.F.F.).H.F.F.).^.^.^.^.^.^.^.^.^.^.^.).).^.^.^.^.(.).).(.(.(.(.(.(.(.(.(.(.(.(.(.(.(.(.(.(.(.(.(.(.(.(.(.(.(.(.(.(.(.(.(.(.(.(.(.(.(.(.(.(.(.(.(.(.(.(.(.(.(.(.(.(.(.(.(.(.).^.(.(.).(.).(.(.(.(.^.^.^.^.^.^.(.(.G.G.^.G.G.^.^.^.(.^.^.^.(.(.^.G.^.^.(.).(.(.(.(.^.).(.).).).).).G.(.G.G.).).F.F.).G.G.G.G.G.).G.G.G.G.^.^.).).).).G.G.).).).F.).^.^.G.F.).).H.H.H.H.F.).).H.).).F.H.'.I.H.'.I.I.`.`.`.K.K.K.K.K.K.K.K.P.P.K.U.P.K.K.U.Y.U.U.U.U.Y.U.U.L.L.L.L.L.L.U.U.U.L.L.U.U.L.U.L.L.L.L.U.U.U.U.L.U.U.U.L.L.L.L.L.L.L.L.U.U.U.U.U.U.L.L.U.U.L.L.U.U.L.L.L.U.U.U.U.U.U.U.L.U.U.L.U.U.U.L.                                                    ",
"                                                      L.L.U.U.U.U.U.U.U.U.U.L.L.U.U.L.L.L.L.L.L.L.U.U.L.L.L.L.L.L.L.L.L.L.L.L.L.L.L.L.L.L.L.L.L.L.L.L.L.L.L.L.L.L.L.L.L.L.L.L.L.L.L.L.L.U.L.L.L.L.L.L.L.L.L.L.L.L.U.U.U.U.U.U.L.L.L.L.L.L.U.U.L.L.L.U.U.U.U.U.U.U.U.U.U.U.U.L.L.U.P.K.U.U.U.U.L.K.U.U.K.K.U.L.U.U.L.K.U.U.P.I.I.I.I.I.I.I.I.I.H.H.I.I.P.P.P.P.I.I.I.I.I.I.K.P.P.'.H.I.I.H.I.H.).H.H.).).).).).H.F.).).F.).^.^.^.^.^.).).).).^.^.(.(.(.^.^.(.(.).(.^.G.(.(.(.(.(.(.(.(.(.(.(.(.(.(.(.(.(.(.(.(.(.(.(.(.(.(.(.(.(.(.(.(.(.(.(.(.(.(.(.(.(.(.(.(.(.(.(.(.(.(.(.(.(.(.(.(.(.(.(.(.(.(.(.(.(.(.(.(.(.(.(.(.(.(.(.(.(.^.^.(.(.^.^.^.(.^.^.^.^.(.(.^.^.^.^.).).(.(.).).^.^.).).).).G.).(.G.G.G.G.G.G.G.F.G.G.G.G.G.G.).G.^.^.).).G.G.).).^.^.).).F.F.).).^.G.).).H.H.H.F.).H.F.).).).).).).).H.I.I.'.'.`.`./.'.K.K.K.`.`.K.K.K.K.K.K.U.P.U.U.U.U.U.U.U.Y.U.U.U.U.U.L.L.L.Y.Y.L.L.L.U.Y.L.Y.L.U.U.U.U.U.U.L.U.L.Y.Y.L.L.L.L.L.L.L.L.L.L.U.U.L.U.U.U.L.U.U.U.L.U.U.L.L.L.U.U.U.U.L.U.U.U.L.U.L.L.U.U.                                                    ",
"                                                    U.L.K.K.U.Y.Y.U.U.U.U.U.U.L.U.L.L.L.L.L.L.L.L.L.L.L.L.L.L.L.L.L.L.L.L.L.L.L.L.L.L.L.L.L.L.L.L.L.L.L.L.L.L.L.L.L.L.L.L.L.L.L.L.L.L.L.U.L.L.L.L.L.L.L.L.L.L.L.L.U.U.U.U.U.U.L.L.L.L.L.L.U.L.L.L.L.L.U.U.U.U.U.U.K.L.U.U.U.L.L.L.K.L.U.U.U.U.L.L.U.U.K.U.U.L.L.U.U.U.U.U.P.I.I.'.I.I.I.I.I.I.I.I.I.I.I.P.P.I.I.P.I.I.P.I.I.'.'.I.H.H.).F.).).).F.F.).F.).H.H.F.^.).).^.^.^.^.^.^.^.(.(.(.(.(.(.^.(.^.^.(.(.(.(.(.(.G.(.(.(.(.(.(.(.(.(.(.(.(.(.(.(.(.(.(.(.(.(.(.(.(.(.(.(.(.(.(.(.(.(.(.(.(.(.(.(.(.(.(.(.(.(.(.(.(.(.(.(.(.(.(.(.(.(.(.(.(.(.(.(.(.(.(.(.(.(.(.(.(.(.(.(.(.(.(.(.(.(.(.^.(.(.(.).^.^.(.).).^.^.).).G.).G.).).^.^.).).).^.G.(.(.G.G.G.G.G.G.G.G.G.G.G.G.G.G.G.).).^.).).^.^.^.^.^.^.^.).F.F.F.).).).).).F.F.).F.).).).).).).).).).).).I.'.'.'.'.'.K.`.'.`.F.F.`.K.K.K.K.K.P.K.K.L.U.L.U.U.U.U.U.Y.U.U.Y.Y.L.U.U.L.L.L.L.L.U.Y.Y.U.Y.L.Y.U.L.U.U.U.U.L.L.L.L.L.L.L.L.Y.L.L.L.L.U.Y.U.U.U.U.L.U.U.U.U.Y.U.U.U.U.U.U.U.U.U.U.U.U.U.U.L.L.L.L.U.                                                  ",
"                                                  U.U.L.L.U.U.U.U.U.L.U.U.U.Y.U.U.L.L.U.U.U.U.U.U.L.L.L.L.L.L.L.L.L.L.L.L.L.L.L.L.L.L.L.L.L.L.L.L.L.L.L.L.L.L.L.L.L.L.L.L.L.L.L.L.L.L.L.U.L.L.L.L.L.L.L.L.L.L.L.L.U.U.U.U.L.U.L.L.L.L.L.L.L.U.L.L.L.U.U.U.U.U.U.U.U.].P.K.U.U.L.K.L.U.U.U.U.U.U.L.L.U.L.U.U.P.P.P.P.P.I.I.'.I.I.I.I.I.I.I.I.I.I.I.I.I.I.P.P.I.I.P.P.P.P.I.I.H.).).I.).).).H.).).F.F.).).).).).).^.^.^.^.^.^.(.(.(.(.^.(.(.(.(.(.(.(.(.^.^.).(.(.(.(.(.(.(.(.(.(.(.(.(.(.(.(.(.(.(.(.(.(.{.{.(.(.(.(.(.(.(.{.{.(.(.(.(.(.(.(.(.(.(.(.(.(.{.(.(.(.(.(.(.(.(.(.(.(.(.(.(.(.(.(.(.(.(.(.(.(.(.(.(.(.(.(.(.(.(.(.(.(.(.(.(.(.(.(.(.(.(.).(.(.(.(.).).).).G.G.).G.).^.G.^.^.).).(.G.G.).G.G.).^.G.G.G.G.G.G.^.G.G.G.).).).^.G.).^.^.^.^.^.^.^.^.).).).).).F.).).).).).).).).).).).^.).).).).).).).).).H.'.'.).).).).).).).F.K.K.K.K.K.K.K.L.L.U.U.U.U.U.U.U.U.Y.U.L.L.U.U.U.L.L.L.U.Y.U.U.U.L.L.L.L.L.U.U.L.U.Y.L.U.U.L.L.U.L.L.L.L.U.L.L.U.L.U.U.U.U.U.U.U.U.L.U.U.U.U.U.U.L.L.U.U.U.U.U.U.U.U.L.U.U.                                                ",
"                                                K.U.L.U.U.U.U.U.U.U.U.U.U.U.U.U.U.L.L.U.U.U.U.L.L.L.U.L.L.L.L.L.L.L.L.L.L.L.L.L.L.L.L.L.L.L.L.L.L.L.L.L.L.L.L.L.L.L.L.L.L.L.L.L.L.L.L.L.U.U.L.L.L.L.L.U.L.L.L.L.L.U.U.L.U.U.U.L.L.L.L.L.L.L.L.U.U.L.L.L.U.U.U.U.U.U.].P.P.P.U.L.K.U.U.U.P.U.U.U.U.L.P.P.P.P.P.P.P.I.I.I.I.I.I.I.I.I.I.I.I.I.I.I.I.I.I.I.I.I.I.I.P.P.I.I.H.H.H.).H.H.H.H.H.H.).).H.).).).^.^.^.^.^.^.^.^.^.^.(.(.(.(.(.(.(.(.(.(.(.(.(.(.(.(.(.(.(.(.(.(.(.(.(.(.(.(.(.(.(.(.(.(.(.(.G.(.{.{.(.(.{.(.{.{.{.{.{.{.{.{.{.{.{.{.{.{.{.{.(.(.{.(.(.(.(.(.(.(.(.(.(.(.{.{.{.{.{.{.{.(.(.(.{.{.(.(.(.(.(.(.(.G.(.(.(.(.(.(.(.(.(.(.(.(.(.(.(.(.(.(.).).).^.G.).(.).).G.G.^.^.^.(.(.(.(.).G.G.).^.^.G.^.G.G.^.(.^.^.^.^.G.^.^.G.G.^.^.).^.^.^.^.^.).F.).).).F.F.).).).).).).).).).).).).).).).).).).).).).).).).H.H.'.'.H.H.K.K.K.K.K.K.'.].K.K.K.L.U.U.P.U.U.U.U.U.L.P.L.L.L.L.L.L.U.Y.L.U.U.U.L.L.L.L.L.L.U.U.U.L.U.U.U.L.L.L.L.L.L.U.L.L.L.L.Y.U.U.U.U.U.U.L.L.L.U.U.U.U.U.L.L.L.L.L.L.L.U.U.U.L.L.L.L.                                              ",
"                                              L.K.L.U.U.L.U.U.U.U.U.U.U.U.L.L.U.U.U.L.L.U.U.U.L.L.U.U.U.L.L.L.L.L.L.L.L.L.L.L.L.L.L.L.L.L.L.L.L.L.L.L.L.L.L.L.L.L.L.L.L.L.L.L.L.L.L.L.L.U.L.L.L.L.L.L.U.L.L.L.L.L.U.U.L.U.L.U.L.L.L.L.L.L.L.L.U.U.L.U.U.L.L.L.U.U.L.U.U.P.K.L.L.L.K.P.U.L.K.U.K.U.U.P.P.P.P.I.I.I.I.'.H.I.I.I.I.I.I.I.I.I.I.I.I.I.I.I.I.I.I.P.P.I.I.I.H.).).).).).).).).).).).).).).).).^.^.^.^.^.).).(.(.(.(.(.(.(.(.(.(.(.(.(.(.(.(.(.(.(.(.(.(.{.{.(.(.(.G.G.(.(.(.(.(.(.(.(.(.(.(.{.(.{.G.G.G.G.R.(.{.{.{.(.{.{.{.{.{.{.{.{.{.{.{.{.(.(.(.(.(.{.{.(.(.(.(.{.{.{.{.{.{.{.{.{.(.{.{.{.(.(.(.{.(.(.(.(.(.(.(.(.(.(.(.(.(.(.(.(.(.(.(.(.(.(.(.(.).).G.G.G.G.).).).).).).).).^.).).G.(.G.G.^.G.G.G.G.^.^.^.(.^.G.G.^.^.).G.^.^.^.^.^.^.^.^.G.G.G.).F.).).).).).).).).).).).).).).).).).).).).).).).).).).).).).).'.'.I.K.K.K.I.I.`.K.K.K.K.K.L.K.P.U.U.P.P.U.U.P.U.U.L.L.L.L.L.Y.L.U.L.L.L.L.L.L.L.L.U.L.U.U.U.U.U.U.L.L.L.L.L.L.U.U.U.U.U.U.U.U.L.U.U.L.U.U.L.U.L.U.U.U.U.L.L.L.L.L.U.U.L.L.L.L.U.L.                                            ",
"                                              L.L.L.U.L.L.L.Y.U.U.U.U.U.U.Y.U.L.L.L.L.L.U.U.L.L.L.L.L.L.L.L.L.L.L.L.L.L.L.L.L.L.L.L.L.L.L.L.L.L.L.L.L.L.L.L.L.L.L.L.L.L.Y.L.L.L.L.L.L.L.U.L.L.L.L.L.L.L.L.L.L.L.L.U.U.U.L.L.U.L.K.L.Y.U.L.U.U.U.U.U.U.U.L.L.U.U.L.L.L.U.L.L.L.U.L.K.U.U.L.K.U.U.P.P.P.P.P.P.I.I.I.I.I.I.I.I.I.I.I.I.I.I.I.I.I.I.I.I.I.I.I.I.I.I.H.H.H.H.H.).).).).).).).).).).).).).).^.).).).).(.(.(.(.(.(.(.(.(.(.(.(.(.(.(.(.(.(.(.(.(.(.(.(.(.(.{.{.{.{.{.{.{.{.{.(.(.(.{.(.{.{.{.{.{.{.(.(.(.{.{.{.{.{.{.{.{.{.{.{.{.{.{.{.{.{.{.{.(.{.{.(.{.{.{.{.{.{.{.{.{.(.{.{.{.{.{.{.{.{.{.{.{.{.{.{.(.(.(.(.(.(.(.(.(.(.G.G.(.(.(.(.(.(.(.(.).).(.(.(.(.G.G.G.G.).(.^.).^.).(.(.^.^.).(.(.^.G.G.^.G.^.^.G.G.^.^.^.G.G.G.H.^.G.G.^.^.^.G.G.^.G.G.).G.).).).).).).).).).).).).).).).F.).).).).).).).).).).).).).).).H.'.'.'.F.F.I.I.F./.K.K.K.K.K.K.U.U.U.U.L.U.U.U.P.U.Y.Y.U.L.L.L.L.L.L.L.L.L.L.L.L.L.L.L.L.L.Y.U.U.U.L.U.Y.L.L.L.L.L.L.L.L.U.U.U.Y.U.U.U.U.U.U.L.U.U.U.U.U.U.L.U.U.L.L.U.L.L.L.L.U.U.L.                                            ",
"                                            L.L.L.L.U.L.L.L.U.U.U.U.U.U.U.U.U.L.U.L.L.Y.L.U.L.L.L.U.L.L.L.L.L.L.L.L.L.L.L.L.L.L.L.L.L.L.L.L.L.L.L.L.L.L.L.L.L.L.L.L.L.L.L.L.L.L.L.L.L.L.U.L.L.L.L.L.U.U.U.U.L.L.L.U.U.U.L.L.L.L.K.L.U.U.L.U.U.U.L.L.U.U.U.L.U.U.U.K.L.K.K.L.].U.U.U.U.U.U.U.U.L.P.P.P.P.P.I.I.I.I.I.I.I.I.I.I.I.I.I.I.I.I.I.I.I.I.I.I.I.I.I.'.H.H.H.H.H.).).).).).).).).).).).).^.^.).).).).).(.^.^.(.(.(.(.(.(.(.(.(.(.(.(.(.(.(.(.{.{.(.(.(.(.(.(.{.{.{.{.{.{.{.{.{.{.{.{.{.{.{.{.{.R.{.{.{.{.{.{.{.{.{.{.{.{.{.{.{.{.{.{.{.{.{.{.{.{.{.{.{.{.{.{.{.}.}.{.{.{.{.{.{.{.{.{.{.{.{.{.{.{.{.{.{.{.{.(.(.(.(.(.(.(.(.(.(.(.(.(.(.(.(.(.(.(.(.(.(.(.(.(.(.(.(.(.(.(.(.(.(.(.(.(.(.(.^.^.^.^.^.).^.G.(.(.(.G.G.^.^.G.G.H.H.).^.^.^.G.^.^.^.^.^.^.).).J.F.^.).^.).).).).).).).).).).).).).).).).).).).).).).).).).).).).'.I.H.H.F.F.F.K.K.K.K.K.K.K.P.U.U.P.K.P.U.U.U.U.Y.U.U.L.L.U.L.L.L.L.U.L.L.L.L.L.L.L.L.L.L.L.L.L.L.U.U.L.L.L.L.L.L.Y.U.U.U.U.L.Y.U.Y.U.U.U.U.U.U.U.U.U.U.U.U.U.L.L.L.L.U.U.U.U.U.L.L.                                          ",
"                                          L.L.L.L.L.U.U.L.U.U.U.L.U.U.U.U.U.L.U.U.L.L.U.L.L.L.L.L.U.L.L.L.L.L.L.L.L.L.L.L.L.L.L.L.L.L.L.L.L.L.L.L.L.L.L.L.L.L.L.L.L.L.L.U.L.L.L.L.L.L.L.U.L.L.L.Y.U.U.U.L.U.L.L.U.U.U.U.L.L.U.L.L.L.L.L.U.U.U.U.U.U.U.U.U.U.U.U.U.L.U.U.K.U.U.U.U.U.U.U.P.P.U.U.P.P.P.P.I.I.I.I.I.I.I.I.I.I.I.I.I.I.I.I.I.I.I.I.I.I.I.I.I.H.H.).H.H.).).).).).).).).).).).).).).^.^.^.).).).(.(.(.(.(.(.(.(.(.(.(.(.(.(.(.(.(.(.(.{.{.{.{.{.{.{.{.{.{.{.{.{.{.{.{.{.{.{.(.(.(.(.(.{.{.{.{.{.{.{.{.{.}.{.{.{.}.{.{.{.{.{.{.{.{.}.{.{.{.{.{.{.{.{.{.{.{.{.{.{.{.{.{.{.{.{.{.{.{.{.{.{.{.{.{.{.{.{.{.{.{.{.{.{.{.{.{.{.{.{.(.(.(.(.(.(.(.(.(.(.(.(.(.(.(.(.(.(.(.(.(.).(.(.).(.(.(.^.(.).).(.(.).^.(.(.(.(.G.^.^.G.G.).H.).^.^.^.G.^.^.^.).).F.).).F.G.^.^.).).).^.^.^.).^.^.).^.).).).).).).).).).).).).).).).).).F.'.'.).H././.F.K.K.K.F./.F.K.K.P.P.K.K.P.U.P.P.P.U.L.P.U.U.U.U.Y.U.Y.U.U.U.U.L.L.U.L.L.L.L.L.L.L.U.U.U.U.L.L.L.L.L.L.U.U.U.U.L.L.U.U.U.U.U.U.U.U.U.U.L.U.U.U.U.L.L.L.L.L.L.U.U.L.L.L.U.                                        ",
"                                          L.L.L.L.L.U.U.U.Y.U.U.U.L.L.U.U.U.U.U.U.L.L.L.U.U.U.L.L.U.L.L.L.L.L.L.L.L.L.L.L.L.L.L.L.L.L.L.L.L.L.L.L.L.L.L.L.L.L.L.L.L.L.L.U.L.L.L.L.L.L.L.L.L.L.Y.U.U.L.L.L.U.L.L.U.U.U.U.L.L.U.L.L.L.Y.L.Y.U.L.L.U.L.L.U.U.U.U.L.U.L.U.U.L.U.U.U.U.U.U.U.P.P.P.P.P.P.I.I.I.I.I.I.I.I.'.I.I.I.I.I.I.I.I.I.I.I.I.I.I.'.'.'.).F.H.F.H.H.).).).).).).).).).).^.^.^.^.).).(.(.(.(.(.(.(.(.(.(.(.(.(.{.{.(.(.(.{.{.{.{.{.{.{.{.{.{.{.{.{.{.{.{.{.{.{.{.{.{.{.{.{.{.}.}.}.}.{.R.E.R.G.E.W.E.E.E.E.E.E.E.E.E.E.E.E.E.E.R.E.E.R.}.}.}.}.}.}.}.}.}.}.}.}.{.}.}.{.{.{.{.{.{.{.{.{.{.{.R.{.R.{.{.{.{.{.{.{.{.{.{.{.{.{.(.(.(.{.(.(.(.(.(.).(.(.(.(.(.(.(.(.(.(.(.(.(.).G.G.(.G.G.G.(.).^.(.G.(.G.G.G.(.J.^.G.G.).H.F.J.^.^.^.^.^.).^.F.F.).G.G.G.^.^.).).).).J.G.^.^.^.^.^.^.^.^.).).^.).).).).F.).).^.).).).).).).).'.K.F./././.F.K.K.K.F.F.K.K.K.K.P.P.K.K.U.U.K.P.U.U.U.Y.Y.U.U.Y.U.U.Y.U.U.L.U.U.L.U.Y.Y.L.L.L.U.U.U.L.L.L.L.L.L.U.U.U.L.L.U.U.U.U.U.U.U.U.U.U.L.U.U.U.U.L.L.U.L.U.U.U.U.Y.U.Y.L.                                        ",
"                                        L.L.L.L.].Y.Y.U.Y.U.U.U.L.L.L.U.U.U.U.U.U.L.L.L.L.L.L.U.L.L.L.L.L.L.L.L.L.L.L.L.L.L.L.L.L.L.L.L.L.L.L.L.L.L.L.L.L.L.L.L.L.L.L.L.L.L.L.L.L.Y.U.L.L.L.L.Y.U.U.L.L.L.L.L.U.U.U.U.L.L.L.L.L.L.L.U.L.L.U.U.U.U.L.L.L.L.K.P.U.U.U.U.K.P.U.U.U.U.K.K.U.P.P.I.P.P.P.P.I.I.I.I.H.I.I.I.I.I.I.I.I.I.I.I.H.I.I.I.I.I.I.).).).H.H.H.).)./.).).).).).^.^.^.^.^.^.).).(.(.(.(.(.(.(.(.(.(.(.(.{.(.{.(.(.{.{.{.{.{.{.{.{.{.{.{.{.{.{.R.{.{.{.{.{.}.}.{.R.E.E.E.E.W.S.S.A.A.S.V.T.T.T.Q.Q.Q.Q.C.Q.Q.Q.Q.Q.Q.Q.Q.Q.Q.Q.T.T.W.W.A.A.A.S.S.W.E.E.E.E.R.}.}.}.{.{.{.}.{.{.{.{.{.{.{.{.{.R.R.R.R.{.{.{.{.{.{.{.{.{.{.{.{.{.{.{.{.(.(.(.G.G.(.(.(.).(.(.(.(.(.(.(.(.(.(.G.G.(.(.G.(.(.(.(.(.G.G.G.G.G.(.G.G.^.G.G.^.G.G.G.G.G.G.F.G.G.F.F.).F.).).F.^.).).^.F.F.G.(.(.^.^.^.^.(.^.^.^.^.^.).).).).).^.^.).^.^.).).'./.).'.H.F./.).F.F.K.K.F.K.F.I.I.P.P.P.K.L.K.P.U.U.U.Y.Y.Y.U.U.U.U.U.U.U.U.U.Y.Y.Y.Y.U.U.U.L.L.L.L.U.L.L.L.L.L.L.L.U.U.U.L.L.U.U.U.U.U.U.U.U.U.U.U.U.L.L.U.U.L.L.L.L.L.U.U.U.Y.Y.Y.L.                                      ",
"                                      L.L.L.L.Y.U.U.Y.Y.U.U.U.L.L.L.U.U.U.U.U.U.U.U.L.L.L.L.L.U.L.L.L.L.U.L.L.L.L.L.L.L.L.L.L.L.L.L.L.L.L.L.L.L.L.L.L.L.L.L.L.L.L.L.L.U.L.L.U.U.L.U.L.L.L.L.U.L.L.L.U.U.U.L.L.U.Y.U.U.L.L.L.L.L.L.L.U.L.L.U.U.U.U.L.U.U.L.L.U.U.U.].].U.U.].L.U.U.K.K.P.P.I.I.I.I.I.I.I.I.I.I.H.I.I.I.I.I.I.I.I.I.I.I.H.I.I.I.'.H.H.H.H.H.H.H.).).).).).).).^.^.^.^.^.^.^.(.(.(.(.(.(.(.(.(.(.(.(.(.(.(.{.{.{.(.{.{.{.{.(.(.(.(.(.{.{.(.{.}.{.}.R.R.E.E.S.S.S.S.W.T.Q.@X@X@XxXcXcXIXDXPXLXLXJXJXJXJXJXJXJXJXJXJXJXJXJXJXJXJXKXLXLXPXPXIXcXcXxXxX@X@X~.C.W.W.S.S.S.W.E.E.E.{.{.}.}.{.{.{.{.R.R.R.{.R.{.{.{.{.{.{.{.{.{.{.{.{.{.{.{.{.(.G.G.(.(.(.(.{.(.(.(.(.(.(.(.(.(.(.(.(.(.(.(.(.(.(.(.(.(.(.(.G.(.(.(.G.G.G.G.G.^.F.F.^.G.G.G.).F.F.F.).).F.G.).).).).).^.^.).G.^.^.(.^.).).(.).G.^.^.^.^.^.^.^.^.^.^.^.^.^.^.).).H.'.'.).).).).'.K.F.F.K.K.H.H.I.I.I.K.K.U.K.K.P.U.U.U.Y.U.Y.Y.U.U.U.U.U.U.U.Y.U.U.U.L.U.U.U.Y.L.U.U.L.U.U.U.U.L.L.L.Y.U.U.L.U.U.U.U.U.U.L.U.U.U.U.L.L.L.L.U.L.L.L.L.L.L.L.L.L.L.U.U.U.                                    ",
"                                      L.L.[.L.L.L.U.U.U.U.U.U.L.L.U.U.U.U.U.U.U.U.U.U.L.L.L.L.U.L.L.L.L.U.L.L.L.L.L.L.L.L.L.L.L.L.L.L.L.L.L.L.L.L.L.L.L.L.L.L.L.L.L.L.U.L.L.U.U.L.L.L.L.L.U.L.L.L.L.U.U.U.U.U.U.U.Y.U.U.U.L.L.U.Y.L.U.U.L.L.Y.L.L.L.L.U.U.U.U.U.U.U.L.Y.U.Y.U.P.P.K.P.P.I.I.I.I.H.H.H.H.H.I.I.I.I.I.I.I.I.I.I.I.I.I.I.I.I.'.I.).).F.H.H.H.H.H.).).).).).).^.^.^.^.^.).).(.(.(.(.(.{.(.(.(.(.(.(.(.{.{.{.(.{.{.{.{.{.{.{.{.(.(.{.{.{.}.R.E.E.S.W.S.T.Q.~.@XxXcXDXPXLXJXJXJXJXJXKXKXJXJXJXJXJXJXJXJXJXJXJXJXJXJXJXJXJXJXJXJXJXJXJXJXKXJXKXKXKXKXKXKXJXJXJXPXDXcXxX@X@X~.T.S.W.W.W.W.E.}.}.}.}.}.R.R.{.{.{.{.{.{.{.{.{.{.{.{.{.{.{.{.{.{.{.{.(.(.(.(.(.(.(.(.(.(.(.(.(.(.(.(.(.(.(.(.(.(.(.(.G.(.(.(.G.(.^.^.G.G.^.(.G.G.G.G.^.G.G.^.G.F.F.F.F.).F.G.G.G.^.).).).^.^.^.^.^.(.(.^.^.).^.^.^.^.^.^.^.).^.^.^.^.^.).).).).).).).).).).).).'.`.H.H.'.I.H.F.I.I.K.K.K.K.K.L.P.P.U.U.U.U.Y.Y.Y.U.Y.U.U.U.Y.U.U.U.Y.U.L.L.Y.L.U.U.U.U.L.L.U.Y.L.L.L.Y.U.U.L.U.U.U.L.U.U.U.U.U.U.U.L.L.L.L.L.U.U.U.L.L.L.L.U.L.L.L.L.U.                                    ",
"                                    L.L.L.L.[.L.L.L.U.U.U.U.U.L.Y.U.U.U.U.U.U.U.U.L.U.U.L.U.U.U.L.L.L.L.U.L.L.L.L.L.L.L.L.L.L.L.L.L.L.L.L.L.L.L.L.L.L.L.L.L.L.L.L.L.L.U.L.L.L.Y.L.L.L.L.L.L.L.U.U.L.L.L.U.U.U.U.U.Y.U.U.L.L.L.U.Y.L.U.U.L.L.L.L.L.L.L.L.U.U.U.U.U.L.K.U.U.U.U.P.U.U.P.P.I.H.H.I.I.I.I.H.H.I.I.I.I.I.I.I.I.I.I.I.I.I.I.I.I.).H.F.).H.H.H.H.).).).).).^.^.^.^.).^.(.(.(.(.(.(.(.(.{.{.(.(.{.{.{.{.{.{.{.{.{.{.{.{.{.{.{.{.}.}.R.E.W.W.S.T.Q.~.xXcXDXPXJXJXJXKXKXJXJXJXJXJXJXJXJXJXJXJXJXJXGXJXJXJXJXJXJXJXJXJXJXJXJXGXGXJXJXJXJXJXJXJXJXJXJXJXJXJXJXJXJXJXJXJXKXKXKXKXJXLXDXcXcX@X~.Q.T.D.W.E.E.E.}.}.{.{.{.R.R.{.{.{.{.{.{.{.{.{.{.{.{.{.{.{.{.(.(.G.G.G.(.(.G.(.G.(.(.(.(.(.(.(.(.(.(.(.(.(.(.(.(.(.(.(.(.G.G.(.(.^.^.G.G.F.F.F.F.G.G.F.F.F.F.).).G.F.F.H.H.^.^.^.^.^.^.G.(.(.(.).).(.(.^.^.^.^.).).^.^.^.^.^.).^.^.^.).F.F.).).).).).).).H.'.'.).H.).'.I.K.K.F.I.K.P.P.P.P.P.U.U.U.U.U.Y.U.U.U.Y.U.Y.U.Y.U.L.L.L.L.Y.Y.U.U.L.L.U.U.L.L.L.L.L.U.L.L.U.U.U.U.U.U.U.U.U.U.L.L.L.U.U.U.L.L.L.L.L.U.U.L.U.U.L.L.U.                                  ",
"                                  [.[.L.L.L.L.L.L.L.L.L.U.U.U.U.U.U.U.U.U.U.L.U.U.U.U.U.L.L.U.U.L.L.L.L.L.L.L.L.L.L.L.L.L.L.L.L.L.L.L.L.L.L.L.L.L.L.L.L.L.L.L.L.L.L.L.U.L.L.L.Y.L.L.L.L.L.L.L.U.L.L.U.L.L.U.U.U.U.U.L.L.L.L.L.L.L.L.U.U.U.U.L.L.L.L.L.L.L.U.U.U.U.P.P.P.U.U.P.P.P.P.I.I.I.I.I.I.I.I.H.).).H.I.I.I.I.I.I.I.I.I.I.H.I.I.I.).).).F.H.).H.H.).).).).).).^.^.^.^.).(.(.(.(.(.(.(.(.(.(.{.{.{.{.{.{.{.{.{.{.{.{.{.{.{.}.R.E.E.S.S.T.Q.@XxXDXHXGXJXJXJXJXJXJXJXJXGXJXJXJXJXGXGXJXJXJXJXJXGXGXJXJXGXJXJXJXJXJXJXJXJXJXJXJXJXJXGXJXJXJXJXJXJXJXJXJXJXJXJXJXJXJXJXJXJXJXJXJXJXJXKXJXJXKXKXKXKXPXcXzX@XC.T.A.A.S.E.E.}.}.{.{.{.{.{.{.{.{.{.{.{.{.{.{.{.{.{.{.R.R.G.R.R.G.G.G.G.G.(.(.(.(.(.(.(.(.(.(.(.(.(.(.G.G.(.(.(.G.G.G.(.^.G.G.G.G.F.G.F.F.F.F.F.F.F.F.).).F.F.F.(.^.^.^.^.(.(.(.(.(.).).(.(.).^.^.^.^.).).^.^.^.).).).^.^.).).).).).).).).).).F.H.H.).I.H.).H.I.I.I.I.I.I.I.P.P.P.U.U.U.P.U.Y.U.U.U.U.U.U.U.U.U.L.U.L.U.L.L.L.U.L.L.L.L.L.L.U.L.L.U.L.L.U.U.U.U.U.U.U.U.L.U.L.L.L.L.U.L.L.L.L.L.L.L.U.L.L.L.L.L.U.U.                                ",
"                                  ].L.L.[.L.K.[.U.].Y.U.U.U.U.U.U.U.U.U.U.U.U.U.U.U.U.L.L.L.L.L.L.L.L.L.L.L.L.L.L.L.L.L.L.L.L.L.L.L.L.L.L.L.L.L.L.L.L.L.L.L.L.L.L.L.L.L.L.L.L.L.L.L.L.L.L.L.L.L.L.U.U.L.U.U.U.U.U.U.L.L.L.L.U.L.L.L.U.U.U.U.U.L.K.L.L.L.U.U.U.U.U.U.U.U.P.K.K.P.P.P.H.H.I.I.I.I.H.H.H.).).I.I.H.I.I.I.H.I.I.I.I.H.I.).).).).).F.H.H.H.).).).).).^.^.G.).(.(.(.(.(.(.(.(.{.{.{.{.(.{.}.{.{.{.{.{.{.(.}.{.}.}.E.S.S.S.C.@XxXIXLXJXJXJXJXJXGXGXGXGXGXJXJXJXGXGXGXGXJXGXGXJXJXJXJXJXJXJXJXJXJXJXGXJXJXJXJXJXGXGXGXGXGXJXJXJXJXJXJXJXJXJXJXJXJXJXJXJXJXJXJXJXJXJXJXJXJXJXJXJXJXJXJXJXJXJXKXKXKXKXJXLXIXxX@X~.V.S.S.E.R.{.{.{.{.{.{.{.{.R.{.{.{.{.{.{.{.{.(.(.(.G.(.G.G.G.G.(.(.(.G.G.(.(.(.(.(.(.(.(.(.G.G.G.(.(.(.G.G.(.(.G.^.(.G.F.G.G.F.F.).^.G.F.F.F.F.F.H.).(.(.(.(.(.(.(.(.(.(.(.^.).(.).^.^.^.).).^.^.^.^.).).).F./.).).).).).).F.).).).).H.H.H.H.F.F.F.H.I.I.I.I.I.P.P.P.P.P.P.U.Y.Y.Y.U.U.U.U.U.U.U.U.U.L.L.L.U.U.L.L.L.L.L.L.L.L.L.Y.U.L.L.U.U.U.L.L.U.U.L.L.U.U.L.U.L.L.L.L.L.U.U.L.L.Y.L.L.L.L.L.L.L.L.L.                                ",
"                                [.].[.[.L.L.L.L.U.Y.Y.U.U.U.U.U.U.Y.L.U.U.U.U.U.U.U.U.U.L.L.L.L.L.L.L.L.L.L.L.L.L.L.L.L.L.L.L.L.L.L.L.L.L.L.L.L.L.L.L.L.L.L.L.L.L.L.L.L.L.L.L.L.L.L.L.U.L.L.L.L.U.U.U.U.U.U.U.U.U.L.L.L.L.Y.U.L.L.L.U.U.L.U.U.L.K.K.L.U.U.U.U.U.U.U.U.P.P.U.P.P.P.I.H.H.H.H.I.'.H.H.H.H.H.I.I.H.I.I.H.H.H.H.I.I.H.).).).H.H.F.).).).).).).).).^.^.^.).(.(.(.(.{.{.{.(.{.{.{.{.{.{.{.{.{.{.{.{.}.}.}.E.E.S.S.Q.@XnXDXFXJXJXGXGXGXGXGXGXGXGXGXGXGXGXGXGXGXGXGXGXGXJXGXGXGXGXGXGXGXJXJXJXJXJXGXGXGXJXGXGXGXGXGXGXGXGXGXJXJXJXJXJXJXJXJXJXJXJXJXJXJXJXJXJXJXJXJXJXJXJXJXJXJXJXJXJXJXJXJXJXJXJXJXJXKXKXKXKXJXPXcX@XQ.V.S.S.W.R.}.}.{.{.}.{.R.{.{.{.{.{.{.{.{.{.(.(.R.G.(.(.(.(.G.(.G.(.(.G.(.(.(.(.(.(.(.(.(.(.(.(.G.(.(.(.(.^.(.G.^.^.G.G.^.).G.^.F.F.F.F.H.H.).^.^.G.(.(.(.(.(.(.(.(.).).(.G.).^.^.).).^.^.^.^.^.^.).).).).).).).)./.).).).).).H.H.).).H././.F.I.I.'.I.I.P.P.I.P.P.P.U.U.U.Y.U.U.U.U.L.L.L.U.U.U.U.U.L.L.Y.U.L.L.U.U.U.L.L.Y.L.L.L.U.U.U.L.L.U.U.L.L.U.U.U.L.U.U.L.L.L.U.U.L.U.L.L.L.L.L.L.L.L.L.L.L.                              ",
"                                L.L.L.L.L.L.L.Y.Y.Y.Y.U.U.U.Y.L.U.U.Y.U.U.U.U.U.U.U.U.U.L.L.L.L.L.L.L.L.L.L.L.L.L.L.L.L.L.L.L.L.L.L.L.L.L.L.L.L.L.L.L.L.L.L.L.L.L.L.L.L.L.L.L.L.L.L.L.U.L.U.U.L.U.U.U.Y.U.U.U.U.L.L.L.L.L.Y.U.U.U.L.U.U.U.U.L.L.L.L.U.U.U.U.].U.U.P.P.P.P.P.I.I.'.'.H.H.H.'.I.H.H.H.H.).).H.I.I.I.I.I.I.I.I.I.).).).).H.H.H.F.).).).).).).).).(.(.(.(.{.(.(.{.{.{.{.{.{.{.{.{.{.{.{.{.{.}.{.E.W.S.S.Q.~.xXDXGXJXGXJXGXFXFXFXGXGXGXGXGXGXGXGXGXGXGXGXGXGXGXGXGXGXGXGXGXGXGXGXJXJXGXGXGXGXGXGXGXGXGXGXGXGXGXGXGXJXGXGXGXJXJXJXGXJXJXJXJXJXJXJXJXJXJXJXJXJXJXJXJXJXJXJXJXJXJXJXJXJXJXJXJXJXJXJXJXJXJXJXJXJXKXKXKXJXPXcX@XQ.W.S.S.E.{.}.}.{.{.{.{.{.{.{.{.{.{.(.{.{.R.(.(.(.(.(.(.G.G.G.G.(.(.(.(.(.(.(.(.(.(.(.(.(.(.(.(.(.(.(.G.G.^.G.G.^.^.F.).F.F.G.F.H.H.H.G.G.^.(.(.(.(.(.(.(.(.(.(.(.^.).(.(.).).).(.^.).^.^.).^.^.^.).).).).).).).).).).).).).).).)./.F.H.).'.I.I.I.P.I.P.P.K.U.Y.U.U.U.U.U.L.L.U.L.L.U.U.Y.U.L.L.U.U.L.Y.Y.L.U.L.L.L.U.U.U.U.U.U.L.L.U.L.L.U.U.U.U.U.U.U.U.U.L.L.U.U.L.L.L.L.L.L.L.L.L.L.L.L.                              ",
"                              L.L.L.L.L.L.L.L.Y.L.U.U.U.U.U.Y.Y.U.L.Y.U.U.U.U.U.U.L.L.U.L.L.L.L.L.L.L.L.L.L.L.L.L.L.L.L.L.L.L.L.L.L.L.L.L.L.L.L.L.L.L.L.L.L.L.L.L.L.L.L.L.L.L.L.L.L.L.L.L.Y.U.U.L.U.U.U.Y.Y.L.L.L.L.L.Y.Y.L.L.U.U.L.U.U.U.U.L.K.L.U.U.U.U.U.U.U.U.U.P.P.U.P.I.H.I.I.I.I.I.I.I.I.H.H.H.).).).P.I.I.I.I.I.H.H.).H.).).F.F.F.).).).F.).).).^.^.(.(.(.(.(.{.{.{.{.{.{.{.{.{.{.{.{.{.{.}.}.R.S.S.T.~.xXDXJXJXJXGXFXFXFXFXGXGXFXGXGXGXGXGXGXGXGXGXGXGXGXGXGXGXGXGXGXGXJXGXGXGXGXGXGXGXGXGXGXGXGXGXGXGXGXGXGXGXGXGXGXGXGXGXGXGXGXGXGXGXGXGXJXJXJXJXJXJXJXJXJXJXJXJXJXJXJXJXJXJXJXJXJXJXJXJXJXJXJXJXJXJXJXJXJXJXJXKXJXJXKXKXKXKXPXcX@XT.S.S.E.}.}.}.{.{.{.{.{.{.{.{.{.R.R.(.(.{.{.{.(.(.(.(.(.G.G.(.(.(.(.(.(.(.(.(.(.(.(.(.(.(.G.^.(.^.G.G.G.(.^.F.F.F.F.F.F.F.H.F.H.(.(.(.(.(.(.(.(.(.(.G.(.(.(.(.(.(.).).).).^.^.^.^.^.^.^.).^.).).).).).).).).).).).)././.).).H.H.F.).I.I.I.P.P.I.K.K.L.Y.U.L.U.Y.Y.U.L.L.L.L.L.L.L.L.L.L.U.Y.L.U.U.U.U.L.L.L.U.U.U.L.L.U.L.L.U.L.U.U.U.U.L.U.U.U.U.U.U.L.L.U.L.L.L.L.L.L.L.L.L.L.L.U.U.                            ",
"                              L.L.L.[.[.L.L.K.[.K.L.U.L.U.U.U.Y.U.L.U.U.U.U.U.U.U.U.L.U.U.L.L.L.L.L.L.L.L.L.L.L.L.L.L.L.L.L.L.L.L.L.L.L.L.L.L.L.L.L.L.L.L.L.L.L.L.L.L.L.L.L.L.L.L.L.L.U.U.L.U.U.U.L.U.U.L.U.L.L.U.L.L.L.Y.Y.L.L.L.L.L.U.L.U.L.L.L.L.U.U.U.U.U.].U.U.P.P.P.P.I.I.I.I.I.I.H.I.H.H.I.'.H.).H.H.I.I.H.I.I.H.H.).).H.H.H.H.).F.).).F.F.).).).^.^.(.(.(.(.{.{.{.{.(.{.{.{.{.{.{.{.}.}.E.S.A.T.@XcXLXJXGXGXGXFXFXFXFXGXFXFXFXFXFXFXGXGXGXGXGXGXGXGXGXGXGXGXGXGXGXGXGXGXGXJXJXGXGXGXGXGXGXGXGXGXGXGXGXGXGXGXGXGXJXGXGXJXGXGXGXGXGXGXGXGXGXGXGXGXJXJXJXJXJXJXGXGXJXJXJXJXJXJXJXJXJXJXJXJXJXJXJXJXJXJXJXJXJXJXJXJXJXJXJXJXJXJXJXJXKXKXKXLXcX@XC.B.S.W.{.}.}.{.{.(.{.{.R.(.R.{.R.R.{.{.{.(.{.{.(.R.G.G.(.(.G.(.(.(.(.(.(.(.(.(.(.(.(.(.(.(.G.G.^.(.(.G.F.F.F.F.).).).G.H.^.(.(.(.(.(.(.(.(.(.G.G.(.(.(.(.(.G.^.).).^.^.^.^.).).).).).).).).).).).).).).).).).)./.).).).H.H.'.I.I.I.I.P.I.I.P.P.U.Y.U.U.U.U.U.U.Y.U.L.L.L.L.L.L.L.U.L.L.U.U.U.L.L.U.U.L.U.U.U.U.U.L.L.U.U.U.U.L.L.L.L.U.U.L.L.L.U.L.L.L.L.L.L.L.L.L.Y.U.L.L.L.U.                            ",
"                            K.L.L.L.[.[.[.L.L.K.U.U.L.L.Y.U.U.U.U.U.U.Y.Y.U.U.U.U.U.U.U.U.L.L.L.L.L.L.L.L.L.L.L.L.L.L.L.L.L.L.L.L.L.L.L.L.L.L.L.L.L.L.L.L.L.L.L.L.L.L.L.L.L.L.U.L.L.U.U.U.U.U.U.U.L.U.U.L.L.L.L.L.L.L.L.U.U.U.L.U.U.L.Y.K.K.L.U.Y.L.U.U.U.U.U.U.U.U.P.P.P.I.I.I.I.I.I.I.H.H.H.H.'.).H.).H.I.I.I.H.H.H.).H.H.H.H.H.H.H.).).).F.).).).^.^.(.(.(.(.(.{.{.(.(.(.R.{.{.(.{.}.}.E.A.N.C.@XcXHXJXJXFXFXFXFXFXFXFXFXFXFXFXFXFXFXGXFXFXGXGXGXGXGXGXGXGXGXGXGXGXGXGXGXJXGXJXGXGXGXJXGXGXJXJXJXJXJXJXKXKXKXKXKXKXKXKXKXKXKXKXKXKXKXKXKXKXKXKXJXJXJXGXGXJXGXGXJXJXJXJXJXGXGXGXJXJXJXJXJXJXJXJXJXJXJXJXJXJXJXJXJXJXJXJXJXJXJXJXJXJXJXJXJXJXKXKXKXJXDXxX~.S.S.D.}.}.{.{.).{.G.{.{.{.{.(.{.(.(.(.{.{.{.(.(.G.G.(.(.(.(.(.(.(.(.(.(.(.(.(.(.(.(.(.^.^.).(.^.G.^.^.G.F.H.^.G.G.).^.(.(.G.(.(.(.(.(.(.(.(.(.(.(.(.(.(.(.(.).).^.^.^.).).^.).).).).).).).).).).).).).).).).).).H.H.I.I.I.I.I.I.I.I.P.P.K.U.U.U.U.U.U.Y.U.Y.Y.L.L.L.L.L.U.U.L.L.L.U.U.L.Y.U.U.U.L.L.L.L.L.U.Y.U.U.L.U.U.U.L.L.L.L.L.L.L.U.L.L.L.L.L.L.L.U.L.U.U.L.L.L.U.L.                          ",
"                            L.L.L.L.[.].Y.U.Y.U.U.U.U.L.L.U.U.U.U.U.U.Y.U.L.L.U.U.U.U.U.L.L.L.L.L.L.L.L.L.L.L.L.L.L.L.L.L.L.L.L.L.L.L.L.L.L.L.L.L.L.L.L.L.L.L.L.L.L.L.L.L.L.L.L.L.L.U.U.U.U.U.U.U.U.U.U.L.L.L.L.Y.U.U.L.L.L.U.L.L.U.U.U.K.K.L.U.Y.U.U.U.Y.U.U.K.P.P.K.I.I.I.I.I.I.I.H.I.I.I.H.H.I.).H.H.H.H.I.I.H.H.'.).H.F.H.H.H.H.F./.).).).^.^.(.(.(.(.(.(.(.(.(.(.{.(.(.{.{.{.}.E.S.S.C.@XcXJXJXGXGXGXFXZXFXFXFXFXFXFXFXFXFXFXFXFXFXFXFXFXGXGXGXGXGXGXGXGXGXGXGXGXGXFXGXGXGXJXJXJXJXKXKXKXKXKXKXKXJXJXGXFXZXAXAXAXSXMXMXSXAXAXAXAXAXHXFXGXJXKXKXKXKXKXKXKXKXKXKXKXKXJXJXJXGXGXGXJXJXJXJXJXJXJXJXJXJXJXJXJXJXJXJXJXJXJXJXJXJXJXJXJXJXJXJXJXJXJXJXJXKXKXJXDXxX~.V.S.E.}.}.R.R.{.{.{.{.{.{.{.{.(.(.(.{.(.(.R.{.{.(.(.(.(.G.(.(.(.(.(.(.(.(.(.(.(.(.(.G.(.(.^.G.^.(.G.F.^.G.).^.).(.(.(.(.(.(.(.(.(.(.(.(.(.(.(.(.(.(.(.).).(.^.^.^.^.^.).).).).).).^.^.^.^.).).).).).).).).).I.I.I.I.I.I.I.I.I.I.P.K.P.U.Y.U.U.U.U.U.Y.Y.L.L.Y.L.Y.Y.U.L.L.U.U.U.L.U.U.L.L.L.L.U.U.L.U.U.U.U.U.U.U.U.L.L.L.L.L.L.L.L.L.L.L.L.U.L.L.U.L.L.U.U.L.L.U.L.                          ",
"                          L.L.L.L.L.L.U.U.U.Y.U.U.U.Y.U.L.Y.U.U.U.U.U.Y.U.U.L.L.L.L.L.L.L.L.L.L.L.L.L.L.L.L.L.L.L.L.L.L.L.L.L.L.L.L.L.L.L.L.L.L.L.L.L.L.L.L.L.L.L.L.L.L.L.L.L.L.L.L.U.U.U.U.U.U.U.U.U.U.L.L.L.L.L.L.L.U.L.U.L.U.U.U.U.U.U.U.U.U.Y.U.U.U.U.U.L.P.P.P.K.I.'.I.H.I.I.H.H.H.I.I.H.H.I.I.H.).).H.I.I.).).).F.H.H.H.).).).).).).^.^.(.(.(.(.(.(.(.(.(.(.(.(.{.{.}.{.}.E.S.T.@XcXJXJXGXGXFXFXFXFXFXFXFXZXFXFXFXFXFXFXFXFXFXFXFXFXFXFXGXGXGXGXGXGXGXGXGXGXJXJXJXKXKXKXKXKXJXGXAXuX:X*X' ' ] _ h f e e 1 6 3 < < < < < < < < 1 1 1 1 1 f f f h ] ] ' *XtXMXSXFXJXKXKXKXKXKXKXKXJXJXJXJXJXJXJXJXJXJXJXJXJXJXJXJXJXJXJXJXJXJXJXJXJXJXJXJXJXJXJXJXJXJXJXKXKXKXPXxXC.S.S.E.}.}.{.{.{.{.{.{.{.{.{.{.{.(.(.{.{.G.{.{.(.G.(.(.(.(.G.(.(.(.(.(.(.(.(.(.(.(.(.G.G.).G.G.^.(.(.^.^.(.(.(.).^.(.(.(.(.(.(.(.(.(.(.(.(.(.(.(.(.(.^.^.^.^.^.^.^.).^.).).^.^.^.^.^.).).).).).).'.).).'.I.I.I.I.I.I.I.I.I.P.K.P.P.U.U.U.U.U.U.Y.Y.L.U.U.U.L.L.U.L.L.U.U.Y.U.U.U.L.L.L.L.U.U.L.L.U.U.U.L.U.U.L.Y.L.L.L.L.Y.L.L.L.L.U.U.U.L.L.L.L.U.U.U.L.L.L.L.L.                        ",
"                          L.L.L.L.L.L.L.L.U.U.U.U.U.U.U.L.L.U.L.L.L.U.Y.L.L.L.L.L.L.L.L.L.L.L.L.L.L.L.L.L.L.L.L.L.L.L.L.L.L.L.L.L.L.L.L.L.L.L.L.L.L.L.L.L.L.L.L.L.L.L.L.L.L.L.L.L.L.U.U.U.U.U.U.U.U.L.L.L.L.L.L.U.L.U.U.U.U.L.L.L.U.P.K.U.U.U.U.U.U.].P.K.U.P.P.P.I.'.'.'.H.H.H.H.H.H.H.I.I.I.I.I.I.I.H.).).I.I.).).F.H.H.H.F.F.F.).).).).(.(.(.(.(.{.{.(.{.(.(.(.(.{.{.}.E.S.S.~.cXLXJXJXFXFXZXFXGXFXFXFXZXFXZXFXFXFXFXFXFXFXFXFXFXFXFXFXFXFXGXGXGXGXGXJXKXKXKXKXKXJXFXMXwX*X] h f f e - - - = = = = - : : : : : : 2 2 2 2 2 : < < < < - - - - - - - = = ; ; ; - < 1 f h ] ' wXyXAXKXKXKXKXKXKXKXJXJXJXJXJXJXJXJXJXJXJXJXJXJXJXJXJXJXJXJXJXJXJXJXJXJXJXJXJXKXJXJXKXKXJXDX@XQ.A.S.R.}.{.{.R.{.{.{.{.{.(.(.(.{.{.{.{.{.G.(.G.G.R.G.(.(.(.(.(.(.(.(.(.(.(.(.(.(.(.(.(.(.).(.(.).(.(.(.(.(.(.(.(.(.G.(.(.(.(.(.(.(.(.(.(.(.(.).(.(.^.^.(.^.^.^.^.^.^.^.).).^.^.^.^.).).).).).).).I.).'.'.I.I.I.I.I.I.P.K.K.I.P.U.U.U.U.Y.U.U.L.L.U.Y.U.U.L.L.U.L.U.U.Y.U.U.U.U.U.L.L.U.L.L.U.U.L.L.U.L.L.U.Y.L.L.Y.L.L.L.L.L.L.U.U.U.L.L.U.U.L.U.U.L.U.U.L.                        ",
"                        L.L.L.L.L.L.L.L.L.U.U.U.U.U.U.U.U.U.U.L.L.U.U.U.L.L.L.L.L.L.L.L.L.L.L.L.L.L.L.L.L.L.L.L.L.L.L.L.L.L.L.L.L.L.L.L.L.L.L.L.L.L.L.L.L.L.L.L.L.L.L.L.L.L.L.U.U.L.U.U.U.U.U.U.U.U.L.L.L.L.L.L.U.L.L.U.U.L.L.L.K.P.P.K.U.U.U.U.U.].U.P.P.P.P.P.I.I.].'.'.'.I.H.H.H.I.I.I.I.I.I.I.I.I.I.H.H.I.H.H.H.H.).F.F.F.F.^.).^.(.(.(.(.(.(.{.{.{.(.^.(.{.(.{.}.E.S.C.@XDXGXGXFXFXZXFXFXFXFXFXFXFXFXFXFXFXFXFXFXZXFXZXFXFXFXFXFXFXFXFXFXJXKXKXKXKXKXHXMX*X] h f e < - = = = - - : 2 2 2 4 3 3 3 3 3 3 3 3 3 3 3 3 3 3 3 3 3 3 3 3 3 6 3 3 6 3 < 3 3 2 2 2 : - - ; ; ; ; ; - < f h ] -XtXAXKXKXKXKXKXKXKXJXJXJXJXJXJXJXJXJXJXJXJXJXJXJXJXJXJXJXJXJXJXJXJXJXJXJXJXKXKXKXJXcX~.B.A.W.}.}.(.{.{.{.{.{.{.{.{.{.{.R.(.{.{.(.R.G.G.(.(.G.(.(.(.(.(.G.(.(.(.(.(.(.(.(.(.(.(.(.(.(.(.(.(.(.(.(.(.(.(.(.(.(.(.(.(.(.(.(.(.(.(.(.(.(.^.^.(.(.(.^.^.^.^.^.).).).).).^.^.^.).).^.).'.'.).).H.I.I.I.I.I.I.P.P.I.P.P.P.U.U.U.U.U.U.Y.L.U.U.L.U.L.L.L.L.L.L.U.U.U.L.L.L.U.L.L.L.L.U.U.U.L.L.L.Y.U.L.L.L.L.L.L.L.U.U.L.L.L.L.L.L.L.U.U.L.U.U.U.L.K.L.                      ",
"                        [.[.L.L.L.L.L.L.L.U.U.U.U.U.Y.Y.Y.U.U.U.U.Y.L.U.U.U.Y.U.L.L.L.L.L.L.L.L.L.L.L.L.L.L.L.L.L.L.L.L.L.L.L.L.L.L.L.L.L.L.L.L.L.L.L.L.L.L.L.L.L.L.L.L.L.L.U.U.U.U.U.U.U.U.U.U.L.L.L.L.L.U.U.U.L.U.L.L.L.U.U.P.K.K.U.U.U.U.P.U.U.].U.P.P.P.P.I.I.I.I.I.'.'.'.H.H.H.I.I.I.H.H.H.I.I.I.I.I.).).H.F.F.H.).F.F.F.).^.^.(.(.(.(.(.(.(.(.(.(.{.{.{.}.{.S.A.~.nXFXGXFXZXZXZXZXZXZXZXFXFXFXFXFXFXFXFXFXFXFXFXZXZXZXZXFXZXZXFXJXKXKXKXKXFXyX*X] f 1 - = = = - : 4 4 3 3 3 3 3 3 3 3 3 3 3 3 3 3 3 3 3 3 3 3 3 3 3 3 3 3 3 3 3 3 3 3 3 3 3 3 3 3 3 2 2 3 3 4 4 4 3 3 3 2 2 : - = = = = < f ] ' wXSXJXKXKXKXKXKXJXJXJXJXJXJXJXJXJXJXJXJXJXJXJXJXJXJXJXJXJXJXJXJXJXKXJXKXKXKXPXlXC.A.S.}.}.(.R.{.{.{.{.{.R.{.{.{.{.{.{.{.{.(.R.(.(.(.(.(.(.(.(.(.(.(.(.(.(.(.(.(.(.(.(.(.(.(.(.(.(.(.(.(.(.(.(.(.(.(.(.(.(.(.(.(.(.(.(.(.(.(.^.^.^.^.^.^.).^.^.).F.H.).).).^.).^.^.^.).).).).).H.H.I.I.I.I.I.I.I.I.P.P.P.K.U.U.U.U.Y.U.U.L.L.U.Y.U.L.L.L.L.L.L.L.L.L.L.L.L.U.L.L.L.L.U.U.U.Y.Y.U.Y.L.L.L.L.L.L.L.U.Y.U.L.L.U.U.U.U.L.L.L.U.Y.L.L.K.L.                      ",
"                        ].[.L.U.K.L.L.L.L.U.U.U.U.U.U.U.Y.Y.U.U.Y.L.L.U.U.U.Y.U.L.L.L.L.L.L.L.L.L.L.L.L.L.L.L.L.L.L.L.L.L.L.L.L.L.L.L.L.L.L.L.L.L.L.L.L.L.L.L.L.L.L.U.U.U.U.U.U.U.U.U.U.U.U.U.U.L.L.L.L.L.L.U.U.L.U.U.L.U.U.P.U.U.U.U.U.U.U.K.].K.K.U.].P.P.I.'.I.I.I.I.'.'.'.I.I.I.I.I.I.I.I.I.I.I.I.'.).).).).F.F.).).F.F.^.^.(.(.(.(.(.(.(.(.(.(.(.(.{.}.E.S.T.@XIXGXFXFXCXZXZXZXZXZXZXZXZXZXZXFXFXFXFXFXFXFXFXFXFXZXZXZXFXGXJXKXKXFXgXwX] f 1 - ; = > : 2 3 6 6 6 6 6 3 3 3 3 3 3 3 3 3 3 3 3 3 6 3 3 3 3 3 6 6 6 3 3 3 3 3 6 6 3 3 3 3 6 3 3 3 3 3 3 2 4 3 3 2 2 3 4 3 4 4 3 3 3 3 4 4 2 : = = = ; - e h ' wXAXKXKXKXKXKXJXJXJXJXJXJXJXJXJXJXJXJXJXJXJXJXJXJXJXJXJXJXJXJXKXJXKXKXJXcX~.S.S.E.}.{.{.R.R.{.{.R.{.{.{.{.{.{.{.(.(.(.(.(.{.(.(.G.(.{.(.(.(.G.(.(.(.(.(.(.(.(.(.(.(.(.(.(.(.(.(.(.(.(.(.(.(.(.^.^.(.G.G.(.(.(.(.(.(.^.^.G.^.^.).^.^.).F.F.).F.).).^.^.^.^.).).).'.'.'.H.I.I.I.I.I.I.I.P.P.P.P.K.U.P.U.U.U.L.U.U.U.L.L.U.U.L.U.U.L.L.L.L.Y.Y.L.L.U.U.L.U.L.L.Y.U.Y.U.U.Y.L.L.L.L.L.Y.L.L.U.U.U.U.L.U.U.U.L.U.L.L.Y.L.L.L.L.                      ",
"                      L.L.L.[.L.L.K.L.[.L.U.U.U.U.U.U.U.Y.Y.U.U.U.Y.Y.Y.U.U.U.U.L.L.L.L.L.L.L.L.L.L.L.L.L.L.L.L.L.L.L.L.L.L.L.L.L.L.L.L.L.L.L.L.L.L.L.L.L.L.L.L.L.L.L.U.L.L.U.U.U.U.U.U.U.U.U.U.L.L.L.L.U.U.U.U.U.U.U.U.U.U.P.U.U.U.U.U.].P.].K.K.K.P.I.I.I.I.'.'.'.'.I.'.'.I.H.I.I.I.I.I.I.I.I.I.I.'.).).).F.F.F.F.F.G.^.^.(.(.(.(.(.(.(.(.(.(.(.(.{.}.E.S.C.nXHXFXZXCXZXZXZXZXZXZXZXZXZXZXZXZXZXZXZXZXFXFXFXFXFXZXZXFXJXKXKXJXSXwX] f < - = = - 2 4 3 6 3 3 3 3 3 3 3 3 3 3 3 3 3 3 3 3 3 6 6 6 6 6 6 6 6 6 6 6 6 6 6 6 3 3 3 6 3 3 3 3 3 3 3 6 3 3 3 3 3 3 3 3 3 3 3 2 3 3 3 3 2 4 4 4 4 4 4 4 2 2 2 : = * * ; ; f ] wXSXKXKXKXKXJXJXJXJXJXJXJXJXJXJXJXJXJXJXJXJXJXJXJXJXJXJXJXJXJXJXKXKXDX@XV.S.E.}.}.{.R.{.{.R.{.{.{.{.{.{.{.{.{.(.{.(.{.{.(.(.{.(.(.(.{.(.(.(.(.(.(.(.(.(.(.(.(.(.(.(.(.(.(.(.(.(.(.(.(.(.(.(.(.(.(.(.(.(.(.(.^.^.G.(.(.^.^.G.G.H.F.).F.).).^.).).).).).).).).).I.H.I.I.I.I.I.I.I.I.P.P.K.P.P.U.Y.Y.U.U.U.U.L.L.U.U.U.L.L.L.L.L.L.Y.Y.L.L.U.Y.U.Y.U.L.L.Y.L.U.U.L.L.L.L.L.L.L.L.U.L.L.U.U.L.L.U.U.U.U.U.L.L.L.U.L.L.U.                    ",
"                      [.L.[.[.[.[.K.[.[.K.L.U.U.U.U.U.U.Y.Y.Y.U.U.Y.Y.Y.U.U.U.U.L.L.L.L.L.L.L.L.L.L.L.L.L.L.L.L.L.L.L.L.L.L.L.L.L.L.L.L.L.L.L.L.L.L.L.L.L.L.U.U.L.L.L.U.L.L.L.U.U.L.U.Y.Y.L.L.U.Y.Y.U.U.U.L.L.U.U.U.U.U.U.U.L.U.L.U.U.U.P.P.P.P.I.I.I.I.I.I.P.'.'.P.'.I.'.'.I.H.I.I.I.H.H.H.I.I.I.H.'.).H.F.F.F.F.F.G.(.(.(.(.(.(.(.(.(.(.(.(.{.}.}.E.S.C.cXFXFXZXCXCXZXCXCXZXZXZXZXZXZXZXZXZXZXZXZXZXZXFXFXFXFXGXKXKXKXHXwX] f < = = - 4 4 3 3 3 3 3 3 3 3 3 3 3 6 6 3 4 3 6 3 3 6 6 6 3 6 6 6 6 6 6 6 6 6 6 6 6 6 6 6 6 3 3 3 6 3 3 3 3 3 3 6 3 3 3 3 3 3 3 3 3 3 3 3 3 3 2 3 3 3 4 4 4 4 4 4 2 2 2 2 2 3 2 2 2 - = = = ; f ] wXHXKXKXKXKXJXJXJXJXJXJXJXJXJXJXJXJXJXJXJXJXJXJXJXJXKXJXJXKXKXKXPXlX!.A.E.}.}.{.{.{.{.{.R.{.{.{.{.{.{.(.{.{.{.{.(.(.{.{.(.(.(.(.(.(.(.(.(.(.(.(.(.(.(.(.(.(.(.(.(.(.(.(.(.(.(.(.(.(.(.(.(.(.(.(.(.(.(.).(.(.(.G.^.^.G.G.^.).).).).^.).).).).).).).).).I.I.H.I.I.I.I.I.I.I.I.P.K.P.P.U.Y.U.U.U.U.U.U.U.U.Y.U.L.L.L.L.L.L.L.Y.Y.L.U.L.U.U.U.L.L.U.L.L.L.L.L.L.L.L.L.L.L.U.L.L.U.U.L.L.U.U.U.U.L.L.L.L.U.L.K.L.                    ",
"                    ].L.[.L.].].[.[.K.P.U.U.U.U.L.U.U.U.Y.U.U.U.Y.Y.Y.L.L.Y.Y.Y.U.U.L.L.L.L.L.L.L.L.L.L.L.L.L.L.L.L.L.L.[.L.L.L.L.L.L.L.L.L.L.L.L.L.L.L.L.L.L.U.U.U.U.U.L.L.L.U.L.L.U.U.U.U.L.L.L.U.U.U.U.L.U.U.U.U.U.U.U.U.U.].[.K.U.U.K.K.K.K.P.I.I.I.I.I.I.I.I.).).H.'.'.I.I.I.I.I.H.I.I.I.I.I.H.).H.F.F.F.).F.G.G.^.(.(.(.(.(.(.{.(.(.(.{.{.S.S.~.cXFXZXZXCXCXCXCXCXZXZXZXZXZXZXZXZXZXZXZXZXZXZXFXZXZXJXKXKXJXMX*Xh 1 = = - : 4 3 6 6 3 3 3 3 3 3 3 3 6 6 6 6 6 6 6 6 6 6 6 6 6 6 6 6 6 6 6 6 6 6 6 6 6 6 6 3 3 3 6 6 6 6 6 3 3 3 6 3 3 3 3 3 3 3 3 3 3 3 3 3 3 3 3 3 3 3 3 3 3 4 2 2 4 4 4 2 4 2 2 2 2 2 2 2 2 4 2 < - = * ; < h *XMXKXKXKXKXKXJXJXJXJXJXJXJXJXJXJXJXJXJXJXJXJXJXJXJXJXKXKXKXKXLXnXC.S.E.}.}.{.{.R.{.{.R.{.{.{.{.{.{.{.{.{.{.{.{.{.{.(.{.{.{.{.(.(.(.(.(.(.(.(.(.(.(.(.(.(.(.(.(.(.(.(.(.(.(.(.(.(.(.(.(.(.(.G.^.(.(.(.).G.(.^.^.G.G.).).F.).).).).).^.).).).).).I.I.I.H.I.I.I.I.I.I.I.I.P.K.K.U.U.U.P.L.U.U.Y.U.L.U.U.L.L.L.L.U.L.L.Y.Y.Y.U.L.U.L.L.U.U.U.L.L.L.L.L.L.L.L.U.U.L.L.U.U.U.U.U.L.L.L.U.L.L.L.L.L.L.L.L.L.L.                  ",
"                    L.[.L.L.L.L.U.L.L.U.].U.U.U.U.U.U.Y.Y.U.U.U.Y.Y.Y.L.Y.Y.Y.Y.U.U.L.L.L.L.L.L.L.L.L.L.L.L.L.U.L.L.L.L.L.L.L.L.L.L.L.L.L.L.L.L.L.L.L.L.L.L.L.U.U.U.U.U.L.L.L.U.L.L.U.U.U.U.L.L.Y.U.U.U.U.U.U.U.U.U.U.P.U.U.U.U.U.U.P.P.U.U.U.P.P.I.I.I.I.I.I.I.I.I.I.I.I.I.I.I.I.I.H.H.I.'.'.I.I.I.).F.F.F.G.G.G.^.(.(.(.(.(.(.(.(.^.(.}.{.S.A.~.IXZXFXCXBXCXCXCXCXCXCXCXCXCXCXZXZXZXZXZXZXZXZXCXZXGXKXKXGXuX] f - = = : 4 4 3 3 6 3 6 6 6 3 3 3 3 3 3 6 6 6 6 6 3 6 6 6 3 6 6 6 6 6 6 6 6 6 6 6 6 6 6 6 3 3 3 6 6 6 6 6 6 6 3 3 3 3 6 6 6 3 3 3 3 3 3 3 3 6 6 3 3 6 3 3 3 3 3 3 3 4 2 2 4 2 2 4 2 2 4 2 2 2 2 2 2 2 2 2 < < 3 2 - = = - e ] wXLXKXKXKXJXJXJXJXJXJXJXJXJXJXJXJXJXJXJXJXJXJXJXJXJXJXKXKXJXxXC.A.E.}.{.R.{.{.G.(.{.{.{.{.{.{.{.(.{.{.(.(.{.(.{.{.{.{.{.(.(.(.{.(.{.{.(.(.(.(.(.(.(.(.(.(.(.(.(.(.(.(.(.(.(.(.(.(.).(.(.(.(.(.^.G.G.^.^.^.).^.F.).^.^.).).).).).).).).).'.I.I.I.I.'.I.I.I.I.I.P.P.P.P.P.U.U.U.L.U.U.U.U.L.U.Y.L.L.L.L.Y.L.Y.Y.Y.Y.U.U.L.L.L.L.L.U.L.L.L.L.L.L.Y.Y.L.Y.L.L.L.U.L.L.U.L.L.U.U.L.L.U.U.L.L.L.U.L.L.                  ",
"                    [.[.L.[.].L.L.U.Y.U.U.U.U.U.Y.Y.U.U.Y.Y.U.U.Y.Y.Y.Y.Y.Y.L.L.L.L.L.L.L.L.L.L.L.L.L.L.L.L.L.L.L.L.L.L.L.L.L.L.L.L.L.L.L.L.L.L.L.L.L.L.L.L.L.U.U.L.L.U.L.L.L.U.L.L.U.L.L.U.U.U.U.U.U.U.U.U.U.U.U.U.U.U.].].].U.U.U.P.K.P.P.P.I.I.I.I.I.I.I.I.I.I.I.I.I.I.I.I.'.'.'.).I.'.'.H.'.'.).F.G.G.G.G.G.^.(.(.(.(.(.(.(.(.(.}.}.W.S.@XIXZXFXCXCXCXCXZXCXCXCXCXCXCXCXCXCXCXCXZXZXZXZXCXFXJXKXFXwX] e - = - 2 4 4 4 6 3 4 3 6 6 6 6 6 6 6 3 6 6 6 6 6 6 3 3 4 6 6 6 6 6 6 6 6 6 6 6 6 6 6 3 6 6 6 6 3 3 3 3 6 6 6 6 6 6 3 3 6 3 3 6 6 3 6 3 6 6 3 3 3 3 6 3 3 3 3 6 6 3 3 3 3 3 3 3 3 4 2 2 2 2 2 2 2 2 2 2 2 2 2 2 2 < < 2 2 < 2 : = * ; e _ wXHXKXKXKXJXJXJXJXJXJXJXJXJXJXJXJXJXJXJXJXJXJXJXKXKXJXKXJXcXC.A.E.}.}.{.{.{.{.{.{.{.{.{.{.{.{.{.{.{.(.(.{.(.{.{.{.{.{.{.{.{.{.{.(.(.(.(.(.(.(.(.(.(.(.(.(.(.(.(.(.(.(.(.(.G.).(.(.(.(.(.^.).).).G.).^.^.).).).^.^.).).).).).^.).).).).I.I.).I.I.I.I.I.I.I.I.P.P.P.U.U.U.U.L.L.U.U.U.U.U.U.L.L.L.L.L.L.L.L.L.U.U.U.L.L.U.U.L.L.L.L.L.L.L.Y.Y.L.Y.L.L.Y.L.L.L.L.L.L.L.U.L.L.U.U.U.U.L.U.Y.U.                  ",
"                  L.].U.L.U.].].L.U.U.U.U.U.U.U.Y.Y.U.U.Y.Y.L.Y.Y.Y.Y.Y.Y.L.L.L.L.L.L.L.L.L.L.L.L.L.L.L.L.L.L.L.L.L.L.L.L.L.L.L.L.L.L.L.L.L.L.L.L.L.L.L.L.L.L.U.U.U.L.U.L.L.L.U.L.L.U.Y.L.U.U.L.U.U.U.U.U.U.L.L.L.L.L.U.[.[.L.L.K.K.K.P.I.I.I.I.'.I.I.I.I.I.H.I.I.'.I.I.I.I.I.H.I.'.'.'.).).).).).).F.G.G.G.G.^.^.(.(.(.(.(.(.(.{.}.W.A.~.DXFXZXCXCXZXCXZXZXCXCXCXCXCXCXCXCXCXCXCXCXCXCXFXJXKXGXyX] e = = : 4 3 6 6 3 6 4 3 6 6 6 6 6 6 6 6 6 6 6 6 6 6 6 6 6 6 6 6 6 6 6 6 6 6 6 6 6 3 6 6 6 6 6 6 6 6 3 3 3 6 3 3 3 6 6 6 6 3 3 3 3 3 6 6 3 6 6 6 6 3 6 6 6 6 6 6 3 3 3 6 3 3 3 3 3 3 3 3 2 2 3 2 2 2 2 2 4 2 2 2 2 2 2 2 2 < < 2 2 < < < 2 2 = * = < h wXJXKXKXKXJXJXJXJXJXJXJXJXJXJXJXJXJXJXJXJXKXKXKXKXJXKXJXnXC.A.D.}.{.{.R.R.{.{.{.{.{.{.{.{.{.{.(.(.{.(.{.{.{.{.{.{.{.(.(.(.(.(.(.(.(.(.(.(.(.(.(.(.(.(.(.(.(.(.(.(.(.(.(.).(.(.(.(.(.^.^.).G.).^.).).).).).G.).).^.).).^.^.).).).I.I.H.H.I.I.I.I.I.I.I.P.P.P.P.P.L.U.K.L.L.U.Y.U.U.U.L.L.L.L.L.L.L.L.L.U.U.U.L.L.U.U.L.Y.L.L.L.L.L.L.Y.Y.U.L.U.U.U.L.L.U.L.L.U.L.L.U.L.U.U.U.L.L.L.U.U.                ",
"                  U.L.L.L.L.L.U.U.U.U.Y.Y.Y.U.U.Y.Y.U.U.Y.Y.L.Y.Y.L.L.L.Y.Y.L.Y.L.L.L.L.L.L.L.L.L.L.L.L.L.L.L.L.L.L.L.L.L.L.L.L.L.L.L.L.L.L.L.L.L.L.L.L.L.L.L.L.L.L.L.L.L.L.U.U.L.L.L.L.U.U.U.L.U.U.U.U.U.U.L.L.L.L.L.L.L.U.K.K.K.P.P.P.I.I.I.I.I.I.H.H.I.I.H.I.I.'.I.I.I.I.I.).'.'.'.'.'.'.).F.^.).F.H.G.).).).(.(.(.(.(.(.(.}.E.A.~.IXJXFXCXCXCXBXCXCXCXCXCXCXCXCXCXCXCXCXCXCXCXCXGXKXKXMX] f - = : 4 6 4 4 6 6 6 4 6 6 4 4 6 6 6 6 6 6 6 6 6 6 6 6 6 6 6 6 6 6 6 6 6 6 6 6 6 6 6 6 6 6 6 6 6 6 6 6 6 6 6 6 3 6 3 3 6 6 6 6 6 3 3 6 6 6 6 3 6 6 6 6 3 6 6 3 3 6 6 6 3 3 6 6 3 3 3 3 3 3 3 2 2 3 3 2 2 3 2 2 2 2 2 2 3 3 3 2 2 2 2 < < < < < < < < < - * ; 1 ] MXKXKXKXKXJXJXJXJXKXJXJXJXJXJXJXJXJXJXJXKXKXJXJXKXKXKXnX!.N.E.}.{.R.{.{.}.{.{.{.{.{.{.{.(.(.(.{.{.{.(.(.{.{.{.(.(.{.(.(.(.(.(.(.(.(.(.(.(.(.(.(.(.(.(.(.(.(.(.(.(.(.(.(.(.(.G.(.(.G.G.^.G.G.G.).).).G.G.).).^.).).^.^.).).H.I.I.H.H.I.I.I.I.I.I.I.I.I.I.I.P.P.L.L.L.U.U.Y.U.U.L.L.L.L.L.L.L.Y.L.L.U.U.L.L.L.L.L.Y.Y.L.L.L.U.U.U.U.L.U.U.U.U.L.U.L.U.U.U.U.U.U.L.L.U.L.L.L.L.L.L.                ",
"                  U.L.K.K.K.L.U.U.U.Y.Y.Y.U.U.U.Y.Y.Y.U.Y.Y.Y.Y.Y.Y.L.L.L.Y.L.Y.U.L.L.L.L.L.L.L.L.L.L.L.L.L.L.L.L.L.L.L.L.L.L.L.L.L.L.L.L.L.L.L.L.L.L.L.L.L.L.L.L.L.U.L.U.U.Y.L.L.Y.U.U.U.U.U.U.U.U.U.U.U.U.U.L.L.].].L.U.P.P.K.U.P.P.I.I.I.I.I.I.I.H.H.I.I.I.I.I.I.I.I.I.I.I.'.'.'.'.).).).).).^.).F.^.^.(.).(.(.(.(.(.(.}.R.A.C.cXFXZXCXBXCXCXCXCXCXCXCXCXCXCXCXCXCXCXCXCXBXZXJXKXFX*Xh - = > 4 4 4 6 4 6 6 6 6 6 6 6 6 6 6 6 6 6 6 6 6 6 6 3 6 6 6 6 6 6 6 6 6 6 6 6 6 6 6 6 6 6 6 6 6 6 6 6 6 6 6 6 6 6 6 6 6 3 6 6 6 6 6 6 6 6 6 6 6 6 3 6 6 6 6 6 3 3 3 3 6 6 6 3 6 3 6 6 3 3 3 3 3 3 3 2 2 2 2 3 2 2 2 2 2 2 3 3 3 2 3 2 3 3 2 2 2 < 2 2 2 2 2 < 3 2 - * - h *XHXKXKXKXJXJXJXJXJXJXJXJXJXJXJXJXJXJXJXKXKXKXKXKXKXKXnX!.A.R.}.{.R.{.{.{.{.{.{.{.{.{.{.(.{.{.(.{.{.{.{.{.{.{.{.{.{.(.(.(.(.(.(.(.(.(.(.(.(.(.(.(.(.(.(.(.(.(.(.(.(.(.(.G.G.(.^.G.G.G.G.G.).G.).).).).G.^.^.).).).^.^.).I.I.H.H.H.I.I.I.I.I.I.I.I.I.I.P.U.U.P.L.L.U.Y.Y.L.L.L.L.L.L.L.L.L.L.L.L.U.L.L.U.K.L.Y.Y.L.L.L.U.U.U.U.L.U.U.U.L.U.U.L.L.U.L.U.U.L.L.L.U.L.U.U.L.L.L.                ",
"                  U.U.U.U.L.U.U.U.U.Y.U.U.U.U.U.Y.U.Y.Y.Y.Y.L.Y.Y.Y.L.L.L.L.L.Y.U.L.L.L.L.L.L.L.L.L.L.L.L.L.L.L.L.L.L.L.L.L.L.L.L.L.L.L.L.L.L.L.L.L.U.U.L.L.L.L.L.L.L.L.L.L.L.L.L.Y.U.U.L.L.U.U.U.U.U.U.U.U.U.U.U.U.U.].K.P.P.K.K.I.I.I.I.I.I.I.I.I.I.I.I.I.I.I.I.I.I.I.I.I.I.'.'.).).).^.).).).^.G.G.(.(.(.(.(.(.(.^._.R.S.C.nXZXCXBXBXBXBXCXCXBXCXCXCXCXCXCXCXCXCXCXCXBXZXJXGXyX] e = = 4 7 6 4 4 6 6 6 6 6 6 6 6 6 6 6 6 6 6 6 6 6 6 6 6 3 3 6 6 6 6 6 6 6 6 6 6 6 6 6 6 6 6 6 6 6 6 6 6 6 6 6 6 6 6 6 6 6 6 6 6 6 6 6 6 6 6 6 6 3 3 6 6 6 6 6 6 6 6 6 6 6 3 3 6 3 3 6 3 3 3 3 3 3 3 3 3 3 3 2 2 3 3 3 3 2 2 2 2 2 3 3 2 3 2 2 3 2 2 2 2 2 2 2 2 2 < 2 2 < 2 - ; = 1 h rXKXKXKXKXJXKXJXJXJXJXJXJXJXJXJXJXKXKXKXKXKXKXKXKXLXlXV.S.}.{.{.{.{.{.{.{.{.R.{.{.{.{.{.{.{.{.{.{.{.{.{.{.{.{.(.(.(.(.(.(.(.(.{.{.(.{.(.(.(.(.(.(.(.(.(.(.(.(.(.(.(.(.(.(.G.G.G.).).).G.).).).).).^.^.^.^.).).^.^.).H.H.H.H.H.I.I.I.I.I.I.I.I.I.P.P.P.U.U.Y.Y.U.U.P.U.L.L.L.L.L.L.L.L.L.L.L.L.L.U.L.L.Y.L.L.L.L.U.U.L.L.L.U.U.U.L.L.L.L.L.U.U.L.L.L.L.U.U.L.L.L.L.L.L.                ",
"                Y.L.U.L.L.U.U.U.U.U.U.U.Y.U.U.U.Y.U.Y.Y.Y.Y.Y.Y.Y.L.Y.Y.Y.L.L.Y.U.L.L.L.L.L.L.L.L.L.L.L.L.L.L.L.L.L.L.L.L.L.L.L.L.L.L.L.L.L.L.L.L.U.U.U.L.L.L.U.U.L.L.L.L.L.L.L.L.L.L.U.U.U.U.U.U.U.U.U.U.U.U.U.U.P.P.`.K.K.P.I.I.I.I.I.I.I.I.I.I.I.I.I.I.I.I.I.I.I.H.H.H.I.H.).).).).).).).^.G.G.^.(.(.(.(.(.(.(.(.}.S.B.hXAXCXBXBXBXBXBXBXBXBXCXCXCXCXBXCXCXCXCXBXCXGXKXFX*Xf - = : 4 6 6 3 4 6 6 6 6 6 6 6 6 6 6 6 6 6 6 6 6 6 6 6 6 6 6 6 3 6 6 6 6 6 6 6 6 6 6 6 6 6 6 6 6 6 6 6 6 3 6 6 6 3 3 3 3 < < 2 < < 2 < < < < < < < 3 3 3 3 6 6 6 6 6 6 6 6 6 6 6 6 6 6 6 3 3 3 3 3 3 3 3 3 3 3 3 2 3 3 3 3 2 2 3 3 2 2 3 2 2 2 2 2 2 2 2 2 2 2 2 2 2 2 < < 2 2 2 < < 2 - * * e -XAXKXKXKXKXKXJXJXJXJXJXJXJXJXJXKXKXKXKXKXKXKXKXKXPX~.A.E.}.{.{.{.{.{.{.{.{.{.{.{.{.{.{.(.{.{.{.(.{.(.{.(.{.{.(.(.(.(.(.(.(.(.(.(.(.(.(.(.(.(.(.(.(.(.(.(.(.(.(.G.(.G.G.G.^.^.G.G.G.).).).).G.G.^.^.^.).).).^.).).H.H.H.H.H.I.P.I.I.I.I.I.I.I.P.P.U.U.U.U.U.U.U.U.L.L.L.U.Y.Y.L.L.L.L.L.L.L.L.L.L.Y.Y.L.Y.U.L.L.L.L.U.U.L.L.U.U.L.L.L.U.U.L.L.U.U.L.L.L.L.L.L.L.L.L.              ",
"                U.U.U.U.L.U.U.U.U.U.U.U.U.U.U.U.U.U.Y.Y.Y.Y.U.Y.Y.L.Y.Y.L.L.L.U.U.L.L.L.L.L.L.L.L.L.L.L.L.L.L.L.L.L.L.L.L.L.L.L.L.L.L.L.L.L.L.L.L.L.L.L.L.L.Y.L.L.L.L.L.L.L.L.L.L.L.L.L.U.U.U.U.U.U.U.U.U.U.U.U.P.K.K.P.P.K.P.I.I.I.I.I.I.I.I.I.I.I.I.I.I.I.I.I.I.I.I.H.H.H.'.'.).F.^.^.^.^.^.(.(.G.(.(.(.(.(.^.{.W.N.~.PXZXBXBXBXBXCXBXBXBXBXBXBXBXBXBXBXCXCXBXCXJXKXSX' e = = 2 6 6 4 4 6 6 6 6 6 4 6 6 6 6 6 6 6 6 6 6 6 6 6 6 6 6 6 6 6 6 6 6 6 6 6 6 6 6 6 6 6 6 6 6 6 3 3 2 2 < < < < < < < 3 6 6 9 9 9 9 9 9 9 9 9 9 9 9 9 3 3 3 3 3 < < < < < < < < < < 3 3 3 3 3 3 3 3 3 3 3 3 3 3 3 3 3 3 3 3 3 2 2 3 2 3 3 3 3 3 3 2 2 2 2 2 2 2 2 2 2 2 2 2 2 2 2 2 < 2 < < 2 < = = - h MXKXKXKXJXJXKXJXJXJXJXJXJXJXJXJXJXKXKXJXJXKXKXKXcXC.A.E.}.R.{.{.{.{.{.{.{.{.{.{.{.(.(.{.{.(.G.(.(.(.{.{.(.(.(.(.(.(.(.(.(.(.(.(.(.(.(.(.(.(.(.(.(.(.(.(.(.G.(.(.^.(.^.G.G.G.G.).).).).).G.^.).^.^.).).).).).).H.H.H.H.I.I.I.I.I.I.I.I.I.I.P.U.U.L.U.Y.U.U.U.Y.L.L.Y.Y.Y.Y.L.L.L.L.L.L.L.L.L.U.L.L.U.L.U.L.L.L.U.U.L.L.U.U.L.L.L.U.U.L.L.L.L.K.L.L.L.L.L.L.Y.L.              ",
"                L.U.U.L.U.U.U.U.U.U.U.U.K.L.L.U.U.U.Y.Y.U.U.U.Y.Y.Y.Y.Y.L.L.L.Y.U.L.L.L.L.L.L.L.L.L.L.L.L.L.L.L.L.L.L.L.L.L.L.L.L.L.L.L.L.L.L.L.L.L.L.L.U.Y.U.L.L.L.L.L.L.L.L.L.L.L.L.L.U.U.U.U.U.U.U.U.U.U.U.U.U.`.K.'.].K.I.I.H.I.I.I.I.I.I.I.I.I.I.I.I.I.I.I.I.I.H.I.I.H.).).).^.^.^.^.^.^.^.(.G.(.(.G.(._.{.A.C.IXZXCXNXBXBXBXBXBXBXBXBXBXBXBXNXBXBXBXBXZXJXKXSX] - = : 3 6 6 4 6 6 6 6 6 6 6 6 6 6 6 6 6 6 6 6 6 6 6 6 6 6 6 6 6 6 6 6 6 6 3 3 3 6 6 6 6 7 6 6 < < < < 2 3 3 6 9 8 r i i s s s a k z z k z k z z z z k k k k a s s s p s s i i i r 8 8 9 6 3 < < < < < < 2 2 2 3 3 3 3 3 3 3 3 3 3 3 3 3 3 3 3 3 3 3 3 3 3 2 2 2 2 2 2 2 2 2 2 2 2 2 2 2 2 2 2 2 2 2 2 < 2 - = ; h rXKXKXKXJXJXJXKXJXJXKXJXJXJXKXKXKXJXKXKXKXKXKXJXnX!.S.R.{.{.{.{.{.{.{.{.{.{.{.(.(.{.(.{.G.G.G.(.(.(.{.{.{.{.(.(.(.(.(.(.(.(.(.(.(.(.(.(.(.(.(.(.(.(.(.(.G.(.(.(.G.G.G.G.).).).).G.^.^.^.^.^.^.^.).).).).).).I.I.H.H.H.H.I.I.I.I.K.K.I.I.P.U.U.U.U.U.P.Y.U.Y.Y.Y.Y.Y.Y.L.L.L.L.L.L.L.L.L.L.L.U.U.L.U.U.U.U.L.U.L.L.L.L.U.U.L.U.L.L.L.L.K.L.L.L.L.L.L.U.U.U.              ",
"              L.L.L.Y.U.L.Y.U.U.U.L.L.U.L.L.L.L.U.Y.Y.Y.L.L.U.U.Y.L.L.Y.U.Y.U.U.U.L.L.L.L.L.L.L.L.L.L.L.L.L.L.L.L.L.L.L.L.L.L.L.L.L.L.L.L.L.L.L.L.L.U.U.U.U.U.L.L.L.L.L.L.L.L.L.L.U.L.L.U.U.U.U.U.U.U.U.U.U.].U.P.K.`.'.'.K.I.I.I.I.I.I.I.I.I.I.I.I.I.I.I.I.I.I.I.I.).H.H.).).).^.^.^.^.^.^.^.G.G.^.(.(._.}.S.B.xXZXCXBXNXBXBXBXBXBXBXBXBXBXBXBXBXBXNXNXCXJXJXuXh - = 2 4 7 6 6 4 6 6 6 6 6 6 6 6 6 6 6 6 6 6 6 6 6 6 6 6 6 6 6 6 6 6 6 6 6 6 6 6 6 3 3 < < < < 2 6 8 t i s s k k k l l l x x x x l l l l l l l l l l l k k l l l l l l l l l l l l l l l l k z k s s i t 8 7 2 2 2 2 2 2 2 3 6 6 6 3 3 3 3 3 2 3 3 2 3 3 3 3 2 3 3 3 3 2 2 2 2 3 3 2 2 2 2 2 2 2 2 2 2 2 2 2 2 2 3 2 = = f wXKXKXKXKXJXJXJXKXJXJXJXJXKXKXKXKXJXJXKXJXKXKXPX@XB.W.}.{.{.{.{.{.{.{.{.{.(.G.G.(.{.(.G.(.(.(.{.{.{.{.{.{.(.(.(.(.(.(.(.(.(.(.(.(.(.(.(.(.(.(.(.(.(.G.(.(.G.G.(.).G.^.(.G.).).).).G.).).^.^.^.).^.).).).I.I.H.H.H.H.I.I.I.I.I.I.I.I.P.P.U.Y.U.U.Y.Y.Y.U.U.U.Y.Y.Y.L.Y.Y.Y.Y.L.L.L.L.L.L.L.U.U.L.U.U.L.L.L.L.L.U.U.U.L.L.U.L.L.L.L.L.L.L.L.L.L.L.U.U.U.L.            ",
"              L.L.U.Y.Y.Y.L.U.U.U.L.L.U.L.L.Y.U.U.U.U.Y.L.L.L.U.U.L.L.U.U.Y.U.U.U.L.L.L.L.L.L.L.L.L.L.L.L.L.L.L.L.L.L.L.L.L.L.L.L.L.L.L.L.L.L.U.U.U.Y.U.U.U.U.L.L.L.L.L.L.L.L.L.L.U.U.L.U.U.U.U.U.].U.U.U.U.P.P.K.P.I.I.I.I.I.I.I.I.I.I.I.I.I.I.I.I.I.I.I.I.I.I.H.I.I.I.'.).).^.^.^.^.^.^.^.^.J.(.(.^._.E.B.~.PXFXNXdXNXNXBXBXNXBXBXBXBXNXNXBXBXNXNXBXJXKXuXh = = : 6 6 3 6 6 6 6 6 6 6 6 6 6 6 6 6 6 6 6 6 6 6 6 6 6 6 6 6 6 6 6 6 6 6 6 6 3 3 3 < 4 3 7 9 i s s z x x x x x x x x l l l l l l l l l l l l l l k k l l l l l l l l l l l l k k k k k k l l l l l l l l l k k a s i r 8 3 2 2 2 2 2 2 3 3 3 3 4 3 3 3 3 3 3 2 2 3 3 3 3 3 2 2 2 3 3 3 3 2 2 2 2 3 3 3 2 3 3 2 2 2 4 3 4 2 = * f *XKXKXKXJXKXJXJXJXJXJXJXJXKXKXKXJXKXKXKXJXKXKXIXC.A.R.}.R.{.{.{.{.{.{.{.G.(.(.(.{.{.{.{.{.{.{.{.{.{.{.(.(.(.(.(.(.(.(.(.(.(.(.(.(.(.(.(.(.(.(.(.(.G.G.G.(.(.(.^.^.G.).).).).G.G.G.G.).^.^.^.^.).).).H.'.).H.H.H.H.I.I.I.I.I.I.I.P.P.U.U.U.U.Y.Y.Y.U.U.Y.Y.Y.Y.Y.Y.Y.Y.Y.L.L.L.L.L.L.L.U.U.L.L.U.U.L.L.L.L.U.U.L.L.L.U.L.L.L.L.L.L.L.L.L.L.L.L.L.Y.U.            ",
"              L.L.Y.Y.Y.Y.L.L.Y.Y.L.U.L.L.L.U.U.U.U.U.L.Y.L.L.L.L.L.U.U.U.L.U.U.U.L.L.L.L.L.L.L.L.L.L.L.L.L.L.L.L.L.L.L.L.L.L.L.L.L.L.L.L.L.L.U.U.U.L.L.U.L.L.L.L.U.U.L.U.U.U.U.U.U.U.U.U.U.U.U.U.].U.U.].P.K.K.K.I.I.K.I.I.I.I.I.I.I.I.H.I.I.I.I.I.I.I.I.I.I.H.H.I.H.I.).).).^.^.).^.^.^.^.(.(.^._.}.A.!.cXFXBXNXNXNXNXBXNXNXNXNXNXNXNXNXNXNXNXBXGXJXyXh = = 4 6 3 3 3 6 6 6 6 6 6 6 6 6 6 6 6 6 6 6 6 6 6 6 6 6 6 6 6 6 6 6 6 6 3 2 < < 2 3 8 i s a z l x x x x x l l l l l l l l l l l l l l l l l l l l l l l l l l l l l l l l l l l l l l k k k k l k k k k k k k k k l l l l l k k s i t 8 6 < < < 2 3 3 3 3 3 3 3 2 2 2 3 2 3 3 3 3 3 3 4 2 2 3 3 3 4 3 3 3 3 3 3 3 3 2 2 4 4 2 2 4 2 = * e *XJXKXKXJXJXJXJXJXJXJXJXKXKXKXKXKXJXKXKXJXKXJXnXB.W.}.{.{.{.R.{.{.{.{.{.{.(.(.{.{.(.{.(.{.{.(.(.(.(.(.(.(.(.(.(.(.(.(.(.(.(.(.(.G.(.(.(.(.(.(.(.(.G.(.(.(.(.G.^.(.^.^.G.).).).).).^.^.^.^.).).).).H.H.).H.H.H.H.I.I.I.I.I.I.P.U.P.P.U.U.Y.Y.Y.Y.Y.Y.Y.Y.Y.U.L.L.L.L.L.L.L.L.L.L.L.U.U.L.L.U.L.L.U.U.L.U.U.U.L.L.L.L.L.L.L.L.L.L.L.L.L.L.L.L.U.U.            ",
"              Y.L.Y.Y.Y.Y.L.L.Y.L.L.U.L.L.L.U.U.U.Y.Y.L.L.L.L.L.L.L.U.U.L.L.U.U.L.L.L.L.L.L.L.L.L.L.L.L.L.L.L.L.L.L.L.L.L.L.L.L.L.L.L.L.L.L.U.U.U.U.U.L.L.L.L.L.U.U.U.U.L.L.U.U.U.U.U.U.U.U.U.U.].].U.].P.].P.K.K.I.I.I.I.I.I.I.I.I.I.I.H.H.I.I.I.I.I.I.I.I.I.I.I.H.'.).^.^.^.).F.).).^.^.(.(._._.S.A.@XHXZXNXNXdXNXNXNXNXNXNXNXNXNXNXNXNXNXBXGXKXyXh = * : 4 3 3 6 6 6 6 6 6 6 6 6 6 6 6 6 6 6 6 6 6 6 6 6 6 6 6 6 6 6 7 6 < < 2 3 7 r i s k z l x x x x l l l l l l l l l l l l l l l l l l l l l l l l l l l l l l l l l l l l l l l l l l l l k l l l l l l l k k k k l l k k k l l l x x x k k s r 8 3 < < < 2 4 4 3 2 2 2 2 4 3 3 3 3 2 3 4 4 4 3 3 3 3 3 3 3 3 3 3 3 3 3 3 2 4 2 < 2 2 2 2 = * e *XKXKXKXJXKXJXJXJXKXJXKXKXJXJXKXKXKXKXJXKXKXPX~.N.E.}.R.R.{.R.{.{.{.{.(.(.(.(.(.{.(.(.(.(.(.(.(.{.(.(.{.{.(.(.(.(.(.(.(.(.(.(.(.(.(.(.(.(.(.(.G.(.G.G.(.(.^.(.(.^.^.G.G.).).).).^.^.^.^.).).).H.).H.H.).H.H.I.I.I.I.I.I.K.P.U.P.P.P.P.P.Y.Y.Y.Y.Y.Y.Y.L.L.L.L.L.Y.U.L.L.L.L.L.L.L.L.L.L.L.L.U.U.U.U.L.U.U.L.U.U.L.L.Y.U.L.L.U.U.L.L.L.L.L.U.            ",
"              U.Y.L.Y.Y.Y.Y.L.L.L.L.U.Y.L.L.L.L.U.Y.Y.L.L.L.L.Y.Y.L.U.U.U.U.U.L.L.L.L.L.L.U.Y.L.L.L.L.L.L.L.L.L.L.L.L.L.L.L.L.L.L.L.L.L.U.Y.U.U.L.U.U.L.L.L.L.L.U.U.U.U.U.L.L.U.U.U.U.U.U.U.U.U.U.U.U.U.].P.I.I.I.I.I.I.I.I.I.I.H.H.H.I.I.I.I.I.I.H.I.I.I.I.I.I.H.).).).^.^.^.).).^.^.(.(.^._.G.Z.C.IXZXNXNXNXNXNXNXNXNXNXNXNXNXNXNXNXdXdXGXKXSXh = , 2 6 6 3 3 6 6 6 6 6 6 6 6 6 6 6 6 6 6 6 6 6 6 6 6 6 6 6 6 6 6 6 < 2 2 9 i s k l x x x l l l l l l l l l l l l l l l l l l l l l l l x l l l l l l l l l l l l l l l l l l l l l l l l l l l l l l l l l l l l k l l l l l l l l l l l l l l l l l l k s i 8 2 < - 2 4 4 3 2 3 3 3 3 3 3 3 3 3 3 3 3 3 3 3 2 3 3 3 4 4 4 2 2 2 2 2 2 2 2 2 2 2 2 = * e wXKXKXKXKXJXKXKXJXJXJXKXKXKXKXKXKXKXJXJXKXKXnXB.S.}.}.{.R.{.{.{.{.{.{.{.{.{.{.(.(.{.{.(.(.(.{.{.{.{.{.(.{.(.(.(.(.(.(.(.(.(.(.(.(.(.(.(.(.G.(.(.G.G.(.^.(.(.(.).).G.).^.).).).).F.).^.^.).).).H.H.H.H.H.H.I.I.I.I.I.F.K.K.P.P.P.U.P.P.Y.Y.Y.U.U.Y.L.L.L.Y.Y.U.U.L.L.L.L.L.L.L.L.L.L.L.U.U.L.L.L.L.L.U.L.U.U.L.U.U.U.L.U.U.U.L.L.L.Y.U.U.            ",
"            U.U.Y.L.Y.L.L.Y.L.L.L.U.U.U.U.U.L.U.U.U.L.L.L.L.L.U.U.U.U.L.U.U.U.U.L.L.L.L.L.U.U.L.L.L.L.L.L.L.L.L.L.L.L.L.L.L.L.L.L.L.L.L.U.U.U.U.U.U.U.U.U.U.U.L.U.U.L.L.U.U.U.U.U.U.U.U.U.U.U.U.U.U.U.U.P.I.I.I.I.I.I.I.I.I.I.I.H.H.H.I.I.I.I.I.I.H.H.I.I.'.H.H.).).).^.^.^.^.F.).^.^.^.^._.E.A.hXZXBXdXdXNXNXdXNXNXNXNXNXNXNXNXNXdXdXZXKXSX] ; * 2 6 3 6 6 6 6 6 6 6 6 6 6 6 6 6 6 6 6 7 6 6 6 6 6 6 6 6 6 3 < < < 6 8 i a x c c x x l l l l l l l l l l l l l l l l l l l l l l x x l l l l l l l l l l l l l l l l l l l l l l l l l l l l l l l l l l l l l l l l l l l l l l l l l l l l l l l l k l l l x l k s r 3 < - < 2 2 3 3 3 3 3 3 3 3 3 3 3 3 3 3 3 3 3 3 3 3 3 3 3 2 3 3 2 2 3 3 2 2 < 3 4 = * h tXKXKXKXJXJXKXKXJXJXKXKXKXKXKXKXKXKXJXKXKXPX~.A.R.}.{.{.{.{.{.{.{.{.{.{.{.{.{.{.{.(.{.{.{.{.{.{.{.{.{.(.(.(.(.(.(.(.(.(.(.(.(.(.G.(.(.(.G.(.(.G.(.(.(.(.^.G.G.^.G.G.).).).^.).G.^.^.).).).I.H.H.H.H.H.H.I.I.I.I.I.I.I.P.K.L.U.U.L.L.L.L.Y.Y.U.Y.L.L.Y.Y.L.L.L.L.L.L.L.L.L.L.L.U.U.L.U.L.L.U.L.L.U.U.L.L.U.U.L.L.L.U.U.U.Y.L.L.Y.L.L.U.          ",
"            Y.U.Y.L.U.L.L.U.U.L.L.U.Y.U.U.U.Y.L.L.U.L.L.L.L.L.U.U.U.U.L.U.U.U.U.U.L.U.U.L.L.L.L.L.L.L.L.L.L.L.L.L.L.L.L.L.L.L.L.L.L.L.L.U.U.U.U.U.L.U.U.U.U.L.U.U.L.U.L.U.U.U.U.U.U.U.U.U.].].].U.P.U.].K.K.I.I.I.I.I.I.H.H.I.I.I.H.H.I.I.I.I.I.I.I.H.H.I.H.).H.).).).).).^.^.^.^.^.(.^._.S.Q.DXCXNXNXNXdXdXdXdXNXNXdXNXNXNXdXNXdXBXKXFX] - * : 6 6 6 3 3 3 6 6 6 6 6 6 6 6 6 6 6 6 7 7 7 7 6 6 6 6 6 3 < < < 9 r s l x x x l l l l l l l l l l l l l l l l l l l l l l l l l l l x x x x l l l l l l l l l l l l l l l l l l l l l l l l l l l l l l l l l l l l l l l l l l l l l l l l l l l l l l l l l k k l l l l k s r 6 < < < 2 3 3 3 3 3 3 3 3 3 3 3 3 3 3 3 3 3 3 3 3 3 3 3 3 3 3 3 3 3 3 3 3 2 3 4 = ; h MXKXKXKXJXJXJXJXKXKXKXKXKXKXKXKXJXKXKXKXKXxXB.W.}.}.{.{.{.{.{.{.{.{.{.{.{.(.(.{.{.{.{.(.(.(.{.{.{.{.(.(.(.(.(.(.(.(.(.(.(.(.(.(.(.(.G.G.(.(.G.(.(.(.G.(.G.G.G.G.).).).^.).).G.G.^.).).).).H.H.H.H.H.I.I.I.I.I.I.I.K.L.L.L.L.L.L.Y.L.L.Y.U.U.U.L.Y.Y.L.L.L.L.L.U.L.L.L.L.L.U.U.U.U.L.U.U.L.L.L.L.U.U.U.U.L.U.L.U.U.U.U.Y.Y.U.L.L.U.          ",
"            Y.U.Y.L.U.U.U.Y.Y.L.L.U.U.L.L.U.L.L.U.U.L.L.L.L.U.U.U.U.U.U.U.U.U.U.U.U.U.U.L.L.L.L.L.L.L.L.L.L.L.L.L.L.L.L.L.L.L.L.L.L.L.L.Y.U.U.U.U.U.L.L.U.U.L.L.U.L.U.L.U.U.U.U.U.U.U.U.U.].].].P.P.P.K.K.'.I.I.I.I.I.I.I.H.I.I.I.H.H.I.I.I.I.I.I.I.H.H.I.H./.F.).).^.^.^.(.(.^.^.^.(.R.W.~.CXNXdXNXNXdXNXNXdXdXdXdXdXdXNXNXdXNXJXKX*X1 * : 6 4 3 3 3 6 6 6 6 6 6 6 6 6 6 6 6 6 6 6 6 6 6 7 7 6 3 < < 6 r s z x c c x x l l l l l l l l l l l l l l l l l l l l l x x x x x x x x x x x l x l l l l l l l l l l l l l l l l l l l l l l l l l l l l l l l l l l l l l l l l l l l l l l l l l l l l l l l l k k z k k k l l l k s r 9 < < 2 3 3 3 3 3 3 3 3 3 3 3 3 3 3 3 3 3 3 2 3 3 3 3 3 3 3 3 3 3 2 2 2 2 3 2 = - ] HXKXKXKXJXJXKXKXKXKXKXKXKXJXKXJXJXKXKXKXDXC.S.}.}.{.{.{.{.{.(.{.{.{.{.{.{.{.{.{.{.{.(.(.{.{.{.(.{.(.(.(.(.(.(.(.(.(.(.(.(.(.G.(.(.(.(.(.(.G.(.(.(.G.^.G.G.G.H.F.^.G.G.G.G.^.^.^.^.^.).H.H.H.H.H.H.H.I.I.I.I.I.K.K.L.L.K.K.Y.U.L.L.L.U.U.Y.L.Y.Y.U.U.U.Y.U.L.L.L.K.L.L.L.L.L.L.L.U.U.U.L.L.U.U.L.L.U.Y.U.U.U.L.Y.L.L.L.U.U.L.U.          ",
"            U.Y.Y.Y.U.Y.U.U.U.U.L.L.L.L.L.L.L.L.L.U.L.L.L.L.L.L.L.L.U.U.U.U.U.U.U.U.L.L.U.L.L.L.L.L.L.L.L.L.L.L.L.L.L.L.L.L.L.L.L.L.L.L.L.L.U.U.U.U.L.L.U.U.L.L.L.L.L.L.U.U.U.U.P.].U.U.U.U.].U.P.K.K.P.I.I.I.I.I.I.I.I.I.H.H.H.I.I.I.I.I.I.I.I.H.H.H.I.H.H.I.F.J.^.^.^.^.(.^.^.^.{.R.A.xXCXNXNXdXdXdXdXNXdXdXdXdXdXdXdXdXdXZXKXMXh * = 3 3 6 6 3 6 6 6 6 6 6 6 6 6 6 6 7 6 6 6 6 6 6 7 6 < < < < r s l x c x x l l l l l l l l l l l l l l l l l l l l l l l l x x l l x x l x x x x x x x x x x l l l l l l l l l l l l l l l l l l l l x x x l l l l l l l l l l x l l x x l l l l l l l l l l l l l l l k k l l l l k k k k l l k s r 6 2 < 2 3 3 3 3 3 3 3 3 3 3 3 3 3 3 3 3 3 3 3 3 3 3 3 3 3 3 4 2 2 3 3 4 3 : * - *XKXKXKXJXKXKXJXKXJXKXKXKXKXKXJXKXJXJXKXJX@XN.E.}.R.{.{.{.{.{.{.{.{.{.{.{.{.{.{.{.{.{.{.{.{.{.(.(.{.(.(.(.(.(.(.(.(.(.(.(.(.(.(.(.(.(.(.(.(.(.(.(.).(.G.G.G.G.G.G.^.G.G.).G.G.^.).).).).H.I.I.H.H.I.I.H.I.I.I.I.P.P.P.U.Y.U.U.L.L.U.U.U.U.Y.Y.Y.Y.Y.U.U.L.U.L.L.U.U.L.L.L.L.L.U.U.U.U.L.L.L.U.L.U.U.U.U.U.L.U.L.L.L.U.U.U.L.          ",
"            L.U.U.Y.U.Y.Y.L.U.U.U.L.L.L.L.L.L.L.L.U.U.U.U.U.L.L.L.L.U.U.U.L.L.L.U.U.L.L.U.U.L.L.L.L.L.L.L.L.L.L.L.L.L.L.L.U.U.U.U.U.L.L.L.L.L.L.U.U.U.L.L.L.L.L.L.L.L.U.U.U.U.P.P.U.U.U.U.].U.U.P.K.K.I.I.I.I.I.I.I.I.H.H.H.H.I.I.I.I.H.H.H.I.I.H.H.H.H.).).H.F.^.^.^.^.^.(.^.^.}.W.C.IXBXdXdXNXdXNXNXNXdXdXdXdXdXdXdXdXNXJXFX] - = 4 6 3 3 6 6 6 6 6 6 6 6 6 6 6 6 6 6 6 6 6 6 6 7 6 2 < 6 r s l c c x l l l l l l l l l l l l x x l l l x l l x x x l l l x x x x x x x x x x x x x x x x x x x l l l l l l l l l l l l l l l l l l l l x x x l l x x x x x x x x l x x x x x x l x x l l l l l l l l l l l l l l l l l k k k k k k l x k s r 6 < < 3 3 3 3 3 3 3 3 3 3 3 3 3 3 3 3 3 3 3 3 3 3 3 3 3 3 3 4 4 4 2 2 3 - * f tXKXKXKXKXKXKXKXKXKXKXJXKXKXKXKXKXJXKXKXcX!.S.}.{.{.{.{.{.{.{.{.{.{.{.{.{.{.{.{.{.{.{.{.{.{.{.{.(.(.(.(.(.(.(.(.(.(.(.(.(.(.(.(.(.(.(.(.G.(.(.(.(.G.G.G.G.).).).G.G.G.).G.^.).).F.F.H.H.H.H.H.H.H.).I.I.I.I.I.K.K.K.L.U.U.L.U.Y.U.U.U.Y.U.L.L.Y.U.U.L.U.U.U.U.U.L.L.U.U.L.L.L.U.U.L.L.U.L.L.U.U.U.U.U.U.U.U.L.U.U.L.L.L.          ",
"            L.Y.L.U.U.U.U.U.U.L.L.L.L.L.U.U.U.U.U.U.U.U.U.U.L.L.L.L.U.U.U.L.L.U.U.Y.L.L.U.L.L.L.L.L.L.L.L.L.L.L.L.L.L.L.L.U.U.U.U.U.U.U.U.U.L.L.U.U.L.L.L.L.U.U.U.L.L.U.L.L.P.K.K.U.P.P.U.U.P.`.`.P.`.K.I.I.I.I.I.I.I.H.H.H.I.I.H.I.H.H.).H.I.I.I.H.H.H.).^.J.^.^.^.^.).^.^._.R.A.~.AXBXdXsXNXdXdXdXdXdXdXdXdXdXdXdXsXZXJX*Xe * : 7 3 3 3 6 6 6 6 6 6 6 6 6 6 6 6 6 6 6 6 6 6 6 3 < 3 9 i z x c x l l l l l l l x l l x x l x x x x l l x x x x x x x x x x x x x x x x x x x x x x x x x x x l l l x x x x x x x x x x x l l l l l x x l l l l l l l l l l x x x x x x x x x l x x x x x l l l l l l l l l l l l l l l l l l k l k k k l l l l k i 9 < < 2 3 3 3 3 3 3 3 3 3 3 3 3 3 3 3 3 6 6 3 3 3 3 3 3 3 3 2 2 2 4 3 4 = ; h AXKXKXKXKXKXJXKXKXKXKXKXKXKXKXJXKXKXKXPX~.S.}.{.{.(.{.{.{.{.{.{.{.{.{.{.{.{.{.{.{.{.(.{.{.{.(.(.(.(.(.(.(.(.(.(.(.(.(.(.(.(.(.(.(.(.(.(.(.(.G.G.G.G.F.F.).F.G.G.G.G.^.^.).).H.).).).H.H.H.H.H.H.H.I.K.I.I.K.K.K.P.U.U.U.U.U.U.Y.U.U.U.L.U.U.Y.U.U.Y.Y.U.L.L.L.L.P.P.K.K.K.L.L.L.U.U.L.U.U.U.U.U.L.U.U.U.L.U.L.L.U.U.          ",
"            L.L.L.L.L.Y.U.U.L.L.L.Y.Y.U.U.U.L.L.U.U.U.U.U.U.U.U.L.L.U.U.U.L.L.L.U.U.L.L.U.L.L.L.L.L.L.L.L.L.L.L.L.L.L.L.U.U.U.U.U.U.U.L.U.U.U.U.U.L.L.L.L.U.U.L.L.L.L.L.L.K.U.K.L.U.P.U.P.P.P.K.K.I.K.F.I.I.I.I.I.'.I.H.H.I.I.I.I.H.H.H.H.H.I.I.H.H.F.).F.J.^.^.^.).).^.^._.E.B.nXBXNXdXdXdXdXsXdXdXdXdXsXsXsXdXdXNXJXVXh * = 4 6 3 4 3 6 6 6 6 6 6 6 6 6 6 6 6 6 6 6 7 6 3 < < 9 i z x x x l l l l l l l x x x x x x x x x x x x x x x x x x x x x x x x x x x x x x x x x x c c c c c n n n n n n n n m m m m n m m n n m n n n n n c c c c c c c c x x x x x x x x x x x x x x x x x x x l l l l l l l l l l l l l l l l l l l l l l l l l k l x l s r 6 < < 3 6 6 3 3 3 3 6 3 3 6 3 6 6 3 6 3 3 3 3 3 3 3 3 3 2 2 2 2 3 3 2 * - *XKXKXKXJXJXKXKXKXKXKXKXJXKXJXKXKXJXKXKXlXB.R.}.R.{.{.{.{.{.{.{.{.{.{.{.{.{.{.{.{.{.(.{.{.(.(.(.(.(.(.(.(.(.(.(.(.(.(.(.(.(.(.(.(.(.(.G.G.G.(.G.G.G.F.H.F.G.G.G.G.G.^.^.).).).).F.H.H.H.H.H.H.).I.K.I.K.I.I.P.P.P.P.U.U.L.U.Y.U.U.U.L.U.Y.U.U.L.L.Y.U.U.U.U.L.U.L.U.U.U.L.L.L.U.L.L.L.U.U.U.U.U.U.U.U.L.L.U.U.U.L.          ",
"          L.L.L.U.L.L.L.L.L.L.L.L.L.U.U.U.U.U.U.U.U.U.U.U.U.U.U.L.L.U.L.L.L.U.L.U.U.L.L.Y.L.L.L.L.L.L.L.L.L.L.L.L.L.L.L.U.U.U.U.U.U.U.L.U.U.U.U.U.L.L.L.L.L.L.K.K.K.L.K.P.U.U.U.U.U.U.P.P.K.K.L.K.K.K.K.I.I.I.I.I.I.I.H.H.H.I.I.H.H.H.H.I.I.I.H.F.F.)./.F.F.).^.^.^.^._.{.S.!.IXNXNXdXdXdXdXsXNXdXdXdXsXsXsXsXdXFXGX*X- * 2 6 3 4 3 3 3 6 6 6 6 6 6 6 6 6 6 6 6 6 7 6 3 2 6 r z x c x x l l x l x x x x x x x x l l x x x x x x l x x x l x x x x x x x x x x c c c c c c n n m m m m m m m m N m N N m N m m N N N N N N N N N N m m m m m m m m m m m m n n n c c c c x x x x x x x x x l l l x x l l l l l l l l l l l l l l l l l l l l l l l l k x x k s 7 < < 3 6 3 3 6 6 3 3 3 6 3 3 3 3 3 3 3 3 3 3 3 3 3 3 2 2 2 4 3 2 3 = * h SXKXKXJXKXKXKXKXJXJXKXKXKXKXKXKXKXKXKXcXB.S.}.{.{.{.{.{.{.{.{.{.{.{.{.{.{.{.{.{.{.{.{.(.(.(.(.(.(.(.(.(.(.(.(.(.(.(.(.(.(.(.(.(.(.G.G.(.G.G.G.G.G.G.G.G.G.G.G.G.G.^.^.).).).F.F.H.H.H.H.H.F.F.I.I.H.H.I.P.P.P.P.U.U.U.Y.U.U.Y.U.L.U.U.U.U.L.L.L.L.L.L.U.U.U.U.U.U.U.U.L.L.U.U.L.L.U.L.L.U.U.L.L.L.L.L.L.U.U.U.U.        ",
"          L.L.U.U.L.L.L.L.L.L.L.L.L.L.L.U.U.U.U.U.U.U.L.U.U.U.U.U.L.L.L.L.U.U.U.L.L.L.L.L.L.L.L.L.L.L.L.L.L.L.L.L.L.U.U.L.L.U.U.U.U.U.U.U.U.U.L.L.L.L.L.L.L.L.L.L.U.L.L.U.U.U.].].P.K.].P.K.K.K.K.F.I.I.I.I.I.I.I.I.I.H.H.H.I.'.).H.I.I.I.I.I.H.F.F.F.F.F./.^.H.^.^._.{.N.~.VXNXdXdXdXdXdXdXdXdXdXsXsXsXsXpXNXJXSXh = > 6 4 4 3 4 3 6 6 6 6 6 6 6 6 6 6 6 6 4 4 3 3 4 7 s l c c x x l l l l l x x x x x x x x x x x x x x x x x x x x l l x x x x x c c n n n n m m m m m m m m m m m m m m m m m m m m m m m m m m m m m m m m m m m m m m m m m m m m m m m m m m m n n c c c x x x x x x l l x x x x x x l l l l l l l l l l l l l l l l l l l l l l l l x l s 8 2 < 3 3 6 6 3 3 3 6 3 6 3 3 3 3 3 3 < 3 3 3 3 3 3 3 2 2 2 2 < 2 2 * ; -XKXKXKXJXJXKXJXKXKXJXKXKXKXKXKXKXKXKXDXC.A.}.{.{.{.{.{.{.{.{.{.{.{.{.{.{.{.{.{.{.{.{.{.{.(.(.(.(.(.(.(.(.(.(.(.(.(.(.(.(.(.(.(.(.G.(.(.(.^.G.G.G.G.G.G.G.G.G.G.^.^.).).).).H.).F.H.H.H.H.H.H.F.H.I.I.I.I.P.P.P.U.U.Y.Y.Y.Y.U.U.U.U.U.Y.Y.L.L.L.L.L.L.U.U.U.U.U.U.L.L.L.L.U.L.L.U.U.U.U.U.U.L.U.U.U.U.U.U.L.U.        ",
"          U.U.U.L.L.U.U.U.U.L.L.L.U.L.U.U.U.U.U.U.U.U.L.U.U.U.U.U.L.L.L.L.U.U.U.L.L.L.L.L.L.L.L.L.L.L.L.L.L.L.L.L.U.U.U.L.L.U.U.U.U.U.U.U.U.U.L.L.L.L.L.L.L.L.L.U.U.K.K.U.].].].U.P.P.K.K.K.K.K.K.I.I.I.I.I.I.I.I.I.I.I.H.I.I.I.I.I.I.I.I.H.H.H.F.).)./.F.^.^.F.^._.E.Z.jXCXNXdXdXdXsXdXdXdXdXdXdXdXsXpXsXFXJX*X- = 3 7 4 6 6 6 6 6 6 6 6 6 6 6 6 6 6 6 6 6 3 2 2 8 s l c x l l x x x x x x x x x x x l x x x x x x x x x x x x x x x x c c c c n n n n m m m m m m m m m m m m m m m m m m m m m m m m m m m m m m m m m m m m N m m m m m m m m m m m m m m m m N N N m m m m n n c x x x x x x x l l l x x l l l l l l l l l l l l l l l l l l l l l l l l l x x a r < < 4 6 6 3 3 3 3 6 6 3 6 6 3 3 3 3 < 3 3 3 3 3 2 3 2 2 < < < 3 - * f SXKXKXJXKXKXJXJXKXKXKXKXKXKXKXKXJXKXJX~.A.R.}.{.{.{.{.{.{.{.{.{.{.{.{.(.(.{.{.{.{.{.{.{.(.(.(.(.(.(.(.(.(.(.G.(.(.(.(.(.(.(.(.(.G.G.(.(.G.G.G.G.G.G.G.G.G.G.G.^.^.^.^.).).F.).H.F.H.H.H.H.H.F.I.I.I.P.P.P.P.U.U.U.U.Y.U.U.L.L.L.U.Y.L.L.L.L.L.L.U.U.U.U.U.U.U.U.U.U.L.L.U.U.U.U.U.L.U.U.U.U.U.U.U.U.L.L.U.        ",
"          U.U.U.L.L.U.U.U.U.L.L.U.U.U.U.U.U.U.U.U.U.U.L.L.L.L.L.L.L.L.L.L.U.U.U.L.L.L.L.L.L.L.L.L.L.L.L.L.L.L.L.L.U.U.U.L.L.U.U.U.U.U.U.U.L.U.L.L.L.L.L.L.L.L.L.U.U.U.U.U.].].].P.P.P.K.K.P.K.K.I.I.I.I.I.I.I.I.I.I.I.H.H.H.I.I.I.I.I.I.I.H.H.H.F.)././.F.F.^.^.}.E.!.mXCXdXsXdXdXdXdXdXdXdXdXdXsXsXsXNXJXSXh = : 7 6 4 4 6 6 6 6 6 6 6 6 6 6 6 6 6 6 6 3 2 4 t a l x x l l x x x x x x x x x x x x x x x x x x x x x x x x x c c c n n m m n n m m n m m m m m m m m m m m m m m m m m m m m m m m m m m m m m m m m N m N N m N N m m m m m m m m m m m m m m N N N N N N m m m m m n n n c x x x x x x l l l l l l l l l l l l l l l l l l l l l l l l l l l k l x x z r 2 < 2 6 6 3 6 6 6 6 6 6 3 3 6 3 3 3 3 3 3 3 3 3 3 3 < < 2 2 < 2 * - -XKXKXJXJXKXJXKXKXKXKXKXKXKXKXKXJXKXKXnXN.E.}.{.(.R.R.R.R.{.{.{.{.R.G.(.{.{.{.{.{.{.{.(.G.(.(.(.(.(.{.(.(.(.(.(.(.(.(.(.(.(.(.(.G.G.G.G.G.G.G.G.G.G.G.).G.G.G.^.G.G.).).F.).H.H.H.H.H.H.H.).H.I.P.P.P.P.P.P.U.U.U.U.Y.U.L.L.U.L.L.L.L.L.L.Y.Y.L.L.L.U.U.U.L.Y.Y.U.Y.L.L.U.U.L.L.U.U.L.U.U.U.U.L.U.U.U.U.        ",
"          U.L.U.U.U.U.L.L.U.U.U.U.U.U.U.U.U.U.U.U.U.U.U.L.L.L.L.L.U.L.L.L.U.U.U.L.L.L.L.L.L.L.L.L.L.L.L.L.L.L.L.L.Y.U.U.L.L.U.U.U.U.L.U.L.L.L.L.L.L.U.U.L.L.P.L.U.U.U.U.U.U.P.P.U.P.I.P.P.K.K.I.I.I.I.I.I.I.I.I.I.I.I.H.H.H.H.H.I.I.I.H.H.H.H.H.F.)././.F.J.^.{.W.!.SXNXsXNXdXdXdXdXdXdXdXdXdXsXpXsXZXJX*X- = 4 6 3 4 6 6 6 6 6 6 6 6 6 6 6 6 6 6 6 2 2 4 i z c c x l x x x x x x x x x x x x x x x x x x x x x x x x c c c n n m m m m m m m m m m m m m m m m m m m m m m m m m m m m m m m m m m m N m m m m m N m N m m m N N m m m m m N N N m m N m m m m N N N N m m m m m m m m m m m m n n n c x x x l l l l l l l l l l l l l l l l l l l l l l l l l k l l l x x k r 2 < < 6 6 6 6 6 6 6 6 6 6 6 3 3 3 3 3 3 3 3 3 3 3 3 < 3 2 3 4 - * h AXKXKXKXJXKXJXKXKXKXKXKXJXKXJXKXKXKXIX!.S.}.{.{.R.R.R.{.{.{.{.R.G.G.R.G.G.{.{.(.(.(.(.(.(.(.(.{.(.(.(.(.(.(.(.(.(.(.(.(.(.(.G.G.G.G.G.G.G.G.G.G.G.H.G.G.G.).).G.^.^.).).F.).H.H.H.H.F.H.I.I.P.I.I.P.P.P.P.U.U.P.U.Y.U.U.U.L.U.L.L.L.Y.Y.Y.L.L.L.L.U.U.U.U.U.L.L.U.U.U.L.U.U.U.L.U.U.U.U.U.U.U.U.U.U.        ",
"          L.L.Y.U.U.U.U.U.U.U.U.L.U.U.L.U.U.U.U.U.U.U.U.L.L.L.L.L.L.L.L.L.L.U.U.Y.L.L.L.L.L.L.L.L.L.L.L.L.L.L.L.L.L.U.U.U.L.L.U.U.U.U.L.L.L.L.U.L.L.L.L.L.L.U.U.U.U.U.U.U.U.U.U.P.K.K.P.].K.I.I.I.I.I.I.I.I.I.I.I.I.I.H.H.I.H.I.I.I.H.H.H.H.H.F.F.F./.^.F.^.}.A.~.AXNXdXdXdXdXdXdXdXdXdXdXsXdXdXNXGXAXh * - 6 3 6 6 6 6 6 6 6 6 6 6 6 6 6 4 6 6 2 < 3 i z c c x l l x x x x x x x x x x x x x x x x x x x c c c c c n n m m m m m m m m m m m m m m m m m m m m m m m m m m m m m m m m m m m m m m m m m m m m m N N m N N N N N m m m m m N N N N m N m m m m N N N N m m m m m m m m m m m N N m m m n n c x x l l l l x l l l l l l l l x l l l l l l l l l l l l l l l x x z r < < < 6 6 3 6 6 6 6 6 6 6 6 6 3 3 3 3 3 3 3 3 3 < 3 3 2 2 2 2 * ; wXKXKXJXJXJXJXJXKXKXKXJXJXJXKXKXKXKXPXC.S.}.{.{.{.{.R.{.{.{.G.G.G.R.G.(.(.(.G.G.G.(.(.(.(.(.(.(.(.(.(.(.(.G.G.(.(.(.(.(.(.(.(.G.G.G.G.G.G.G.G.G.F.F.G.G.G.).).G.^.^.).F.H.H.H.).F.H.F.I.I.I.I.P.P.P.P.P.U.U.U.P.U.U.U.L.K.U.U.L.Y.Y.Y.Y.Y.U.U.L.L.L.L.L.U.U.U.U.L.L.L.L.U.U.U.U.U.U.U.U.U.U.U.U.U.        ",
"          U.U.L.U.U.U.L.L.U.U.U.U.U.U.U.U.U.U.U.U.U.Y.U.U.U.L.U.Y.L.L.L.L.L.L.U.U.U.L.L.L.L.L.L.L.L.L.L.L.L.L.Y.L.L.U.L.U.U.L.U.U.L.L.L.L.L.U.L.L.L.L.L.L.L.U.U.U.U.U.U.U.U.].P.[.K.P.P.`.I.I.H.I.I.I.I.I.I.I.I.I.I.I.H.H.I.I.I.I.H.H.H.F.H.H.F./.G.F.F.(.(.A.@XBXdXdXdXdXdXdXdXdXdXdXdXdXsXpXBXKXuX1 * 4 6 3 6 6 6 3 6 6 6 6 6 6 6 6 6 6 6 2 2 7 s x n c x x x x x x x x x x x x x x x x x x x x x x c c c n n n m m m m m m m m m m m m m m m m m m m m m m m m m m m m m m m m m m m m m m m m m m m m m N N N m m m N N N N m m m m m m N m m m m m m m m N N N m m m m m m m m m m m m m N m m m m N m m n c c x x l l l l x x x x x x x x x l l l l l l l l l l l l l l l x x k r < < 6 6 6 6 6 6 6 6 6 6 6 3 3 3 3 3 < < < < < 3 3 3 3 2 2 3 = * ] KXKXJXKXKXJXKXKXKXKXKXKXKXKXKXKXKXKX~.A.}.}.{.}.{.R.{.{.R.R.R.R.(.{.{.(.G.R.G.G.G.(.(.(.(.(.(.(.(.(.(.G.(.(.(.(.(.(.(.(.(.(.(.G.G.G.G.G.G.G.G.F.G.G.G.G.).).^.^.^.^.).H.H.).H.H.H.H.I.K.K.I.I.I.P.P.K.U.U.U.U.U.U.L.U.U.Y.Y.Y.Y.Y.Y.Y.Y.Y.L.L.L.L.K.U.Y.Y.L.L.L.L.L.L.U.L.L.Y.U.U.U.U.U.U.U.U.        ",
"          U.U.L.L.U.U.L.L.U.U.L.U.U.U.U.U.U.U.U.U.U.U.U.U.U.L.L.Y.L.L.L.U.L.L.U.L.U.L.L.L.L.L.L.L.L.L.L.L.L.Y.U.L.L.Y.L.U.U.U.L.U.L.L.L.L.L.L.L.L.L.L.L.L.U.U.U.U.U.U.U.U.U.U.P.].P.P.P.K.I.H.I.I.I.I.H.H.H.I.I.I.I.I.I.H.I.I.H.H.H.H.H.F.F.F.F.F./.^.(.R.N.nXBXdXdXdXdXdXdXdXdXdXsXsXsXsXsXCXFX] = > 7 3 6 6 6 6 6 6 6 6 6 6 6 6 6 6 7 3 2 7 s c n c x x x x x x x x x x x x x x x x x x x x x c c n n n n m m m m m m m m m m m m m m m m m m m m m m m m m m m m m m m m m m m m m m m m m m m m m m m m N N m m m m m N N N m m m m m m N N m m m m m m m N N N m m m m m m m m m m m m m m N m m m N N m m m m m n c x x l l l l x l x x l x x x x l l l l l l l l l l l l l l x x k 8 < < 6 6 6 6 6 6 6 6 6 6 3 3 3 3 3 3 < < < < 3 3 3 2 2 2 3 2 * f MXKXKXJXJXKXKXKXKXKXKXKXKXKXKXKXKXJX@XA.}.}.{.{.R.R.{.{.R.R.R.(.G.{.{.(.G.{.{.(.G.(.(.(.(.(.(.(.(.(.(.(.(.(.(.(.(.(.(.(.(.(.(.G.G.G.G.G.G.G.G.G.G.G.G.G.).).G.G.).^.).F.H.H.H.H.H.I.I.I.I.I.I.I.P.K.P.U.U.P.P.U.L.U.U.Y.Y.Y.Y.Y.Y.Y.Y.Y.L.K.L.L.L.U.U.U.L.L.U.U.U.U.U.U.Y.Y.U.U.U.U.U.U.U.U.        ",
"          U.U.U.L.U.U.U.U.U.U.U.U.U.U.U.U.U.U.U.U.U.U.L.U.L.L.L.L.L.L.U.L.L.L.U.U.U.L.L.L.L.L.L.L.L.L.L.L.L.L.U.L.L.U.U.U.U.U.L.Y.L.L.L.L.L.L.L.L.L.L.L.U.U.U.U.U.U.].].U.].].].].K.K.].K.H.I.I.I.I.I.I.I.I.I.I.I.I.I.I.I.I.H.H.).H.H.F./.F././.G.^.^.E.B.IXNXdXdXdXdXdXdXdXdXdXsXsXsXsXsXFXCXf * : 7 6 3 6 6 6 6 6 6 6 6 6 6 6 6 7 3 2 4 u x n c x x x x x x x x x x x x x c c x x x x x c c c n n n m m n m m m m m m m m m m m m m m m m m m m m m m m m m m m m m m m m m m m m m m m m N N N m m m m m m m m m m m m m N N m m m m N N N N N N m m m N m m N N N m m m m m m m m m m m N N m m m m m m m m m m m m m m n c x l x x x x x x x x x x x l l l l l l l l l l l l l k l x x s 7 < 3 6 6 6 6 6 6 3 3 3 3 3 3 3 3 3 < 3 3 3 3 3 3 2 2 2 4 3 = ; *XKXKXJXJXJXKXKXKXKXKXKXKXJXKXKXKXKXnXB.E.}.{.{.{.R.{.{.{.{.{.G.G.{.(.(.{.{.{.G.G.G.(.(.(.(.(.(.(.(.(.(.(.(.(.(.(.(.(.(.G.G.G.G.G.G.).G.G.G.G.G.G.G.^.^.).).G.G.).).F.F.).H.).).I.I.I.I.I.I.I.P.K.P.P.U.U.P.P.U.L.Y.Y.Y.Y.Y.L.L.L.L.L.K.L.U.L.L.L.L.L.U.U.L.L.U.L.U.U.Y.Y.U.U.U.U.U.U.U.U.        ",
"          U.U.U.U.L.U.U.U.U.U.U.U.U.L.L.U.U.U.U.L.U.U.U.L.L.L.L.L.L.L.L.L.U.U.U.L.Y.L.L.L.L.L.L.L.L.L.L.L.L.L.L.L.L.U.L.U.U.U.L.L.L.L.L.U.L.L.L.L.U.U.U.U.U.U.U.].].].].P.].].].P.K.K.K.I.H.I.I.I.I.I.I.I.I.I.I.I.I.I.I.I.H.F.F.H.H.F././././.^.^._.W.!.SXBXdXdXdXdXdXdXdXsXsXdXdXdXsXdXGXeX1 * 4 6 3 3 6 6 6 6 6 6 6 6 6 6 6 7 6 2 4 i l c x l x x x x x x x x x x x x c x c c x c c c n n n m m m m m m m m m m m m m m m m m m m m m m m m m m m m m m N m m m m m m m m m m m m m m m N N N N m m m m m m m m m m m m m m m m m m m N N N N N N N N m m m m N N N m m m m m m m m m m N N m m m m m m m m m m m N N m N N m m c c x x x x x x x x x x x l l l l l l l l l l l l l l l l c x s 3 < 3 6 6 6 6 6 6 6 6 6 3 3 3 3 3 3 3 3 3 3 3 3 2 2 2 3 3 - * h KXKXKXKXKXKXJXKXKXKXKXJXJXJXKXJXKXIXB.E.}.{.R.R.R.{.{.{.{.{.{.(.(.{.(.{.{.{.R.G.(.(.(.(.(.(.(.(.(.(.(.(.(.(.(.(.(.(.(.G.G.G.G.G.G.G.G.G.G.G.F.G.^.^.).).).).G.G.F.F.).).F.H.I.H.I.I.I.I.I.I.K.P.P.U.P.P.P.U.U.Y.Y.Y.Y.Y.L.L.L.L.Y.L.L.L.L.L.L.K.L.U.L.L.L.L.L.L.L.Y.Y.U.U.U.L.U.U.U.U.        ",
"          U.U.U.U.L.U.U.U.U.U.U.U.U.U.U.U.U.U.U.L.U.U.L.L.L.L.L.L.L.L.L.U.U.U.Y.U.U.U.L.L.L.L.L.L.L.L.L.L.L.Y.U.L.L.L.U.U.U.L.U.L.L.L.U.L.L.L.L.L.U.U.U.U.U.U.U.U.U.U.].U.P.I.[.K.K.K.K.I.I.I.I.I.I.I.I.I.I.I.I.I.I.I.H.I.H.H.H.F.F././././.F.^._.W.!.SXNXdXdXsXsXsXsXdXdXsXsXsXsXsXBXJX' = = 6 6 6 6 3 6 6 6 6 6 6 6 6 6 6 6 4 3 r l n c x x x x x x x x x x x x x x c c c c c c n n n m m m m m m m m m m m m m m m m m m m m m m m m m m m m m m m m m m m m m m m m m m m m m m m m m m m m N m m m m m m m m m m m m m m m m m m m m m N m N N m m N N N N m N m N m m m m m m m m m m m m m m m m m m m m N m N N m m N N N N m n c c x x x x x x x l l l l x x l l l l l l l l l l l l l c k r < < 6 6 3 3 6 6 3 6 6 3 6 3 3 3 < 3 < < 3 3 2 3 2 4 4 2 : * f HXKXKXJXKXJXJXKXKXKXKXJXJXKXKXJXKXIXB.E.}.R.{.(.{.{.{.(.{.{.{.{.{.{.{.{.{.(.G.(.(.(.(.(.{.{.(.(.(.(.(.(.(.(.(.(.(.(.(.(.(.G.G.G.(.G.G.G.G.^.G.G.G.^.^.).).).^.^.F.H.H.H.F.H.F.I.I.K.I.I.I.P.P.P.P.U.U.P.P.U.U.Y.Y.Y.Y.Y.L.L.Y.Y.L.L.L.L.L.L.L.L.U.L.L.L.L.L.L.L.L.Y.U.U.U.U.U.U.U.U.        ",
"          U.L.U.U.L.L.U.U.L.U.U.L.U.U.L.U.U.U.U.U.U.L.L.L.Y.Y.L.L.L.L.U.U.L.L.L.L.L.L.L.L.L.L.L.L.L.L.L.L.L.U.U.U.U.L.U.U.L.L.U.L.L.L.U.L.L.L.L.L.U.].Y.U.U.U.U.U.U.U.U.P.'.`.`.K.K.K.I.I.I.I.I.I.I.I.I.I.I.I.I.I.I.I.H.H.H.H.H.F././././.^.^._.S.C.SXNXsXsXdXdXsXsXsXsXsXsXsXsXsXZXZX] * : 7 6 6 6 6 6 6 6 6 6 6 6 6 7 6 4 3 8 k c c x x x x x x x x x x c c c c x c c c c n n n m m m m m m m m m m m m m m m m m m m m m m m m m m m m m m m m m m m m m m m m m m m m m m m m m m m m m m m N m m m m m m m m m m m m m m m N N N N m N N N N N m m N N N N N N N N m m m m m m m m m m m m m m m m m m m m N N N N m m N N N m N N m m n c x x x x x x x x l x x l l l l l l l l l l l l l l x x z 7 - < 6 6 6 3 3 3 6 6 6 6 6 3 3 3 3 3 < 3 3 3 2 2 2 2 4 2 * ; tXKXKXJXKXKXKXKXKXJXKXKXKXKXKXKXKXDX!.E.{.R.R.R.{.{.(.{.{.{.(.{.{.{.{.(.(.{.(.(.(.(.(.{.{.(.{.(.(.(.(.(.(.(.(.(.(.(.(.G.G.G.G.(.(.^.G.G.G.G.G.G.).^.^.).).).^.).F.H.H.F.F.H.I.I.I.K.I.I.I.P.U.P.K.U.P.P.U.U.Y.P.Y.Y.Y.L.L.Y.Y.L.L.L.L.L.L.L.L.Y.U.L.L.L.U.U.U.Y.Y.L.U.U.U.L.L.U.U.        ",
"          L.L.U.L.Y.U.U.U.L.U.U.L.U.U.L.U.U.U.U.U.U.L.L.U.U.U.Y.L.Y.L.U.U.L.L.L.L.L.L.L.L.L.L.L.L.L.L.L.L.L.L.L.U.U.L.U.U.U.U.U.U.U.U.L.L.L.L.U.U.U.].].U.U.U.U.U.U.U.U.K.`.`.`.K.K.K.I.I.I.I.I.I.I.I.I.I.I.I.I.I.I.I.I.H.F.F././././.).F.^._.A.~.BXNXdXsXsXsXsXsXsXsXsXsXsXsXsXGXfXf * 4 7 6 6 6 6 6 6 6 6 6 6 6 6 6 4 2 8 a x c x x x x x x x x x x x x x x c c c c n n n n m m m m m m m m m m m m m m m m m m m m m m m m m m m m m m m N N N m m m m m m N N N m m m m m N m N N N m m m m N N m m m m N N m m N N N N m N N N N N N N m N N N N m N N N N N N N N N N m m m m m m m m m m m m m m m m m m m N N N N m N N N N N N N N N m n n x x x x x x l l x l x x l l l l l l l l l l l l l x x s 3 < 3 6 3 6 3 6 6 3 6 3 3 3 3 3 3 3 3 3 3 3 3 2 2 2 2 4 = * -XKXKXKXKXKXKXJXKXKXKXKXKXJXKXJXKXPX!.S.}.{.R.{.{.{.{.{.{.(.{.{.{.{.{.{.{.{.(.(.(.(.(.(.(.(.(.(.(.(.(.(.(.(.(.(.G.(.G.G.G.G.G.G.(.^.G.G.G.H.G.G.^.G.^.).).).).).).F.H.H.H.I.H.H.I.I.I.I.I.P.P.K.K.P.P.K.Y.Y.P.P.Y.Y.L.L.Y.Y.L.L.L.L.L.L.L.L.U.L.L.L.L.U.U.U.U.U.L.Y.U.U.L.L.U.U.        ",
"          L.U.U.Y.Y.U.U.U.U.U.U.U.U.U.U.U.U.U.U.U.L.L.L.L.L.U.U.U.L.Y.Y.Y.L.L.U.Y.L.L.L.L.L.L.L.L.L.L.L.Y.U.L.L.L.Y.U.L.U.U.U.U.U.U.U.L.U.L.Y.U.U.U.].].].U.U.U.U.U.U.P.].'.'.K.K.K.I.I.I.I.I.I.I.I.I.I.I.I.'.I.I.I.H.H.F.F.F./././.).^.^.}.A.~.BXdXsXsXsXsXsXsXsXsXsXsXsXsXNXJXeX< = 6 6 6 4 6 6 6 6 6 6 6 6 6 7 3 : 3 z n c x x x x x x x x x x x c x x c c c n n n m m m m m m m m m m m m m m m m m m m m m m m m m m m m m m m m m m N N N N m m m m m m m m m m m m m N N N N N N N N m m N N N N N N m N m m N N N N N N N N N N m m N N m N m m N N N N N N N N N N N N N N N N N m m m m m m m m m m m m N N N N N N N N N N N N N N N N m m n c x l x x x x x x x x l l l l l l l l l l l l l l c z 8 < 2 6 6 6 6 6 6 6 6 6 6 3 < 3 3 3 3 3 3 3 3 3 3 3 2 3 : * ] KXKXKXKXKXKXKXKXKXKXKXJXJXKXKXKXPX!.E.}.R.{.{.{.{.{.{.(.(.{.{.{.{.(.{.{.{.(.(.(.(.(.(.(.(.{.(.(.(.(.(.(.(.(.G.(.(.G.G.G.G.G.G.).^.G.G.G.G.G.^.^.^.^.).).F.F.).).F.F.H.H.H.H.H.I.I.I.I.I.P.K.K.P.P.P.Y.U.P.P.L.Y.L.L.Y.Y.L.Y.Y.Y.L.L.L.L.L.L.U.L.U.L.U.U.U.U.U.U.U.U.U.U.U.U.        ",
"          L.U.U.Y.L.L.U.U.Y.U.U.U.U.U.U.U.U.U.U.U.L.L.L.L.Y.U.U.U.L.L.Y.U.L.L.L.Y.Y.L.L.L.L.L.L.L.L.L.L.Y.U.L.L.L.L.U.L.L.U.U.U.U.L.L.L.U.U.U.U.U.U.].].].U.U.U.U.P.P.].].[.K.I.K.K.I.I.I.I.I.I.I.I.I.I.I.I.I.I.I.I.I.H.F.F./.^.F.H.^.^._.A.~.NXdXsXsXsXsXsXsXsXsXsXsXpXsXCXJX*X= > 7 6 6 6 6 6 6 6 6 6 6 6 7 6 < < r c n x x x x x x x x x x x x x c c c n n n n m m m m m m m m m m m m m m m m m m m m m m m m m m m m m m m m m m m m m m m m m m m m m m m m m m m m m m N N m m N m N N N N N N N m m N m m m m m N m m m N N N N m m N N m N m m m m m N N N N N m m m m m m m m N N m m m m m m m m m m m N N N N N N N N N N N N m m m m m N N m n c x l x x x x l l l l l l l l l l l l l l l l l x x s 3 < 3 6 6 6 6 6 6 6 6 3 < 3 3 3 3 3 3 3 3 3 3 2 4 3 3 2 * h HXKXKXKXJXJXKXJXKXKXKXKXKXKXKXKXPXC.W.}.R.(.R.{.{.{.(.{.{.{.{.{.{.{.(.{.{.(.(.(.(.(.(.{.{.(.(.(.(.(.(.(.(.(.(.(.G.G.G.G.G.G.G.G.G.G.).G.G.^.^.^.^.^.).).F.).).H.F.H.H.H.H.H.H.I.I.I.I.P.P.I.P.P.P.U.P.P.U.L.Y.Y.Y.U.Y.Y.Y.U.U.L.L.U.L.L.L.L.L.Y.L.U.U.U.U.U.L.L.U.U.Y.U.L.        ",
"          U.L.L.U.U.L.L.U.Y.U.U.U.U.U.U.U.U.U.U.U.U.U.L.U.U.U.L.U.L.L.L.L.L.L.L.L.L.L.L.L.L.L.L.L.L.L.L.L.U.U.L.L.L.L.L.L.L.U.U.K.P.U.U.U.U.U.U.U.U.].].].U.U.U.U.].P.P.[.K.K.K.K.I.I.I.I.I.I.I.I.I.I.I.'.'.I.I.I.H.H.I.I././.^.F.F.^.{.A.~.dXdXsXsXsXsXsXsXpXsXsXsXsXsXCXJX] * : 8 6 6 6 6 6 6 6 6 6 6 6 7 4 < 9 z n c x x x x x x x x x x c c x c c n m m m m m m m m m m m m m m m m m m m m m m m m m m m m m m m m m m m m m m m m m m m m m m m m m m m m m m m m m N m N N N N N m N N N m N N N N m N m N m N N m m N m N N N N m N m N N N m m m N N N N N N N N N m m m N N N N N m m m m m m m m m m m m N N N N N N N N N N N N N m N m m m N N N m c x l x x l x x l l l l l l l l l l l l l l l l x k r < < 6 6 3 6 6 6 3 3 6 6 6 3 3 6 3 3 3 2 2 2 2 3 2 4 2 * 1 SXKXKXKXJXKXKXKXKXKXKXKXKXJXJXKXPX!.S.}.{.R.{.{.{.{.{.{.{.{.{.{.{.{.{.{.(.(.(.(.(.(.(.(.(.(.(.(.(.(.(.(.(.(.(.G.G.G.G.G.G.G.G.(.).^.^.G.G.^.^.G.^.^.).).).^.).H.H.H.H.H.H.H.I.I.I.I.I.I.P.K.K.P.U.K.P.Y.Y.Y.Y.Y.Y.Y.Y.Y.L.L.L.L.L.L.L.L.L.L.Y.Y.L.L.L.U.U.L.L.U.U.U.U.L.        ",
"          Y.L.U.U.U.U.L.U.U.U.U.U.U.U.U.U.U.U.L.U.U.U.U.U.U.U.U.U.L.L.L.L.L.L.L.L.L.L.L.L.L.L.L.L.L.L.L.L.U.U.L.L.U.L.L.U.L.L.L.U.U.U.U.L.U.U.U.].U.].].U.U.U.U.P.P.P.P.].K.K.K.I.I.I.I.I.I.I.I.I.I.'.I.'.'.I.I.H.H.H.H.F././.F.F.^.{.A.~.NXdXsXpXsXsXsXpXpXpXpXpXpXpXFXGX_ * 4 7 7 6 6 6 6 6 6 6 6 6 6 3 < 6 z n c x x x x x x x x x x c c c c c n n m m m m m m m m m m m m m m m m m m m m m m m m m m m m m m m m m m m m m m m m N N N m m m m m m m m m m m m m m m m N m m m m N m N N N m m m N N N N m N N N N N m N N N N m N m m m N N N N N m N N N N N N N N N m m N N N N N N N N m m m m m m m m m m N N N N N N N N N N N N N N N N m m N N N B N m c x l x x x x l l l l l l l l l l l l l l l l x x s < < 3 6 6 6 6 6 6 6 6 6 3 3 3 3 3 3 3 3 2 3 2 2 2 2 3 = ; tXKXKXJXKXKXKXKXKXKXKXKXKXJXJXKXPXC.S.}.{.{.R.{.{.{.{.{.{.(.{.{.{.{.{.{.(.(.(.(.(.(.(.(.(.(.(.(.G.G.(.(.(.(.G.G.G.G.G.G.(.G.G.G.G.G.G.G.G.G.^.^.^.^.).).).).H.F.H.H.H.H.H.I.I.I.I.I.I.K.K.P.P.U.L.P.P.P.Y.Y.Y.Y.Y.Y.U.L.L.L.L.U.Y.L.L.L.U.Y.Y.U.L.L.U.U.U.U.U.U.L.L.U.        ",
"          L.L.U.U.U.U.L.Y.U.U.U.U.U.U.U.L.U.U.U.L.L.U.U.L.U.U.U.U.U.U.U.L.L.L.L.L.L.L.L.L.L.L.L.L.L.L.L.L.U.U.L.L.L.L.L.L.L.L.L.U.U.U.L.L.P.].U.U.U.].].U.U.U.].'.K.].].K.I.I.I.I.I.I.I.I.I.I.I.I.I.I.I.I.I.I.H.H.H.H.F.F.F.F.F.^.|.A.~.NXsXsXsXsXpXpXpXpXpXpXpXpXpXFXFXf = 4 w 6 6 6 7 6 7 7 6 6 7 7 4 2 r c n x x x x x x x x x x x x c c n n m m m m m m m m m m m m m m m m m m m m m m m m m m m m m m m m m m m m m m m m m N N N N N N m m m m m m m m m m m m m m N N m m m m m N N N N m m N N N m N N N N N N N m m N N N N N m m N N N N N N N N N N N N N N N N N N N N N N N N m N m m m m m m m m m m N N N N N N N N N N N N N N N m m N N N B N N B N n c x l l l l l l l l l l l l l l l l l l k l l x z 9 < < 6 6 3 3 6 3 6 6 3 6 3 6 3 3 3 3 3 3 3 3 3 3 4 3 = ; wXKXJXJXKXJXKXKXKXKXKXKXKXJXJXKXLXC.S.}.{.R.{.{.{.{.{.{.{.{.{.{.{.{.{.{.(.(.(.(.(.(.(.(.(.(.G.(.G.G.(.(.(.G.G.(.(.(.G.(.G.G.G.G.G.G.).G.G.^.^.G.^.^.).).).).F.F.H.H.H.H.I.I.I.I.I.K.K.K.P.P.K.K.K.K.P.P.Y.Y.Y.Y.U.U.L.L.L.L.L.L.L.L.L.U.U.Y.U.L.L.L.L.U.U.U.U.U.L.U.        ",
"          L.L.L.L.L.U.U.Y.U.U.U.U.L.L.U.U.U.U.Y.Y.U.Y.U.U.U.U.L.L.U.L.L.L.L.L.L.L.L.L.L.L.L.L.L.L.L.U.L.L.U.L.L.L.L.U.L.L.U.U.U.U.U.U.L.K.P.].].U.P.P.P.U.].].].K.K.`.`.I.I.'.I.I.I.I.I.I.I.I.I.I.I.I.I.I.I.I.H.F.H.H.H.F.F.F.^._.A.~.NXdXsXsXpXsXsXpXpXpXpXpXpXsXGXAXe , 7 7 6 6 6 6 6 7 7 7 6 7 6 2 6 z n x x x x x x x x x x x c c n n n m m m m m m m m m m m m m m m m m m m m m m m m m m m m m m m m m m m m m m m m m m m m m m N N N N m m m m m m m m m m m m m N m m m m N N N m m m m m N N N N N m m N N N m N m m m m m m N m m m N N N N N N N N N N N N N N N N N N N N N m m m m m m m m m m m m m N N N N N N m N N N N N N N N N m N N N N B N m N B N m c x l l l x l l l l l l l l l l l l l l l l x x s < - 3 6 3 3 6 6 6 6 6 3 6 6 6 3 3 3 3 3 3 3 3 2 2 3 - * *XKXKXJXKXJXKXKXKXKXJXKXKXJXJXKXPX!.W.}.{.R.{.{.{.(.{.{.{.{.{.{.{.(.{.(.(.(.(.(.(.(.(.(.(.(.(.(.G.G.(.(.G.G.(.(.(.G.G.G.G.^.G.G.G.).G.G.G.).).G.^.).).).)./.F.H.H.H.H.H.H.I.I.I.K.I.P.P.U.K.K.K.K.K.P.P.Y.Y.Y.Y.Y.U.L.L.L.L.L.U.U.U.U.L.Y.L.L.L.U.U.U.U.U.U.U.U.L.        ",
"          L.L.U.U.L.U.U.L.L.U.U.Y.L.Y.L.U.U.U.L.U.Y.U.U.L.U.L.U.U.L.L.L.L.L.L.L.L.L.L.L.L.L.L.L.L.L.L.L.L.L.L.L.L.U.U.L.L.U.U.U.U.U.U.L.K.].].].P.P.].P.].].].].P.`.K.K.I.I.I.I.I.I.I.I.I.I.I.I.I.I.I.I.I.I.I.H.H.H.F.F.F.F.^.|.A.~.BXsXpXsXsXpXpXpXpXpXpXsXpXpXGXVX1 = w 7 6 6 7 7 7 6 6 7 7 7 3 3 r x n x x x x x x x x x x c c n n n m m m m m m m m m m m m m m m m m m m m m m m m m m m m m m m m m m m m m m m m m m m m m m m m m m m N m m m m m m m m m m m m m N N N N m N N m m m m m m m N N N N N m N m N m m m m m m m m N m m m m N N N N N N N N N N N N N N N N N N N N m m m m m m m m m m m m m m N N N N N N N N N N N N N N N N N N N N N N m m N N N m n x l l l x x l l l l l l l l l l l l l l l l x k 6 - 2 3 6 6 6 6 6 6 6 6 3 3 6 3 3 3 3 3 3 3 3 2 2 4 : = ] KXKXJXJXJXKXKXKXKXKXKXKXKXKXKXPX!.W.}.{.{.R.R.{.{.{.{.{.{.{.{.(.{.{.(.(.(.(.(.(.(.(.(.(.G.(.G.G.(.G.G.(.(.(.G.G.G.(.(.G.G.G.G.G.G.G.G.).G.G.(.^.).).).).F.H.).H.H.H.F.I.I.I.K.I.P.P.[.P.P.P.K.K.Y.Y.Y.Y.Y.Y.Y.U.U.L.U.Y.L.L.L.Y.U.L.L.L.Y.L.U.Y.U.U.L.L.L.U.U.        ",
"          L.L.Y.Y.U.U.Y.L.L.U.U.U.U.U.L.L.U.U.U.L.L.U.U.U.U.L.U.U.L.L.L.L.L.L.L.L.L.L.L.L.L.L.L.L.L.L.L.L.L.L.U.L.U.L.L.L.L.U.U.U.U.U.L.U.U.U.U.U.P.].].].].K.].'.'.I.I.I.I.I.I.I.H.I.I.I.I.I.I.I.I.I.H.H.I.I.F.H.F.F.F.F.G._.A.#XBXdXpXpXsXpXpXpXpXiXiXpXpXpXGXgX< = 0 7 6 6 7 7 7 7 7 7 7 9 2 7 z n c x x x x x c c x x c c n n n m m m m m m m m m m m n m m m m m m m m m m m m m m m m m m m m m m m m m m m m m m m m m m m m m m m m m m N m m m m m m m m m m m m N m m N N m m m m m m m m m m m m m m m m N N m m m m m m N m N N m m m m N N N N N N N N N N N N N N N N N N N m m m m m m m m m m m m m m m m N N N N N N N N N N N N N N N N N N N m N N N m m N N m n c l l x x x x x l l l l l l l l l l l l l x x r - < 3 6 6 6 6 6 6 6 3 3 3 3 3 3 3 3 3 3 3 3 3 3 3 2 * ] KXKXJXKXJXJXKXJXKXKXKXKXJXKXKXPX!.E.}.{.{.R.R.{.{.{.{.(.{.{.(.(.G.{.{.(.(.(.(.(.(.(.(.(.G.G.G.G.G.(.(.(.(.(.(.G.(.).G.G.G.G.G.G.).G.G.G.G.(.^.^.).).).F.H.H.H.H.H.H.F.I.I.P.I.P.P.K.U.P.P.P.P.L.U.Y.Y.P.Y.Y.Y.U.L.U.U.L.L.L.U.L.L.U.U.L.L.L.L.L.U.U.U.L.U.U.        ",
"          L.Y.Y.Y.U.U.U.U.L.L.U.U.U.U.U.U.U.U.U.L.U.U.U.L.L.L.L.L.U.L.L.L.L.L.L.L.L.L.L.L.L.L.L.L.L.L.L.L.L.U.L.L.L.L.L.L.U.U.U.U.U.U.L.U.U.].].U.].P.].].`.].].'.'.I.I.I.I.I.I.I.H.I.'.'.I.I.I.I.I.H.H.H.H.H.F.F.F.F.H.J.|.W.~.AXdXpXpXsXpXpXpXpXiXpXiXiXsXJXgX< > 8 7 6 7 7 7 7 7 7 7 7 3 3 i x c c x x x c x c c c c c n n m n n n m m m m m m m m m n n m m m m m m m m m m m m m m m m m m m m m m m m m m m m m m m m m m m m m m m m m m N N m m N m m m m m m m m m m m m m m m m m m N m m m m m m m m m m N N m m m m m N N N N N m N m m m N N N m N N m m N N N N N N N N N m m m m m m m m m m m m m m m m m N N N N N N N N N N N N N N m m m N N m m N N N N N m N B N n x l x x x x x l l l l l l l l l l l l l x c s < < 6 6 6 6 6 6 6 6 6 3 3 3 3 3 3 3 3 3 3 3 3 3 3 2 * ] KXKXKXKXKXJXJXKXKXKXKXKXKXJXKXPXV.E.}.{.{.R.R.R.{.{.{.(.(.{.{.(.{.{.(.(.(.(.(.(.(.(.(.(.G.G.G.G.G.(.(.G.(.(.G.G.).).G.G.G.G.).(.).G.G.^.G.G.^.^.).).).).).H.H.H.H.H.I.I.I.I.I.P.P.U.U.P.U.P.K.Y.U.Y.P.P.P.Y.U.L.L.L.L.L.L.L.L.L.L.L.L.L.L.U.U.U.U.U.U.U.L.        ",
"          U.U.U.L.U.U.L.U.L.L.U.U.L.L.L.L.L.L.U.U.U.L.L.L.L.L.L.L.L.L.L.L.L.L.L.L.L.L.L.L.L.L.L.L.L.U.L.L.U.U.L.U.U.L.L.L.U.U.U.U.U.U.[.].].].U.P.].P.].].].].].].K.I.I.I.I.I.I.I.H.I.'.I.I.I.I.I.I.H.H.H.H.F.F.F.F.H.J.|.W.!.AXsXpXpXsXpXpXpXpXpXpXpX9XsXJXeX: : 7 7 6 7 7 7 7 7 7 8 7 2 6 z n c x x c x c c x c c n n m n n n m m m m m m m m m m n n m m m m m m m m m m m m m m m m m m m m m m m m m m m m m m m m m m m m m m m m m m m N N m m m N m m m m m m m m m m m m m m m m m N N m m m m m m m m m m N N m m m m m m m m m m N N N m m N N N m N N m m m N N N N N N N N N N N m m m m m m m m m m N N m N N N N N N N N N N N N N N N m N N m m m m N N N N N N N N B B m c l l x x x x l l l l l l l l l l l l k l x k 6 < 3 6 6 6 6 6 6 3 3 3 3 3 3 3 3 3 3 3 3 3 3 3 3 2 * h KXKXKXKXJXKXJXJXKXKXKXKXKXKXKXDXB.E.}.{.}.R.R.{.{.{.{.{.{.{.(.(.{.(.(.(.(.(.(.(.(.(.(.(.(.G.G.G.(.(.(.(.(.(.(.G.).).G.G.G.^.).).^.G.).G.G.^.^.^.).).).).H.H.H.H.H.F.H.I.P.I.P.P.P.P.P.P.P.P.Y.Y.P.P.P.P.Y.L.L.L.L.U.L.L.L.U.Y.L.L.L.L.L.L.L.L.U.U.U.L.L.        ",
"          U.U.L.U.L.L.L.U.U.U.L.L.L.U.L.L.L.L.L.L.L.L.L.L.L.L.L.L.U.L.L.L.L.L.L.L.L.L.L.L.L.L.L.L.U.U.U.U.U.U.U.U.U.L.L.L.U.U.U.U.U.U.[.].].].].].].].'.'.].].'.].K.I.I.I.I.I.I.I.'.'.I.'.I.I.I.I.H.H.I.I.H.H.F.H.F.F.|.E.b.SXdXiXpXpXpXpXpXpXpXpXpX9XdXJX6X- : 9 7 7 7 7 7 7 7 7 9 3 < r x n c x c c c x c c c n n m m m m n n m m m m m m m m m m m m m m m m m m m m m m m m m m m m m m m m m m m m m m m m m m m m m m m m m m m m m m m m N N m m N m m m m m m m m m m m m m m m m m m N m m N N N m m m m m N N m m m m m m m m m m N N N m N N N N m m m m m m N N N m N N N N N N N N N m m m m m m m m N N N N N N N N N N N N m N N N N N m N m m m m m N N N N N N N N N N B N n x l l x x x x l l l l l l l l l l l k k x l 9 < 3 6 6 6 6 6 6 3 3 3 3 3 3 6 3 3 3 3 3 3 3 3 4 4 * h KXKXKXKXJXJXKXJXKXJXJXKXJXJXKXDXB.E.}.{.{.R.R.{.{.{.(.(.{.(.(.{.(.(.(.(.(.(.(.(.(.(.(.(.G.(.(.(.(.(.(.(.(.(.(.).).(.G.G.G.).^.^.G.G.G.G.^.^.^.^.^.).).H.F.H.H.H.F.F.I.I.K.P.P.P.P.P.P.P.P.P.U.P.P.P.Y.Y.Y.U.L.U.U.L.K.L.U.Y.L.L.L.U.U.L.L.L.U.U.L.L.L.        ",
"          L.L.L.U.U.Y.L.U.U.L.L.L.Y.Y.U.L.L.U.U.L.L.L.L.L.Y.L.L.L.L.L.L.L.L.L.L.U.U.U.L.U.U.L.L.U.U.U.U.U.U.U.U.K.L.L.L.Y.U.U.U.U.U.U.U.].].].].].].].].].].I.K.K.I.I.I.I.I.I.I.'.'.'.I.I.I.I.I.H.H.F.K.F.F.H.K.F.D.|.{.5.MXNXpXsXpXpXpXpXpXpXpXiXiXsXJX6X- : 8 7 7 7 7 6 7 6 7 7 2 < s n c x x x c c c c c n n m m m m n n m m m m m m m m m m m m m m m m m n m m m m m m m m m m m m m m m m m m m m m m m m m n m m m m m m m m m m m m m N m m m m m m m m m m m m m m m m m m m m m m m m m N N N N N m N m m N N N N m m N N N N N N N N N N N N N N N m m N m m N N m m N N m m N N N N N m m m m m m m m m m N m N N N N N N N N N N N N N N m m m m m m m N N N N N N N N N N N N m m n x l l l l l l l l l l l l l l l l l k l l i - < 6 6 6 6 3 6 6 6 3 6 3 6 6 3 3 3 3 3 3 3 3 3 4 * h KXKXJXKXKXKXKXKXKXJXKXKXKXJXKXcXN.}.}.{.R.{.{.{.{.{.(.{.{.{.{.{.(.(.(.(.(.(.{.{.(.(.(.G.G.(.(.(.(.(.(.(.(.(.(.).).G.G.G.(.G.G.^.^.G.G.G.^.^.^.^.).).).H.F.H.H.H.H.I.K.I.P.U.P.P.P.P.P.L.K.K.K.P.Y.Y.Y.L.L.L.U.U.L.L.L.L.L.Y.U.L.Y.U.L.L.L.L.L.L.L.U.        ",
"          L.L.U.U.U.Y.U.U.U.Y.L.U.U.Y.U.K.U.U.L.L.L.L.L.L.Y.L.L.L.L.L.L.L.L.U.U.L.U.U.U.L.L.U.U.U.U.L.L.U.U.U.L.K.L.U.U.U.U.U.U.U.U.U.P.].].P.U.].'.].].[.`.'.K.`.'.I.I.I.I.I.'.'.I.'.I.I.I.I.H.H.H.F.F.F.F.F.F.V.|.}.=.=XCXpXpXsXpXpXpXpXpXiXiXiXdXJX6X- : 8 7 6 7 6 6 7 7 7 6 < 9 x n x x x c c c c c n n n m m m m m m n m m m m m m m m m m m m m m m m m n m m m m m m m m m m m m m m m m m m m m m m m m m m m m m m m m m m m m N m m N m m m m m m m m m m m m m m m m m m m m m m m m N N N N N N N m m m N N m N N m m m N N N m N N N N N N N N N N N N m m m m m m m N m m m m m m N N N N m m m m m m m N N N N N N N N N N N N N N N N m m m m m m m m m N N N N N N N N N N N N N m x l l x x l l l l l l l l l l l l k k l x s < < 6 6 6 6 6 6 6 3 6 6 6 6 3 3 6 3 3 3 3 3 3 4 4 * h KXKXJXKXJXKXKXKXKXKXKXKXJXJXKXxXA.}.}.{.{.{.R.{.{.{.{.{.{.{.{.(.(.(.(.(.(.(.(.(.(.(.(.G.G.(.(.G.(.(.(.(.(.(.G.G.G.G.G.G.).).).G.G.G.G.^.^.^.G.).).).)./.H.H.H.I.K.I.I.I.P.P.P.P.P.P.P.U.P.P.P.P.Y.Y.Y.L.L.U.L.U.U.L.L.L.Y.Y.L.U.U.L.L.L.L.L.L.U.U.        ",
"          L.L.U.Y.Y.Y.Y.U.U.L.L.L.L.L.L.L.L.L.L.L.L.L.L.L.U.L.L.L.L.L.L.L.U.U.U.L.L.U.L.L.U.U.P.U.U.U.L.U.U.U.L.L.L.L.U.U.U.U.U.U.P.P.K.P.].].].].].'.`.`.`.`.'.'.'.I.I.I.I.I.'.'.I.I.I.I.I.H.H.F.I.I.F.).F.F.F.oX|.o %XZXpXsXsXpXpXpXpXiXpXiXiXdXGX,X- > 8 7 7 7 7 7 7 7 7 4 2 i n n x c c c c c c n n m m m m m m m m m m m m m m m m m m m m m m m m m m n n m m m m m m m m m m m m m m m m m m m m m m m n m m m m m m m m m m m N N N N N m m m m m m m m m m m m m m m m m m m m m m m m N m m N N N N m N N N N N N N m m m m N N N N N N N N N N N m m N m m m m m m m m m m m m m m m N m m m m m m m m m m m N N N N N N N N N N N N N N N N m m m m m m m m m N N N N N N N N N N N N B N n x l l l l l l l l l l l l l l l k k l x s < < 6 6 6 6 6 6 6 6 6 3 3 3 3 6 6 3 3 3 3 3 2 3 4 * h KXKXKXKXJXKXKXKXKXKXKXJXKXKXKX@XA.}.}.{.{.R.{.{.{.{.{.{.{.(.(.(.(.(.(.(.(.(.(.(.(.(.(.(.(.(.G.(.(.(.(.(.(.G.G.G.G.(.(.^.).^.G.G.G.G.^.^.^.^.^.).).).).).H.H.H.I.I.I.I.I.P.P.P.P.P.P.P.P.P.P.P.U.Y.Y.L.L.L.L.U.U.L.U.L.L.Y.L.U.U.L.L.L.L.L.U.U.U.        ",
"          U.U.U.U.L.Y.Y.Y.L.L.L.L.L.L.L.L.L.L.L.L.L.L.L.L.U.L.L.L.L.Y.U.U.U.U.U.L.L.U.L.U.U.U.L.L.U.U.U.U.U.U.L.U.U.L.U.U.U.U.U.U.K.P.P.P.].].].'.].].`.`.'.I.'.'.'.I.I.I.I.I.'.'.I.I.I.I.H.H.H.H.H.F.F.F.F.F.oX|.o m.FXiXpXpXsXpXpXpXpXiXpXpXsXGX6X- : 8 7 6 7 7 7 7 7 7 4 4 s n c x c c c c c n n m m m m m m m m m m m m m m m m m m m m m m m m m m m m n n m m m m m m m m m m m m m m m m m m m m m m m n m m m m m m m m m m m N m N N N N m m m m m m m m m m m m m m m m m m m m m m m N N m N N N m m m N N N N N m m m m N N N N N N N N N N N N N m N N m N m m m m m m m m N N m N N N m m m m m m m m m m N N N N N N N N N N N N N N N N N m m N N m N m m N N N N N N N N N N N N N B B m c l l x l l l l l l l l l l l l k k k l z 6 < 6 6 6 6 6 6 6 6 6 6 3 3 6 6 6 6 6 3 3 3 4 4 4 * h KXKXJXKXKXKXKXJXKXJXKXKXKXKXKX~.S.}.{.{.{.{.R.{.{.{.{.{.{.(.(.{.{.{.(.(.(.(.(.(.(.(.(.(.G.G.(.(.(.(.(.(.G.G.G.G.G.G.G.).G.^.^.^.G.G.G.^.^.^.).).).).).H.H.H.H.I.I.F.I.P.P.I.P.U.P.P.P.P.P.P.P.Y.Y.U.U.U.U.U.U.L.P.L.L.L.U.U.L.L.L.L.L.L.U.U.U.        ",
"          U.L.L.L.L.L.L.L.Y.L.L.L.L.L.L.L.L.L.L.L.L.L.L.L.L.L.L.L.U.L.L.L.L.L.L.L.L.L.L.L.L.L.L.L.L.U.U.U.L.L.U.U.L.U.U.U.U.U.U.U.P.P.P.].].P.'.].].[.'.I.'.'.'.'.'.'.I.I.I.I.'.'.I.I.I.F.F.H.H.H.F./.F.F.G.oX Xo 8.JXpXpXpXpXpXpXpXpXpXpXpXsXGXfX< = 8 7 7 7 7 7 7 7 7 2 7 v m c c c c c c c n m m m m m m n n m m m m m m m m m m m m m m m m m m n m m m m m m m m m m m m m m m m m m m m m m m m m m m m m m m m m m m m m m m m m m m N N N N N m m m m m m m m m m m m m m m m N m m m m m m m N N N m m m m m m m m m m m m m m N N N N N N N N N N N m m m m m N m N N N m N N N N N N N N N m m m m N N N m N N N N N N N N N N N N N N N N N m m m m N N N N m N N N N N N N N N N N N N N N B N n l l l l l l l l l l l l l l l k k k l z 6 < 6 6 6 6 6 6 6 6 6 6 6 6 6 6 6 6 3 3 3 3 4 3 3 * _ KXKXJXJXKXKXKXJXKXKXJXKXJXKXJX~.W.}.{.{.{.{.R.{.{.{.{.{.{.(.{.{.{.(.(.(.(.(.(.(.(.(.(.G.G.(.(.(.(.(.(.(.(.(.G.G.G.G.G.G.^.G.).).G.G.^.^.^.).).).H.H.H.H.H.H.).I.I.K.P.P.I.P.U.P.P.P.P.P.U.P.P.P.U.U.Y.Y.U.L.K.K.L.L.K.U.L.L.L.L.L.L.L.L.U.U.        ",
"          L.L.L.L.L.L.L.L.Y.L.L.L.L.L.L.L.L.L.L.U.U.U.Y.L.L.L.L.L.U.U.L.L.L.L.L.L.L.L.L.L.L.L.L.L.L.U.L.L.L.L.U.U.U.U.U.U.U.L.[.P.U.P.P.].'.].].].].[.`.K.'.'.'.'.'.I.I.I.I.I.I.I.I.I.H.H.H.H.H.F.J.F.F.(.oXY.o O GXsXiXpXsXpXpXpXpXpXpXiXpXFXfX< = 8 7 7 7 7 7 7 9 7 2 r n n c c c c c c n m n n m m m n n m m n n m m m m m m m m m m m m m m m m m m m m n m m m m m m m m m m m m m m m m m m m m m m m m m m m m m m m m m m m m m m m N N N N N m m m m m m m m m m m m m m m N N m N N N m m N N m N m m m m m m m m m m m m m m m m N N N N N N N N N m m m m N N N N N N m N N N N N N N N N m m m m N N N N N N N N N N N N N N N N N B N N N N N N m m N N N m N N N N N N N N N N N N N N N m N B m x l l l l l l l l l l l l l l k k k l k 8 < 3 6 6 6 6 6 6 6 6 6 6 6 6 6 6 6 3 3 3 3 3 3 4 * ] KXKXKXJXJXKXKXJXKXKXJXJXJXKXLXB.E.{.R.R.{.{.{.{.{.{.(.{.{.{.{.{.{.(.(.(.(.(.(.G.G.(.G.(.G.(.(.(.(.(.(.(.G.G.G.G.G.G.).G.G.G.G.^.G.^.).^.).).).H.H.H.H.).).).I.I.I.I.I.P.P.P.P.U.U.K.K.P.P.P.P.Y.Y.L.L.U.L.L.L.Y.L.U.L.L.L.Y.L.L.U.U.L.L.U.        ",
"          L.L.L.L.L.L.L.L.L.L.L.L.L.L.L.L.L.L.L.U.L.L.L.L.L.U.U.U.U.U.L.L.L.U.U.L.L.L.L.L.L.L.L.U.U.U.L.L.U.U.U.U.U.U.U.U.U.L.[.P.P.].].].'.].'.K.'.'.`.K.I.'.'.'.'.I.I.I.I.I.I.I.H.H.H./.F.F.F.F.F.J._.oX!.o O AXdX8XiXpXsXpXpXpXpXpXiXiXZXNX1 = 8 7 7 7 7 7 9 9 6 2 r n n x c c c c n n n n n m n m m m m m m n n m m m m m m m m m m m m m m m m m m m m m m m m m m m m m m m m m m m m m m m m m m m m m m m m m m m m m m m m m N N N m m m m N N m m m m m m m m m m m m m m N m m N N N N N N N N m N m m m m m m m m m m m m m m m N N N N N N N N N N N m N N N N N N m m N N N N N N B B N N m m m m N N N N N N N N N N N N N N N N N N N N N N m m N N m N N N N N N N N N N N N N N N N N N m m B m c l l l l l l l l l l l l l l k k k l l 8 < 3 6 6 6 6 6 6 6 6 6 6 6 6 6 6 3 6 3 3 3 3 4 4 * ] KXKXJXJXJXKXKXKXKXJXJXJXJXKXIXN.}.{.R.R.{.{.{.{.{.{.{.{.{.{.{.(.(.(.(.(.(.(.(.(.(.(.G.(.(.(.(.(.(.(.(.G.G.G.G.G.G.G.^.G.G.G.^.^.G.G.^.^.).).).F.).).).H.'.'.I.I.I.I.P.P.P.I.P.P.P.K.K.K.K.U.Y.Y.L.L.L.L.L.L.U.U.U.L.L.L.U.U.U.U.L.L.U.U.        ",
"          L.L.L.L.L.L.U.L.U.L.L.L.L.L.L.L.L.L.L.U.L.U.U.U.U.U.L.L.U.U.L.L.L.L.U.L.L.L.L.L.L.L.U.L.U.U.U.L.L.U.U.U.U.U.U.U.Y.[.[.P.P.].P.].].].].'.K.K.].].I.I.I.'.'.'.I.I.I.I.H.H.F.F.F.F./.F.F.^.D.|.oXc.o o MXNX9XiX9XiXpXpXpXpXpXpXpXBXCXf = 8 7 7 8 7 7 9 8 3 3 s m c x c c c n n m m m n m m n m m m m m m n n m m m m m m m m m m m m m m m m m m m m m m m m m m m m m m m m m m m m m m m m m m m m m m m m m m m m m m m m N N m m m m m N N m m m m m m m m m m m m m m N N N N N N N N N N N N m m m m m m m m m m m m m m m m m N N N N N N N N N N m m N N N N m N N N N N N N N N N B B N N N N N N N N N N N N N N N N N N N N N N N N N N N N N N N N N N N N N N N N N N N N N N N N N N N N N B N c x l l l l l l l l l l l l l k k l l l i < 3 6 6 6 6 6 6 6 6 6 6 6 6 6 3 6 3 6 6 3 4 4 2 * *XKXKXKXJXJXKXKXJXJXJXKXKXKXKXnXA.}.{.{.{.R.{.{.{.{.{.{.{.{.{.(.(.(.{.{.(.(.(.(.(.(.G.G.G.G.(.(.(.(.(.G.G.G.G.G.G.G.).).G.G.G.G.G.G.G.^.^.).).).).).).).H.'.I.H.H.I.I.I.P.P.P.P.P.P.U.K.P.P.Y.Y.L.U.L.Y.L.L.U.U.U.L.U.L.L.U.Y.U.L.L.U.U.        ",
"          L.L.L.L.L.L.U.U.L.L.L.U.U.U.L.L.L.Y.Y.U.Y.Y.Y.U.U.U.U.U.L.L.L.U.L.U.L.L.U.U.Y.L.L.L.L.U.U.L.U.U.L.U.U.U.U.U.U.U.U.L.L.P.P.P.].'.].'.'.'.K.'.].'.'.I.I.I.'.I.I.I.I.I.H.H.F.H.F.F././.F.D.|.oX5.*.%.%XBX8XiX9X9X9XiXpXsXsXpXiXNXFXS * 8 8 7 9 9 7 9 8 4 6 z n c x c c n n m m m m m m m m m m m n m m m m m m m m m m m m m m m m m m m m m m m m m m m m m m m m m m m m m m m m m m m m m m m m m m m m m m m m m m m m m m m m m m m m m N N N N N m m m m m m m m m m N N N N N N N m m N N m m m m m m m m m m m m m m m m m m m m m m m m N N N N m m N N m m m m N N N N N N N N N N B N N N N N N N N N N N N N N N N N N N N N N N N N N N N N N N N N N N N N N N N N N N N N N N N N N N N m N B B n x l l l l l l l l l l l l k l l k l x s < 2 6 6 6 6 6 6 6 6 6 6 6 6 6 6 6 6 6 6 3 3 6 2 = wXKXKXJXJXKXJXJXJXJXJXKXJXJXKX~.S.}.{.{.{.{.{.{.{.{.{.{.{.{.(.(.(.{.{.(.(.(.(.(.(.G.G.(.G.G.(.G.(.(.G.G.G.G.G.G.G.G.G.^.G.G.^.G.G.G.G.^.^.).).).F.H.).H.'.'.I.I.I.P.P.P.Y.P.P.P.U.P.P.P.P.Y.L.L.L.U.P.L.L.U.U.U.Y.L.K.U.L.U.Y.L.L.U.U.        ",
"          L.L.L.L.Y.Y.U.L.L.L.Y.U.U.U.L.U.L.L.L.L.U.U.U.U.U.U.U.U.L.L.U.U.U.U.L.L.L.L.L.L.L.L.L.U.U.L.U.U.U.U.U.U.U.U.U.U.U.U.U.P.P.].].].].'.K.K.K.'.P.I.I.'.I.I.I.P.I.'.'.H.H.F./.F.H./.F.F.D.|.oX5.o %.$XBX9X9X9X9XiX9X9XpXsXsXiXdXZX_ = 4 8 8 8 7 8 7 8 2 8 x n x c c c n n n n m m m m m n m n n n n m m m m m m m m m m m m m m m m m m m m m m m m m m m m m m m m m m m m m m m m m m m m m m m m m m m m m m m m m m m m m m m m m m m m m N N N N N N N N N m m m m m m m N m m m N N m N N m m m m m m m m m m m m m m m m m m m m m m m m m m N N N N m N N m m N N N N N N N N N N N N N N N N N N N N N N N N N N N N N N N N N N N N N N N N N N N N N N m m N N N N N N N N N N N N N N N N N N N N B B N x l l l l l l l l l l l l l l k k l x s < 2 6 6 3 6 6 6 6 6 6 6 6 6 6 6 6 6 6 6 3 3 6 : - MXKXJXKXJXJXJXJXJXJXJXJXJXKXJXC.W.}.{.{.{.{.{.{.{.{.{.{.{.(.(.(.{.{.{.(.(.(.(.(.G.G.(.G.G.(.(.(.G.G.G.G.G.G.G.G.G.G.G.G.G.).G.G.G.^.^.G.).).).).H.H.).H.I.I.I.I.I.P.P.U.U.P.Y.Y.P.P.P.P.L.L.L.L.U.L.L.L.U.U.U.U.U.L.L.L.U.U.U.L.L.L.        ",
"          L.L.L.L.L.U.U.U.U.U.Y.U.L.Y.L.L.L.L.L.L.U.U.U.U.U.U.U.U.U.L.U.L.L.L.L.U.U.U.L.L.L.L.L.U.U.U.U.U.U.U.U.U.U.U.U.Y.U.U.U.].].P.].'.'.].K.K.K.'.I.I.I.I.I.'.P.I.I.'.).H.F.H.H.F./.^.F.J.oXXX=.o *.8.BXpXiXiX9XiXiX9X9X9XiX9XiXZX' = 4 7 7 9 8 7 9 8 2 9 c n x x c n n n n n n m n n n m m m n n n n n n m m m m n n m m m m m m m m m m m m m m m m m m m m m m m m m m m m m m m m m m m m m m m m m m m m m m m m m m m m N N m m m m m m N N N N N N N N N N N m m m m m m m N m m m m N m m m m m m n n n n n c c c c c c c c c c n n m m m m m N N N m m N N m N N N N N N N N N N N N N N N B N N N N N N N N N N N N N N N N N N N N N N N N N N N N N N N m m N N N N N N N N N N N N N N N N N N N N B B B B c l l x l l l l l l l l l l l l l l l s < 4 6 3 6 6 6 6 6 6 6 6 6 6 6 6 6 6 6 6 3 4 6 - 1 AXKXJXJXJXJXJXJXJXKXJXJXJXKXPXB.E.}.}.{.{.{.{.{.{.{.{.{.{.{.(.(.{.{.{.(.(.(.(.(.G.G.(.(.(.(.(.(.(.(.G.G.G.G.G.G.G.G.G.G.G.G.G.G.^.G.G.).F.).).).H.).H.I.I.I.I.I.P.P.P.P.P.Y.P.P.P.P.P.Y.Y.U.Y.L.U.U.L.L.U.U.U.U.L.L.L.L.U.L.L.L.L.        ",
"          L.U.U.U.L.U.L.Y.Y.U.U.U.L.Y.L.L.Y.Y.Y.L.U.U.U.U.U.U.U.U.L.L.L.L.L.U.L.U.U.U.U.L.L.L.L.U.U.U.U.U.U.U.U.U.U.U.U.U.U.P.].].P.].].].'.'.K.'.K.I.'.'.I.I.I.'.I.I.'.'.).).H.F.H././.F.D.oX.X=.=.&.O VXsX9XiXiXiX9X9X9X9X8X8X8XCX .= 4 7 7 8 8 7 8 6 < r c n x c c n n n n n n m m n n n n m m n n n n n m m m m m m n n m m m m m m m m m m m m m m m m m m m m m m m m m m m m m m m m m m m m m m m m m m m m m m m m m m m N m m m m m m m m m N N N N N N N N N m m m m m m m m N N N m m m n n c c c n m N V C E E E E [ E A C V V m m n c c n n n m m N N m N N N N N N N N N N N N m N N N N N N N N N N N N N N N N N N N N N N N N N N N N N N N N N N N N N N N N N N N N N N N N N N N N N N N N N B B N B B N m l l l l x l l l l l l l l l l k k l i < 2 6 6 6 6 6 6 6 6 6 6 6 6 6 6 6 6 6 6 3 3 6 = e JXKXJXJXJXJXJXJXKXKXJXKXJXKXcXN.{.{.}.{.{.{.{.(.(.{.{.{.G.(.(.(.{.{.{.(.(.(.(.G.G.(.(.(.(.(.(.(.(.G.G.G.G.G.G.G.G.G.G.G.G.G.G.G.G.G.).F.).).).F.F.F.H.I.I.H.I.I.P.P.P.P.P.P.P.P.P.P.P.P.P.P.P.L.U.U.U.L.L.U.L.U.L.L.L.U.L.L.L.U.        ",
"          U.L.L.U.U.U.U.U.U.U.U.U.U.U.L.L.L.U.L.L.U.U.L.L.U.U.U.U.U.L.U.U.L.U.U.L.L.U.U.L.L.L.L.U.L.U.U.L.L.L.L.U.U.Y.Y.].K.P.].].].].].].'.K.I.'.K.K.I.I.I.I.I.I.I.'.).'.'.H.H./.^.F.F.J.oX[.=.>.3.o qXBX9XiXiXiXiX9XiX9X9X9X8XBX6X- : 8 7 9 7 7 8 4 3 s n n x c n n n n n n n n m n m n n m m m m m m n n m m m m m m m m n m m m m m m m m m m m m n m m m m m m m m m m m m m m m m m m m m m m m m m m m m m m m m m m m m N m m m m m m m m N N N m N N N N N N m m m m m m m m m m m m n c M M A [ [ #.aXfXBXCXFXJXKXKXKXKXKXJXGXZXCXVXfXgX,X[ [ A N m n c n m m N m m m m m m m m m m m m N N N N N N B N N N N N N N N N N N N N N N N N N N N N N N N N N N N N N N N N N N N N N N N N N N N N N N N N B B B B N N B m x l l x l l l l l l l l l k l k k x i < 3 6 6 6 6 6 6 6 6 6 6 6 6 6 6 6 6 6 6 3 3 6 = h KXKXKXJXJXJXJXKXKXJXKXKXJXKXlXA.}.{.(.}.{.{.{.(.{.{.{.(.G.G.G.(.{.{.(.(.{.(.(.(.G.(.G.(.(.G.(.(.G.G.G.G.G.).).G.G.G.G.G.G.G.).G.G.^.G.).).).F.).H.H.H.I.I.H.K.I.P.P.P.P.P.P.P.P.P.P.P.P.P.U.L.U.U.U.U.L.U.L.L.L.L.U.L.L.L.U.U.        ",
"          L.L.L.U.Y.U.U.U.U.U.U.U.U.U.L.L.U.U.U.L.U.U.L.L.U.U.U.U.U.L.L.U.U.U.U.L.L.U.U.U.L.L.U.U.U.U.U.U.L.L.L.U.U.Y.U.P.P.].].P.].'.].'.K.K.K.K.K.K.I.I.I.I.I.I.'.).).'.H.F.F././.K.J.oXL.O =.e.o &XZXpXiXiXiXiX9X9XiX9X9X9XNXaX1 > 0 7 7 7 7 8 4 < z m n c c n n n m m n n m m n n n n n m m m m m n m m m m m m m m m m m m m m m m m m m m m m m m m m m m m m m m m m m m m m m m m m m m m m m m m m m m m N m N m m m m N m m m m m m m m m N N m m m N N m N m m m m N m m m n c n m E  .6XNXJXKXKXKXKXKXKXKXKXKXKXKXKXKXKXKXKXKXKXKXKXKXKXKXKXKXVXaX .E V v c n m m m m m m m m m m m m m N N N N N N B N N N N N N N N N N N N N N N N N N N N N N N N N N N N B N N N N N B N N N B N N N N N N N N N N B B N B N B B m x l l x l l l l l l l l l k l k l x i < 3 6 6 6 6 6 6 6 6 6 6 6 6 6 6 6 6 6 3 3 6 6 * ] KXKXJXJXKXJXKXJXJXJXJXKXKXKX~.S.}.{.{.{.{.{.{.{.(.{.(.(.R.G.G.(.{.{.(.(.(.(.(.G.(.(.(.(.(.G.G.G.G.G.G.G.).G.G.).G.G.G.G.G.^.^.G.^.G.G.).).F.H.H.H.H.H.I.H.F.I.P.P.P.P.P.P.P.P.P.U.U.P.P.U.L.U.L.U.U.U.U.U.U.L.L.Y.L.L.U.L.L.        ",
"          L.L.Y.L.U.U.U.U.U.U.U.U.L.L.L.U.U.U.U.U.L.U.U.U.U.U.U.U.L.L.L.U.U.U.U.U.L.U.U.U.U.U.L.U.U.U.U.L.L.U.L.Y.L.L.P.P.P.].].P.].'.'.`.`.K.`.K.K.K.I.I.'.I.I.I.'.).H./.F././.^.F.G.oXL.O =.4.o + GXsXiXpXiXiXiX9X9X9X9X8XpXNXf = 8 7 7 7 7 8 4 3 x m c c c n m m n m n n n n n n n n m m m m m m n m m m m m m m m m m m m m m m m m m m m m m m m m m m m m m m m m m m m m m m m m m m m m m m m m m m m m m N m m m m m m m m m m m m m m m m N m m N N N N m N N m m m m n c M V [ 6XAXKXKXKXKXKXKXKXKXKXKXKXJXJXJXJXKXKXJXJXJXJXJXKXKXJXKXKXKXKXKXKXKXKXKXHX6X .A m c c m m m m m m m N N N N N N N N N N N N N N N N N N N N N N N N N N N N N B B N B N B N N N B B B N N B B B B N N N B N N N N N N N N N N B N N N N B B c l l x x l l l l l l l l l l k l l i 2 3 7 6 6 6 6 6 6 6 6 6 6 6 6 6 6 6 6 3 3 6 2 ; :XKXJXKXJXJXKXJXJXJXKXJXJXKXLXB.E.}.R.{.{.{.{.{.{.{.{.(.R.R.G.{.(.(.(.(.{.(.(.G.G.(.(.(.(.G.G.G.G.G.G.G.G.G.G.G.G.G.G.G.G.G.G.G.G.^.^.).).F.).).H.H.H.H.I.K.K.P.P.P.P.P.P.P.P.P.Y.Y.P.P.P.L.L.U.L.L.U.L.L.U.L.U.L.L.L.L.L.L.        ",
"          L.L.Y.L.U.U.U.U.U.U.U.U.L.L.L.L.U.U.L.U.Y.U.U.U.U.L.L.U.L.L.U.U.L.U.U.U.L.L.L.L.U.U.L.L.L.U.U.L.U.L.U.U.U.L.K.P.P.P.].].'.].].`.`.K.`.I.K.K.I.P.I.I.I.I.F.F.F.^.F.F.).F.G.oXT.=.=.4.&.O HXBX9XiXiX9XiX9X9X9X9X8X9XBX` > w 8 9 7 9 8 4 6 v m c c n n n m m n n m m n n m n n n m m m m m n n m m m m m m m m m m m m m m m m m m m m m m m m m m m m m m m m m m m m m m m m m m m m m m m m m m m m m m m m N N m N m m m m m m m m m m m N m m m m m N N m N m m n c N [ 6XFXKXKXKXKXKXJXKXKXKXKXJXKXKXKXKXKXJXJXKXKXJXJXKXKXKXKXKXJXKXKXKXKXKXJXKXKXKXKXKXKXKXVX .A n c n m m N N N N N N N N N N N N N N N N N N N N N N N N N N N N N N N N N B B B N N B N N B B B B N B B B B N N B N N N N N N N N N N B N N N B N N N n l l x l l l l l l l l l l k z l l r < 6 6 7 7 6 6 6 6 6 6 6 6 6 6 6 6 6 6 6 6 7 - ; MXKXKXJXJXJXJXJXJXKXKXJXJXKXcXA.}.{.{.{.{.R.{.{.{.{.{.(.G.G.G.(.G.{.(.{.(.(.(.G.(.(.(.(.(.G.G.G.G.G.G.G.G.G.G.G.G.G.G.G.G.G.G.G.^.^.).).).).).H.H.H.H.I.K.K.I.P.P.P.P.P.Y.Y.Y.Y.P.P.P.P.L.L.L.L.L.U.L.L.L.L.U.L.L.L.L.L.U.        ",
"          L.L.U.U.U.U.U.U.U.U.U.U.L.L.L.L.U.L.L.U.U.U.U.L.L.U.L.U.U.L.U.U.L.U.U.U.L.L.L.L.U.U.U.L.L.U.U.U.U.L.U.U.U.U.P.P.P.P.].].`.[.[.'.`.`.K.'.I.I.I.P.I.I.I.I.H.F.F.F.F.F.F._.oXV.=.=.3.,.o qXZX9XiXiXiX9X9X9X9X9X9X8XBX' - w 0 8 8 7 8 4 9 v m n n m m n m m m m m m m m m n m m m n m m m n m n n n n m m m m n m m m m m n m m m m m m m m m m m m m m m m m m m m m m m m m m m m m m m m m m m m m m m N N N N N N N N m m N N m m m m m m m m m m m m N N m n n n E ,XCXKXKXKXKXJXJXKXKXKXKXKXKXKXKXKXKXKXKXKXKXKXKXKXKXJXKXKXKXKXKXKXKXKXKXKXKXJXJXKXKXJXKXKXKXKXKXKXgX[ C n n m N N m N N N N N N N N N N N N N N N N N N N N N N N N N N N N N N N N N N N N N B B B B B B B B B B B B B N N N N N N N B B N B N B B N N B B M l l x x l l l l l l l l k k l l x t 2 6 7 7 6 6 6 6 6 6 6 6 6 6 6 6 6 6 3 6 6 7 = 1 HXKXJXKXJXJXJXJXKXKXJXKXKXKX@XS.}.{.{.{.{.{.{.{.{.(.{.{.G.{.(.G.R.{.R.(.(.(.G.G.G.(.(.(.G.G.G.G.G.G.G.G.).G.G.G.).^.G.G.G.G.G.G.^.^.F.).).).F.F.F.H.I.I.I.I.I.P.P.P.P.Y.Y.Y.P.P.P.P.P.L.L.L.L.L.L.U.U.U.U.U.U.L.L.L.U.U.        ",
"          L.L.U.U.L.L.U.U.U.L.L.U.U.L.L.U.L.L.L.U.U.L.U.L.L.L.L.U.U.U.U.U.U.U.U.L.L.L.L.U.U.L.U.U.L.U.U.U.U.U.U.U.P.P.P.P.P.'.`.[.`.`.`.I.K.`.`.K.I.I.P.P.I.I.F.F.F.F.F./.F.F.(.oXB.*.3.3.3.o $XFXpXiXiXiXiX9X9X9X9X8X2XNX,X- 4 0 8 8 8 8 3 9 n N n n m n m n m m m m m n n n n n n m m n m m m m m m n n m m m m m n n n n n n n m m m m m m m m m m m m m m m m m m m m m m m m m m m m m m m m m m m m m m m N N m m N N N N N N N N N N N N N N m m m m m N m m n m [ aXKXKXKXKXKXJXKXJXJXKXKXJXKXKXKXKXKXKXKXKXKXKXKXKXKXKXKXKXKXKXKXKXKXKXKXKXKXKXJXJXJXKXKXKXKXKXJXKXJXKXKXKXFX#.V n n m N N N N N N N N N N N N N N N N N N N N N N N N N B B B N N N N N N N B N N B B N B B B B B B B B B B N N N B N N N N N N B N N B N B B B B m l l l l l l l l l l l l l k l l l 8 2 6 6 6 6 6 6 6 6 6 6 6 6 6 6 6 7 6 6 6 6 6 * f KXKXJXKXJXJXJXKXKXJXJXJXKXKX!.E.{.{.{.{.{.{.{.{.{.{.{.G.G.R.G.R.G.G.G.(.(.G.G.G.(.(.G.G.G.G.G.G.G.G.G.).G.G.G.G.^.G.G.G.G.G.G.^.^.).).).).F.H.F.F.I.I.I.I.I.P.P.P.P.P.P.Y.P.P.P.P.P.L.L.L.L.L.L.L.U.U.U.U.U.U.U.L.L.L.        ",
"          L.L.L.L.L.U.U.L.Y.L.L.L.U.U.L.U.U.L.L.L.U.L.L.L.U.L.L.L.U.U.U.U.U.U.U.L.L.L.L.L.L.L.U.U.L.L.L.U.U.U.U.P.P.P.].P.P.].].[.`.`.`.K.`.I.I.P.P.P.P.I.I.F.F.F././.F.F.F._.oXc.*.3.3.3.&.-.FXdXiXiXiX9X9X9X9X9X9X2XsXsX1 : q 8 8 8 8 4 8 n N n m m n n n m n m m m m n n n n n m m m m m m m m n n n m m m m m m m m n n n n n n m n m m m m m m m m m m m m m m m m m m m m m m m m m m m m m m m m m m m m m m m N N N N N N N N N N N N m m m m m m m N m c m [ VXKXKXKXJXJXJXJXJXKXKXKXKXJXJXKXKXKXKXKXKXJXJXKXKXKXKXJXJXKXKXKXKXKXKXKXKXKXKXJXJXJXKXKXKXKXJXKXJXJXKXKXJXKXKXKXKXGX,XA c n m N N N N N N N N N N N N N N N N N N N N N N N N N B N N N N N N N B N N N N B B B B B B B B B B B N N N N B B N N N N N B B B B B B B B B m l l l l l l l l l l l l k k k l k 9 2 6 7 7 6 7 6 6 6 6 6 6 6 6 6 7 6 6 6 6 6 4 * ' KXKXJXJXKXJXKXJXKXJXJXKXKXDXA.R.{.{.{.{.{.{.(.{.{.(.G.G.G.G.G.G.G.(.(.(.(.(.G.(.G.G.G.G.G.G.G.G.G.G.G.G.G.G.G.G.G.G.G.G.G.G.^.^.^.).).).F.F.F.F.H.I.H.I.I.P.P.P.P.P.P.P.Y.Y.P.P.Y.Y.Y.L.Y.K.L.U.L.L.U.U.U.U.U.L.L.L.        ",
"          Y.L.L.L.U.U.U.L.L.L.L.L.L.U.U.U.U.L.L.L.L.L.L.L.U.L.L.U.L.U.U.U.U.K.L.U.L.U.U.L.L.U.U.U.U.U.U.U.U.U.P.P.].].].].P.].].[.`.`.`.I.'.I.I.P.P.P.I.I.F.F.F././.F.F.J._.oXc.*.3.5.3.,.o qXBX9XiXiXiX9X9X9X9X9X8XiXCXS = 0 0 0 8 8 6 8 v m n n n m m m m m n m m m m n n n n n m m m n n m n m n n n m m m m m m m m n n m n m m n n m m m m m m m m m m m m m m m m m m m m m m m m m m m m m m m m m m m m m m m N m N m m N N N N N N m N m m m m m m c n [ VXKXKXJXJXJXJXJXJXJXKXJXKXKXKXKXKXKXKXJXJXKXKXJXJXJXKXKXKXKXJXKXKXKXKXKXKXKXKXKXKXKXKXKXKXKXKXKXKXKXKXKXKXKXKXJXJXKXKXKXKXKX6XA c n N N N N N N N N N N N N N N N N N N N N N N N N N B N N N N N N N N N N N N B N B N N B B B B B B N B N N B N N N N B N B N N B B B N B B m x l l l l l l l l l l k k k k l k 6 2 7 7 7 6 6 6 6 6 6 7 6 6 6 6 6 6 6 6 6 7 2 ; uXKXJXKXJXJXJXJXJXKXKXKXJXKX@XS.}.{.{.{.{.{.{.(.{.{.{.R.R.G.G.(.(.(.(.(.(.(.(.(.(.(.(.G.G.G.G.G.G.G.G.G.G.G.G.G.G.G.^.G.G.G.G.^.G.G.).).).J.).H.K.K.F.I.I.K.P.U.P.P.Y.Y.Y.Y.Y.P.P.Y.Y.Y.Y.Y.L.L.L.L.U.U.U.U.U.L.U.L.        ",
"          Y.L.L.L.U.L.L.L.Y.L.L.L.L.U.U.L.L.L.L.L.L.L.U.U.L.L.L.L.L.U.U.U.U.L.L.U.U.U.U.L.L.U.U.U.U.U.U.U.U.U.U.U.P.].].P.'.K.[.`.`.`.`.'.`.P.I.].I.I.K.K.K.F.F.F.F./.J._.oXc.=.3.3.4.e.%.&XCXiXiXiX9XiX9X9X9X9X8X8XCX' = w w 8 0 8 4 r n m n n n m m m m m m m m m m n n n n n n n n n n n m m m n n n m m m m m m m m m m m m m m m m n m m m m m m m m m m m m m m m m m m m m m m m m m m m m m m m m m m m m m m m m m m m m N m m N N m m m m m m n n A gXKXKXKXJXJXJXJXJXJXJXKXKXKXKXKXKXKXKXKXKXJXJXKXKXJXKXKXKXKXKXKXKXJXKXJXKXKXKXKXKXKXKXKXJXKXKXKXKXKXJXKXKXKXKXJXJXJXJXKXKXKXKXKXKXJX,XC x n N N N N N N N N N N N N N N N N N N N N N N N B B B N N N N N N N N N B N N B B N B B B B B B N N N N N N N N B N N N N N B B B N N B B m x k l l l l l l l k k k l k k x z 3 2 6 7 6 6 6 6 6 7 7 6 6 6 6 6 6 6 6 6 6 7 : - HXKXJXJXJXJXJXJXKXJXJXJXKXJXC.W.}.(.(.{.{.{.(.(.{.{.{.G.G.G.(.{.(.(.(.(.G.(.(.(.(.(.G.G.G.G.G.G.G.G.G.G.G.G.).G.G.^.^.(.G.G.G.G.G.^.).).F.F.H.K.K.H.I.I.I.P.U.P.P.Y.Y.Y.Y.Y.P.P.Y.Y.Y.Y.L.L.L.L.L.L.U.L.U.U.L.L.L.        ",
"          U.U.L.L.Y.L.L.L.Y.L.U.U.L.U.U.U.L.L.L.L.L.L.L.L.L.L.L.U.U.L.L.U.U.U.L.U.U.U.U.U.U.U.U.U.U.U.U.U.P.K.P.].P.'.].P.`.`.[.`.`.`.`.'.K.I.P.I.I.I.`.K.F.F.F.F.).J. XOX5.=.4.5.3.r.*.-.GXpX9XiX9X9X9X9X9X8X8X9XNX6X- 5 0 8 8 8 4 r m m n n n m m m m m m m m m m n n n n n n n n n n m n m m m n n n m m m m m m m m m m n n m n m n m m m m m m m m m m m m m m m m m m m m m m m m m m m m m m m m m m m m m m m m m m m m m m m m m m m m m m m c C 6XKXKXKXJXKXJXJXJXJXJXJXKXKXKXKXKXKXKXKXKXKXKXJXJXKXKXKXKXKXKXKXKXKXKXJXJXJXKXKXKXJXJXKXKXKXJXKXKXKXKXKXKXKXKXKXJXKXKXKXKXKXKXKXKXKXKXKXKXFX .M c m m N m m N N N N N N N N N B B N N N N N N B B N N N N N N N N N N N N N N B B B B B N N B N N N N N N N N N N N N N B B B B B N N N B m x l l l l l l l l l l l k k l x z < 3 6 6 6 6 6 6 6 7 6 6 6 6 6 6 6 6 6 7 6 8 = f KXKXJXKXJXJXKXKXJXJXKXJXKXPXA.R.}.{.{.{.{.{.{.{.{.(.G.G.G.(.G.G.(.(.G.(.G.(.(.G.G.G.G.G.G.G.G.G.G.G.G.G.G.G.G.G.G.^.^.G.G.G.G.G.G.^.).F.F.H.F.F.I.I.I.K.P.U.P.P.Y.Y.Y.Y.Y.Y.Y.Y.Y.Y.Y.L.L.L.L.U.L.U.U.L.L.U.L.L.        ",
"          L.L.L.L.L.L.L.L.U.U.U.U.L.L.L.L.U.L.L.L.L.L.L.L.U.L.L.U.U.L.L.L.U.L.L.U.L.U.Y.U.U.L.U.U.U.U.U.U.P.K.K.P.'.'.].P.[.`.`.`.`.`.`.'.'.I.I.I.P.K./.F.F././.F.J.|.OX5.&.4.3.3.4.,.o SXNX9XiX9X9X9X9X9X9X8X8XdXsX1 > 0 8 8 8 3 r m B n n n m m m m m m m m m m n n n n n n n n n m m m m m m n n n n m m m m m m m m m m n n m m m m m m n m m m m m m m m m m m m m m m m m m m m m m m m m m m m m m m m m m m m m N N N N m m m m m m m m m n n [ GXKXKXJXKXKXJXJXJXJXKXKXKXKXKXKXKXKXKXKXKXKXKXKXKXJXKXKXJXKXKXKXKXKXKXKXKXKXKXKXKXKXJXJXKXKXKXKXKXKXKXKXKXKXKXKXKXJXKXKXKXKXKXKXKXKXJXJXKXJXKXKXfXA v n N N N N N N N N N B N B B B N N B N N N N N N N B N N N N N B N N B B N B B N N B N N N N N N N N N N N N N N N N N B B N N B N N N B m x k l l l l l l l l l l k k l x s < 3 7 6 6 6 7 6 6 6 6 6 6 6 6 6 6 7 6 6 6 6 * ] KXJXJXJXJXKXKXKXJXJXKXJXKXlXS.}.{.{.{.{.{.{.{.{.G.G.G.G.G.G.R.{.{.G.G.G.G.(.(.G.G.G.G.G.G.G.G.G.G.G.G.G.G.G.^.G.G.G.G.G.G.^.G.G.^.).F.F.H.F.F.I.I.I.I.P.P.P.P.Y.Y.Y.Y.Y.Y.P.Y.Y.Y.Y.L.L.U.U.L.L.L.U.L.L.L.L.L.        ",
"          L.L.L.L.L.L.U.U.U.L.L.U.U.L.L.L.U.U.U.U.L.U.U.L.L.L.L.U.L.L.L.L.L.L.L.L.L.L.U.U.U.L.U.U.U.U.L.P.[.].P.P.'.].].].[.`.`.K.`./.'.].K.I.I.K.K.F.^.F./.F./.J.|.XX5.=.4.3.3.3.e.%.$XZX8XiXiXiX9X9X9X9X9X9XpXNXZ , 0 7 8 0 4 r m N n m m m m m m m n n n n n n n n n n n n n n n n n n m m m m m m n m m m m m m m n m m m n n n n m m m m m m m n m m m m m m m m m m m m m m m m m m m m m m m m m m m m m m m m m N N N N m m m m m m m m c N ,XKXKXJXJXJXJXJXJXJXJXJXKXKXKXKXKXKXKXKXJXKXKXKXKXKXKXKXKXKXJXKXJXJXKXKXJXJXKXKXKXKXJXKXKXKXKXJXJXKXKXKXKXKXKXKXKXKXKXJXJXKXKXKXKXKXKXKXKXJXKXJXJXKXKXJX .n c m N N N N N N N N N N N N N B B B B N B B N N B N B N N B B N N B B N N N N B B N N N N N N N N N N N N B N N N B B B N N N N N N N B m x k l l l l l l l l l l k k k x s < 6 7 7 6 7 6 6 6 7 7 6 7 7 7 7 6 6 6 6 6 2 ; MXKXJXKXJXJXJXKXJXKXKXJXKXJXC.E.}.{.{.{.{.(.(.{.{.G.G.G.R.{.R.(.(.(.(.G.G.G.G.G.(.G.G.G.G.G.(.G.G.G.G.G.G.G.G.G.G.G.G.G.G.J.G.^.^.^.F.F.F.F.F.K.I.K.I.P.P.Y.Y.K.Y.Y.Y.Y.Y.P.P.Y.Y.Y.Y.U.L.L.U.L.L.L.U.L.L.L.U.        ",
"          L.L.L.L.L.U.U.U.L.L.U.U.U.U.U.U.U.L.U.U.U.U.U.U.L.L.U.U.L.L.L.L.L.L.L.L.L.L.K.U.L.L.U.U.U.L.K.P.[.[.P.P.[.'.].'.`.[.`.`.`.`.I.'.K.K.K.K.K.K./.F.F.H.D.|.OX5.&.4.2.4.3.r.;.-.ZXpX9XiXiXiX9X9X9X9X9X9XCX[ > w 0 8 8 4 r M N n n m m m m m m m n n n n n n n n n n n n n n n n n n n n n n m m m m m m m n m m m n n m n n n n m n m m n m n m m n m n m m m m m m m m m m m m m m m m m m m m m m m m m m m m m m m N N m N N m m m n c E VXKXKXJXJXJXJXJXJXJXJXJXKXKXKXJXJXKXKXJXKXJXKXKXJXKXKXKXKXKXKXJXKXKXJXJXKXKXKXKXKXKXKXKXKXKXKXKXKXJXKXJXJXKXKXJXKXKXJXKXKXKXKXKXKXKXKXKXKXKXKXKXJXJXJXJXKXKXfXA c m N N N N N N N N N N N N N B B N N B B N N N N N N N B N N N N N N N N B B B N N N N N N N N N N N N N B N B B B B N N N N N N N N N m x l l l l l l l l l l l k k k k i < 7 7 7 7 7 7 6 7 7 7 7 7 7 7 7 7 6 6 6 9 > 1 LXKXKXJXJXJXJXKXJXJXJXKXKXIXN.{.{.{.(.{.(.{.{.G.(.G.G.R.(.(.(.(.G.(.G.G.G.G.G.(.G.G.G.G.G.G.G.G.G.G.G.G.G.G.G.G.G.G.G.^.^.G.^.^.^.F.F.F.F.I.H.I.I.K.P.P.Y.Y.P.Y.Y.Y.Y.Y.Y.Y.Y.Y.Y.Y.U.L.L.U.L.L.L.U.L.L.L.U.        ",
"          L.L.Y.Y.L.U.U.L.L.U.U.U.U.U.L.U.U.U.U.U.U.U.L.L.L.L.L.L.L.L.L.L.L.L.L.U.L.L.L.U.L.L.U.U.K.K.P.].K.[.].`.`.`.[.[.`.`.`.K.[.[.K.K.K.K.K.K.K.K.F.F.F.J.XX.X5.>.4.4.3.4.3.2.o qXBX9X9XiXiX9X9X9X9X9X8XBX6X4 5 0 8 8 4 r m N n n m m m m m m m m n n m m n n n n n n n n n n n n n n n n n n n n n m m n m n m m n n n n n n n n n n n n n n m m m n n m m m m m m m m m m m m m m m m m m m m m m m m m m m m m m m m m m m m m m m c c  .KXKXJXJXJXKXJXJXJXJXJXJXJXKXKXKXKXJXKXJXJXKXKXJXJXJXJXJXJXKXKXKXJXKXKXKXKXJXKXKXJXKXKXJXJXKXKXJXKXKXJXJXJXJXJXKXJXKXKXKXJXJXJXKXKXKXKXKXKXKXKXKXKXKXJXJXJXJXKXKXKX[ M n N N N N N N N N N B N N B B B B B N N B N N N N N N N N N N N N N B B B N N N N N N m N N N N N N N N B B B B N B B N N N N N N N B N x l l l l l l l l l l l k k l l r < 7 7 6 7 7 7 7 7 7 7 7 7 7 7 7 7 6 6 6 8 = h KXJXJXKXJXJXJXJXJXJXKXKXJX~.S.{.{.R.{.{.{.(.G.G.G.R.R.(.(.{.(.G.G.(.G.G.G.(.(.(.G.G.G.G.G.G.G.G.G.G.G.G.G.(.G.G.G.G.^.).G.G.G.^.).F.F.F.K.I.I.I.I.P.P.Y.Y.P.Y.Y.Y.Y.Y.Y.Y.Y.Y.Y.Y.Y.L.L.L.U.U.L.L.L.L.L.U.        ",
"          L.L.L.L.L.U.L.L.U.U.U.U.U.U.U.U.U.U.U.U.U.L.L.L.L.L.L.L.L.L.L.L.L.L.L.L.U.U.L.U.L.L.L.[.[.P.].].[.[.[.[.[.`.`.`.`.`.K.K.[.[.K.K.K.K.K.K.F.F.F.^.D.oX.X=.>.4.3.4.4.4.e.%.8.ZXiXiX9XiXiX9X9X9X9X9XsXdXd > 8 8 r 6 r m N n n m m m m m m n n n n m m m n n n n n n n n n n n n n n n n n n n n n m m m m m m n n n n n n n n n n n n n n m n n m n n m m m m m m m m m m m m m m m m m m m m m m m m m m m m m m m m m m m m N V c M 6XKXKXJXKXJXJXKXJXJXJXJXJXJXJXKXKXKXJXKXJXJXKXKXKXJXJXJXKXKXKXKXKXJXJXKXKXKXKXJXJXJXKXJXKXJXJXKXKXJXJXJXJXJXJXKXKXJXJXJXKXKXJXJXJXKXKXKXKXKXKXKXKXKXKXKXKXKXJXKXKXJXKXKX,Xm n N N N N N N N N B N B B B B N B B N N N N N N N N N N N N N N B B B B N N N N N N N N N N N N N B B B N N N N B B N N N N N N N N B N x l l l l l l l l l l k k k l z 7 < 7 7 6 7 7 7 7 7 7 7 7 7 7 7 7 7 6 6 6 4 = *XKXJXJXJXKXJXJXJXJXJXKXKXHXV.E.).{.{.{.{.(.G.R.(.G.G.(.{.{.(.(.G.G.G.G.G.G.G.G.G.G.G.G.G.G.G.G.G.G.G.G.G.(.(.^.G.).).^.^.G.G.G.^.^.F.H.F.I.I.F.K.P.P.Y.Y.K.P.Y.P.Y.Y.L.Y.Y.P.Y.Y.Y.L.L.L.L.L.L.L.L.L.L.U.        ",
"          L.L.L.L.L.L.U.U.U.U.U.U.L.U.U.U.U.U.U.U.U.U.U.U.U.Y.L.L.L.L.L.L.L.L.L.U.U.U.U.U.U.L.L.[.[.].P.P.[.`.[.[.[.`.`.`.`./.`.`.`.`.K.K.K.K.F.F./.K./.J.oX.X=.>.4.3.2.2.2.4.>.O VXsX9XiXiXiX9X9X9X9X9X9XCX[ : 0 8 r 7 r n N n n m m m n m n n n m m n m m n n m n n n m n m n n n n n n n n n n n n n n m m n n n n n n n n n n n n n n n n n n n m m m m n m m m m m m m m m m m m m m m m m m m m m m m m m m m m m m m m N N m m x C fXKXKXJXJXJXJXJXJXJXJXJXKXJXKXKXKXKXKXJXJXKXKXJXKXJXKXJXJXKXKXKXKXKXKXJXJXKXKXJXJXJXJXKXKXJXJXKXKXKXJXKXKXKXJXJXKXKXJXJXJXKXKXJXJXKXKXKXKXKXKXKXKXKXKXKXKXKXKXKXJXKXKXKXKXKXfXV n N N B N B N N B B N B B N N N B B B B N N B N N N N N N N N N N N B B N N N N N N N N N N N B B B N N N B N B B N N B N N N N N N B m x l l l l l l l l l l l k k l z < 3 9 7 7 7 7 7 7 7 7 7 7 7 7 7 7 7 6 6 7 : - AXKXJXJXJXJXJXJXJXJXJXJXKXcXA.}.{.(.{.{.(.(.G.(.G.G.G.G.{.(.(.(.G.G.(.G.G.G.G.G.G.G.G.G.G.G.G.G.G.G.G.G.G.(.(.G.).).G.^.^.^.^.^.^.^.F.H.H.I.F.K.P.P.Y.Y.K.P.Y.Y.Y.Y.L.Y.L.Y.Y.Y.Y.L.L.L.L.L.L.L.L.L.U.U.        ",
"          L.L.L.L.U.U.U.U.U.L.L.L.L.U.U.U.U.U.U.U.U.U.L.L.U.U.L.L.L.L.L.L.L.U.U.U.U.U.U.U.U.K.[.K.K.[.[.K.`.[.[.[.[.`.`.`.`.`.K.'.K.K.K.K.K././.F.F.K.J.XX.X>.<.4.2.2.2.4.2.2.o %XZX8X9XiX9X9X9X9X9X9X9XNX8X9 4 r r 7 r n N n n m n m m m m n n n n m m m m n n n n n n n n n n n m m n n n n n n n n n n n n n n n n n n n n n n n n n n n m m m m m m m n m m m m m m m m m m m m m m m m m m m m m m m m m m m N N m m m N N m m x C ZXKXJXJXJXJXJXJXJXJXJXJXKXKXKXKXKXKXKXJXJXKXKXKXJXJXJXKXKXKXJXJXJXKXJXJXJXJXKXKXKXKXJXKXJXJXJXJXJXJXJXKXKXKXKXKXJXJXJXKXKXJXKXKXJXJXKXKXKXKXKXKXKXKXKXKXKXKXKXKXKXKXKXJXKXKXKXKXAXC c m B N N B B B B B B N N N N N N N B N N B N N N N N N N N N N B B B N N N N N N N N N N N B B N N N N B N B N N N N B N B N N N N N m x l x l l l l l l l l k k k x s < 6 7 7 7 7 7 7 7 7 7 7 7 7 7 7 7 7 6 6 7 = f KXKXJXJXJXJXJXJXJXJXJXKXJX~.S.}.{.{.{.(.(.(.(.G.G.G.(.(.G.(.(.(.G.G.G.G.G.G.G.G.G.G.G.G.G.G.G.G.G.G.G.G.(.(.G.G.^.^.^.^.^.^.^.^.J.F.H.F.H.I.I.P.I.P.Y.P.Y.Y.Y.Y.P.P.Y.L.L.L.L.L.L.L.L.L.L.L.L.L.L.U.U.        ",
"          L.L.L.L.U.U.U.U.U.U.L.U.U.U.U.U.L.L.U.U.U.U.L.L.L.U.L.L.L.L.L.L.L.U.U.U.U.U.U.U.U.].[.K.K.[.K.[.[.[.`.`.`.`.`.`.K.K.`.`.K.K.K.I.K./.H./.F.G.XXQ.=.,.4.2.4.2.2.2.r.*.8.JXpX9X9X9X9X9X9X9X9X8XiXsXb > 0 0 7 r c m n m m m m m m m m m n m m m m m m m m n n n n n n m m m m m m n n n n n n m n n n n n n n n n n n n n n n n n n n m m m m m m m m m m m m m m m m m m m m m m m m m m m m m m m m m m m m m m m m m m m c A GXKXJXJXJXJXJXJXJXJXJXJXJXKXKXKXKXJXJXKXJXJXJXKXKXKXKXJXJXKXKXJXJXJXKXJXJXKXJXKXKXJXKXKXKXKXKXJXKXKXJXJXJXJXJXKXJXJXKXKXKXKXKXKXKXKXJXKXJXJXKXKXKXKXKXKXKXKXKXKXKXKXKXKXKXKXKXKXKXKXHXC x m B N B B B B B B N N N N N N N N N N B B N N N N N N N N N B B B N N N N N N N N N N N B B B N N N N B B B N N N N N B N N N N B N m x l x x l l l l l l l k l l l i 2 6 7 7 7 7 7 7 7 7 7 7 7 7 7 7 7 7 6 6 6 = *XKXJXJXKXJXJXJXJXJXJXJXKXPXB.{.{.{.{.{.{.(.(.(.G.G.(.G.G.(.(.(.(.(.G.G.G.G.G.G.G.G.G.G.G.G.G.G.G.G.G.G.(.).^.G.G.^.^.^.^.).^.G.^.F.F.F.I.I.I.I.I.P.Y.P.Y.Y.Y.P.P.P.Y.L.L.K.L.L.L.L.L.L.L.L.L.L.L.U.U.        ",
"          L.L.L.L.L.U.L.L.U.U.U.L.U.L.U.U.L.L.U.U.U.U.L.L.L.L.L.L.L.L.L.U.U.U.U.L.U.U.L.L.].].K.[.[.[.`.`.[.[.[.[.`.[.[.`.I.[.[.K.K.K.`.`.F./.F.F.G.oXC.=.,.e.2.2.2.2.4.4.,.o MXCX8X9XiX9X9X9X9X9X8X8XBX[ = w 0 w 8 n N n n m m m m m m m m m m m m m m m m m n n n n m m m m m m m n m n n n n n m m m n n n n n n n m m n n n n n n n n m n m m n m n m m m m m m m m m m m m m m m m m m m m m m m m m m m m m m m m N m m m c E JXKXJXKXJXJXJXJXJXJXJXKXJXJXKXJXKXKXKXKXKXKXJXJXJXJXKXKXKXKXKXJXJXJXJXJXJXJXJXJXKXKXKXJXKXJXJXJXJXJXJXJXJXJXJXJXJXJXKXKXKXKXJXKXKXJXKXKXKXJXJXKXKXKXKXKXKXKXKXKXKXKXKXKXKXKXJXKXKXJXKXKXGXE x m B B B N B B N N N N N N N N N N N N N N N N N N N N B B B N N N N N N N N N N N B B B B B N N N B N N N N N N N N N N B B N N N B m l x x l l l l l l l l l l l l 8 2 8 7 7 7 7 7 7 7 7 7 7 7 7 7 7 7 6 6 7 : - AXKXJXJXJXJXJXJXJXJXJXJXKXlXS.}.{.{.{.(.{.{.{.G.G.G.(.{.(.(.G.(.(.(.G.G.(.(.G.G.G.G.G.G.G.G.G.G.G.G.G.G.G.^.^.G.).).^.).).).^.^.J.H.K.I.I.I.I.K.P.Y.P.P.Y.Y.Y.Y.Y.Y.L.L.L.L.L.L.U.L.L.L.L.L.L.L.L.U.        ",
"          U.U.L.L.L.U.U.L.U.U.U.U.U.L.L.U.U.U.L.U.U.L.L.L.U.U.L.L.L.L.L.U.U.L.U.U.U.L.L.L.K.P.P.].].].'.`.[.[.`.K.[.`.`.K.`.`.K.K.I././././.F.F.J.oX!.&.,.e.4.4.2.2.2.2.e.%.m.GX9X8X9X9X9X9X9X9X9X8XdX9X6 5 q 4 9 n N n m m m m m n m m m m m m m m m n m n n n n n n m m m m m n m n n m n m n n m m m m n n n n n m m m m n n n n n m m m m m m m m m m m m m m m m m m m m m m m m m m m m m m m m m m m m m m m m m m m m x E KXKXJXJXJXJXJXJXJXJXJXKXKXJXKXKXKXKXKXKXKXKXKXKXJXJXJXKXKXJXJXJXJXJXJXJXJXJXJXJXJXJXKXJXJXJXJXJXJXJXJXJXJXJXJXJXJXJXJXJXJXJXJXJXJXKXJXKXKXKXKXKXJXJXKXKXKXKXKXKXKXKXKXKXKXKXKXJXJXKXKXKXJXKXJXE c N B B B B B N N N N N B N N N N m N B N N N N N N N N B N N N N N N N N N N N N B B B B B N N N N N N N N N N N N N N B N N N B B B n l l x x x x l l l l l l l x z 7 6 7 7 7 7 7 7 7 7 7 7 7 7 7 7 7 7 6 6 8 = f KXJXJXJXJXJXJXJXJXJXJXKXLXV.E.{.{.{.{.{.(.G.G.(.(.(.{.(.(.G.(.(.(.G.G.(.(.G.G.G.G.G.G.G.G.G.G.G.G.(.(.G.(.^.G.).^.^.^.^.^.).^.^.F.F.I.I.I.I.I.P.Y.P.P.P.P.Y.Y.Y.Y.L.L.L.L.L.L.U.L.L.L.Y.L.Y.U.L.U.        ",
"          L.L.L.L.L.U.U.U.U.U.U.U.U.U.L.L.U.U.U.U.U.U.U.L.U.U.U.L.U.U.U.U.U.L.L.U.U.L.L.L.K.K.[.[.[.K.K.`.`.`.`.K.`.`.K.K.`.K.K.K.H.F.^./.^.F.^.OX!.&.2.e.2.4.2.0.2.2.4.>.=.VXsX9X9X9X9X9X9X9X8X8XiXsXb > q w 0 c N n m m m m m n n n m m m m n m m m m n n n n n n m m m m m m n n m m m m n n m m m m m m m m m m m m m m m n n n m m m m m m m m m m m m m m m m m m m m m m m m m m m m m m m m m m m m m m m m m m m m x A KXKXJXJXKXJXJXJXJXJXKXJXKXKXKXJXKXKXJXJXJXJXKXKXKXKXJXJXJXJXJXJXJXKXKXJXJXJXJXJXJXKXKXJXJXJXJXJXJXKXKXJXJXKXKXJXJXKXJXKXJXJXJXJXJXKXKXKXKXJXKXKXKXJXKXKXKXKXKXKXKXKXKXKXKXKXKXKXKXKXKXKXKXJXKXKXJXE c N B B B B N N N N B B N N N N N N N N N N N N N N N N N N N N N N N N N N N B N N B N B B N N N N N N N N N N N N N B N N B B B B N n l x x x x x l l l l l l l x a 2 6 9 7 7 7 7 7 7 7 7 7 7 7 7 7 7 6 6 7 6 = wXKXJXJXJXJXJXJXJXJXKXKXKXnXS.}.{.{.{.{.{.G.G.G.G.G.(.(.(.(.(.(.(.G.G.(.(.G.G.G.G.G.G.G.G.G.G.G.G.).(.(.(.G.^.G.G.^.^.^.^.^.^.^.^.F.F.I.K.I.I.P.P.L.Y.Y.Y.Y.Y.Y.Y.Y.L.L.Y.L.L.L.L.L.L.U.L.L.L.U.L.        ",
"          L.L.L.L.L.L.L.U.U.U.U.U.U.U.U.L.U.U.U.U.U.U.U.L.U.U.L.L.L.U.U.U.U.L.U.U.U.L.K.K.K.K.K.[.`.K.K.'.`.`.`.`.`.K.K.K.`.K.K.K.F.F.^./.F.(.OX!.;.3.e.e.0.2.4.2.2.2.0.%.%XCX8X9X9X9X9X9X9X9X8X2XBX[ : w w w v N n n m m m n n n n n m m m m n n m m m n n n n n n m m m m m m m m m m m m n n m m m m m m m m m m m m m m n n n n n m m m n m m m m m m m m m m m m m m m m m m m m m m m m m m m m m m m m m m m m m m x A JXKXJXJXJXJXJXJXJXJXKXKXKXKXKXKXKXJXKXJXJXJXJXKXKXJXKXJXKXJXJXJXJXJXJXJXJXKXKXJXJXKXJXKXJXJXKXJXKXKXKXJXJXKXKXJXKXKXJXJXJXKXJXJXJXJXKXJXJXJXJXKXJXJXJXKXKXKXKXKXKXKXKXKXKXKXKXKXKXKXKXKXKXKXKXKXKXKXJXE c B B B B N N B B B N N N N N N B B N N N N N N B B B B B N N N N N N N N N N N B B B B B N N N N N N N B N N N N N N N N B B B N B B c l x x x x l l l l l l l l x i < 7 7 7 7 7 7 7 7 7 7 7 7 7 7 7 6 7 7 7 : 1 LXKXJXKXJXJXJXJXKXJXJXKXJXC.E.{.{.(.{.{.(.G.G.G.R.(.(.(.(.G.(.(.G.G.(.(.G.(.G.G.G.G.G.G.G.G.G.G.G.G.G.G.G.^.G.G.^.^.^.^.^.^.^.G.).F.K.K.F.K.I.P.L.Y.Y.Y.P.Y.Y.Y.Y.L.L.Y.Y.L.L.L.U.L.L.L.U.L.U.L.        ",
"          U.Y.Y.Y.U.U.U.L.U.L.L.L.L.L.U.U.U.U.U.L.U.U.U.U.L.L.L.U.L.U.U.U.L.U.U.U.U.L.K.K.K.K.K.[.[.K.K.K.K.[.`.`.K.K.K.K.`.`.K.K.^.F.I.F._.OX!.&.2.e.2.0.0.0.2.2.0.e.;.-.CXiX9X9X9X9X9X9X9X8X2XpXsXs 5 w w z N m n m m m m m m m m m m m m m m m m m n n n n n n m m m m m m m m m m m m m m n m m m n n n m m m m m m m m m m m n m m m m m m m m m m m m m m m m m m m m m m m m m m m m m m m m m m m m m m m m m m c M HXKXJXJXJXJXJXJXJXKXKXJXKXKXKXKXKXKXJXJXJXJXJXJXJXJXJXJXJXJXJXJXJXJXJXJXJXJXJXJXJXKXKXKXKXKXKXKXKXKXKXKXKXKXKXKXKXKXKXKXJXJXJXJXJXJXJXJXKXJXJXJXJXJXJXJXKXKXKXKXKXKXKXKXKXKXKXKXKXKXKXKXKXKXKXKXJXKXKXKXGXC c N B B B B B B B B N N N N B B B N N N N N N B B N N B N N N N N N N N N B B N B B B B N N N N N N N N N N N N N N N N N N N N B B N c l x x x x l l l l l l l l l 9 2 7 9 7 7 7 7 7 7 7 7 7 7 7 7 7 7 7 w 0 = _ KXJXJXKXJXJXJXJXJXJXJXKXDXB.{.{.{.{.{.{.(.G.{.(.(.G.(.G.G.G.(.(.G.G.(.(.(.G.G.G.G.G.G.G.G.G.G.G.).G.G.G.G.G.G.^.^.^.^.^.^.^.G.).H.I.I.H.I.P.U.L.Y.Y.P.P.P.Y.Y.Y.K.K.Y.Y.L.L.L.L.L.L.L.U.U.U.L.        ",
"          L.L.U.Y.U.U.U.L.U.U.L.L.L.L.L.U.U.U.U.L.U.U.U.U.L.L.U.U.U.U.U.U.L.U.U.U.U.P.K.P.P.P.K.`.[.K.K.`.K.`.`.`.K.K.K.K.K.`.F.F.F.K.F._.OXb.&.0.0.0.0.0.0.0.0.4.2.0.*.qXNX8X9X9X9X9X9X8X8X2X8XBX` : w w l N m m n m n n m m m m m m m m m m m n n n n n n n m m m m m m m m m m m m m m m m m m n m m n m m m m m m n m m m m m m m n m m m m m m m m m m m m m m m m m m m m m m m m m m m m m m m m m m m m m m m c n fXKXJXJXKXJXJXJXJXJXKXKXJXKXJXJXJXKXKXJXJXJXJXJXJXJXJXJXJXJXJXJXJXJXJXJXJXKXKXKXKXKXKXFXSXeX;X' ' ' ` ` ' ' ' ;XtXSXFXJXKXKXKXKXKXJXJXJXJXJXJXJXJXKXKXJXJXKXJXKXJXJXKXKXKXKXKXKXKXKXKXKXKXKXKXKXKXKXJXKXKXKXZXV n B B B B B B B B B N N N B B B N N N B B B B N N B B N N B B N N N N N B N N B B B B N N N N N N N N N N N N N N N N N N N N N N B m c l l x x l l l l l l l l x k 6 3 9 7 7 7 7 7 7 7 7 7 7 7 7 7 6 6 6 7 w = uXKXJXKXJXJXJXJXJXJXJXJXKX~.S.}.R.{.{.{.{.(.(.{.(.G.(.(.G.G.(.(.G.(.(.(.(.G.G.G.G.G.G.G.G.G.G.G.).G.G.G.^.G.G.).G.^.^.^.^.(.^.).F.I.I.H.I.P.K.L.P.Y.Y.P.P.Y.Y.Y.L.K.Y.Y.L.L.L.L.L.L.L.L.U.U.U.        ",
"          L.L.L.L.L.L.U.L.U.U.U.U.U.U.U.U.U.U.U.U.U.U.U.L.L.L.U.U.U.L.U.U.U.U.U.K.K.U.P.P.P.P.[.`.K.K.K.`.`.`.`.K.K.K.K.K.K.F.F.F./.F.|.OX6.&.0.e.0.e.0.2.2.0.0.4.4.;.6.CX9X9X9X9X9X9X9X8X8X2XdX3X< 4 5 z N m n m m n m m m m m m m m m m n m n n n n n n n n m m m m m m m m m m m m m m n m m n m m m m m n m m m m n m m m m m m m n m m m m m m m m m m m m m m m m m m m m m m m m m m m m m m m m m m m m m m n v >XKXJXJXKXKXJXJXJXJXJXJXJXJXJXJXJXJXJXJXJXJXJXJXJXJXJXJXJXJXJXJXJXJXJXJXKXKXKXKXHXeX' _ d i 0 7 7 w w 7 4 5 w w 4 4 8 r d ` :XSXJXKXKXKXKXJXJXKXKXJXJXKXJXKXKXJXKXKXKXKXKXKXKXKXKXKXKXKXKXKXKXKXKXKXKXKXKXJXKXKX0XM m B B B B B B B B B B B N N N N N N B N B N B B B N N N B B N N N N N N N N B B B B B B N N N N N N B B N N N N N N N N N N N N N B m x l x x x l l l l l l l l x s < 7 9 7 7 7 7 7 7 7 7 7 7 7 7 6 6 7 6 w > f KXJXJXJXJXJXJXJXJXJXKXKXDXA.E.{.{.{.{.(.(.(.{.(.(.(.(.(.(.G.G.G.(.(.(.(.(.G.G.G.G.G.G.).(.G.G.G.G.G.G.G.G.G.G.F.F.).^.^.^.^.^.H.I.I.H.K.I.P.K.P.Y.Y.Y.Y.Y.Y.Y.L.L.Y.Y.L.L.L.U.L.L.L.L.L.Y.U.        ",
"          L.U.L.L.L.L.L.U.U.L.L.U.L.L.L.U.U.U.U.U.U.L.L.L.U.U.U.U.U.L.L.U.U.U.U.L.K.K.L.P.P.P.].K.K.`.K.`.`.`.`.K.F.K.K.`.F.^.F.F.D.|.OX6.>.e.e.0.e.e.e.2.2.4.0.2.w.&.mXNX8X8X9X9X9X9X9X9X8X9XdXb : 0 z N n n m m m m m m m m m m n m n n n m m n n n n n m m m n m m m m m m m m m m m m m m m m m m m m m n m m m m m n n n m m m m m m m m m m m m m m m m m m m m m m m m m m m m m m m m m m m m m m m m m m n l  .KXJXJXJXKXJXJXJXJXJXJXJXJXJXJXJXJXJXJXJXJXJXJXJXJXJXJXJXJXJXJXJXJXJXKXKXKXSX*X_ i w 5 w q y u u u u u u u u u u u u y q w 5 w t d ' uXKXKXKXKXJXKXJXJXKXKXJXJXKXJXKXJXJXJXKXKXKXKXKXKXKXKXKXKXKXKXKXKXKXKXJXJXKXKX[ c m N B B B B B B B B B N N N N B N B B N N N N N N B B N B B B B N B B B B B B B B B B N N N N N N B B B N N N N N N N N B N N N N B n l l x x l l l l l l l l l x r 3 9 7 7 7 7 7 7 7 7 7 7 7 7 7 7 7 7 6 7 = *XKXJXJXJXJXJXJXJXJXJXJXKX@XA.}.R.{.{.{.(.(.(.(.(.(.G.(.(.G.(.G.G.G.(.(.(.G.G.G.G.G.G.G.G.G.G.^.G.G.G.G.G.G.G.F.G.^.^.^.^.^.F.F.H.H.I.K.I.P.P.P.P.Y.Y.Y.Y.P.P.P.K.L.L.L.L.L.L.L.L.U.U.L.L.U.        ",
"          U.U.U.L.L.U.U.U.L.L.L.U.U.L.L.U.U.U.U.U.U.L.L.L.U.U.U.L.L.U.U.U.U.L.P.L.L.K.K.P.P.P.'.K.`.K.K.`.`.K.K.K.K.K.F.`././.).J.|.OX6.>.e.e.e.e.e.e.e.0.2.2.2.4.;.8.FXiX9X9X9X8X9X9X9X8X2XdX#.< w z m n m m m m m n n m m m m m m m m n n m n n n n m n n n n n n m m m m m m m m m m m m n n m m m m m m m m m m n n n n m m m m n m m m n m m m m m m m m m m m m m m m m m m m m m m m m m m m m m m m m m m l A KXKXJXJXJXJXJXJXJXJXJXJXJXJXJXJXJXJXJXJXJXJXJXJXJXJXJXJXJXJXJXJXKXKXKXJXwX_ 0 5 5 q y u u u u u u u p u u p u u u u u u u u u u y q 5 w d ' SXKXKXKXKXKXJXJXKXJXJXKXKXKXJXJXJXKXKXKXKXKXKXKXKXKXKXKXKXKXKXKXKXJXJXKXKXE c N B N N B B B B B N N B B B N N B B N N N N B N N B B B B N B B B B B B B B B B N N N N N N N B B B B N B N N N N N N B N B N B N B n l l l l l l l l l l l k l k 6 6 7 7 7 7 7 7 7 7 7 7 7 7 7 7 7 7 7 8 : < LXKXJXJXJXJXJXJXJXJXJXKXPXV.E.{.{.{.{.(.(.(.(.(.(.G.(.G.(.(.G.G.(.(.(.(.G.G.G.G.G.G.G.G.G.G.^.G.G.G.G.G.G.G.G.G.G.^.^.^.^.).F.H.H.I.K.K.P.U.P.P.Y.Y.Y.Y.K.P.Y.Y.L.L.L.L.L.L.U.U.U.U.L.L.L.        ",
"          Y.U.U.U.L.L.U.U.L.L.L.U.U.L.L.U.U.U.U.L.L.U.U.U.U.U.U.L.L.U.U.U.U.U.L.K.K.P.P.P.P.P.I.`.K.K.`.K.`.K.K.K.K.K.F././.I.F. XOX5.;.t.e.e.e.e.e.e.e.0.2.2.2.w.%.qXNX8X9X9X9X8X9X9X8X8X9XpXd : z m m m m n m m m m m m m m m m m m m m n n n n n n m n n n n n m m m m m m m m m m m m n n n n n n n m m m n m m n n n n n n m n m m n m n n m m m m m m m m m m m m m m m m m m m m N N m m m m m m m m m m c M GXKXJXJXJXJXJXJXJXJXJXJXJXJXJXJXJXJXJXJXJXJXJXJXJXJXJXJXJXJXJXJXKXKXKX*Xd 4 5 q u u u u u u u p p p p p p p u u u p p p p u u u u p u u u w 5 4 _ yXKXKXKXKXKXKXKXJXKXJXJXKXJXJXJXKXKXKXKXKXKXKXKXKXKXKXKXKXKXKXKXKXKXKXFXV n N N N B B B B N N B B B B N N N N N N B B N B N B B N B N B B B B B B B B B B B B B N N N N N N B B B N N N N N N N N N N N B N B N x l l l l l l l l l l l l l i < 7 7 8 9 8 7 7 7 7 7 7 7 7 7 7 6 6 7 8 = _ KXJXJXJXJXJXJXJXJXJXJXKX@XS.{.{.{.{.{.{.(.(.{.(.(.(.(.(.G.(.(.(.(.(.(.G.G.G.G.G.G.G.G.G.G.^.G.G.G.G.G.G.G.F.G.^.^.^.^.G.^.).H.H.H.K.K.P.U.U.P.Y.Y.Y.Y.K.P.Y.Y.L.L.L.L.L.L.U.U.L.L.U.L.L.        ",
"          Y.U.U.U.U.U.U.L.U.L.L.L.U.L.L.U.U.U.U.U.U.U.U.U.U.U.U.U.U.U.U.P.K.L.K.K.K.U.P.P.K.K.K.`.K.`.K.K.`.`.K.K.F.K.F././.D. XOX5.>.e.2.e.e.e.e.e.e.e.4.4.4.e.&.8.CX8X9X9X9X9X9X9X9X8X2XdX[ : k m n n m n m m m m m m m m n n m m m m n n n n n n n m m n n n n n m m m m m m m m m m n n n n n n m n m m n n n n n n n n n n n n m m m m n n m m m m m m m m m m m m m m m m m m m N N N m m m m m m m m m n l 6XKXJXJXJXJXJXJXJXJXJXJXJXJXJXJXJXJXJXJXJXJXJXJXJXJXJXJXJXJXJXJXKXKX:Xd 5 5 u u u u u u u u u u p p p p u p p u u p p p p p p u u p p u u u u u y 5 4 _ SXKXKXJXJXJXJXJXKXJXJXKXKXJXJXKXKXKXKXKXKXKXKXKXKXKXKXKXKXKXKXKXJXKX4XM m N N N N N N N N B B B B B B N N B B B B B N N B N B B B B N N B B B B B B B N B B B B B B N N B B B B N B N B N N N N N N B N N N m x k l l l l l l l l l l l k 9 6 7 7 9 9 7 7 7 7 7 7 7 7 7 7 7 7 6 8 4 - SXKXJXJXJXJXJXJXJXKXJXJXLXS.E.{.{.{.{.{.(.(.{.{.(.(.(.(.(.(.(.G.G.G.(.G.G.G.G.G.G.G.G.G.G.^.^.G.G.G.G.G.G.G.).^.^.F.).^.^.^.H.H.F.K.I.P.K.L.P.Y.Y.Y.Y.Y.Y.Y.Y.Y.Y.Y.L.L.L.L.L.L.L.U.L.L.        ",
"          Y.U.U.U.U.U.L.L.U.L.L.U.U.U.U.U.U.L.U.U.U.U.U.U.U.U.L.U.U.L.L.U.P.L.L.K.K.P.P.P.K.[.`.`.`.K.K.K.K.`.K./.F././.`.F.|..X5.>.e.e.e.e.e.e.e.e.e.4.2.4.4.q.*.uXNX8X9X9X9X9X9X9X9X8X9XiXd t m m n m m n m m m m m m m m m m m m n n n n n n n n n n m m m m n m m m m m m n m m m m n n n n n n m m m m n n n n n n n n n n n n n n m m n n m m m m m m m m m m m m m m N m m m m N N N m m m m m m m n m l A KXKXJXJXJXJXJXKXJXJXJXJXJXJXJXJXJXJXJXJXJXJXJXJXJXJXJXJXJXJXKXKXMXZ 5 w u u u u u u u u u u u p p p p u u u p u u p u u p p p p u u u u u u u u p u t 5 w ' LXKXKXJXJXKXJXJXJXKXJXJXJXKXKXKXKXKXKXKXKXKXKXKXKXKXKXKXJXKXKXKXKXE c N N N B N N N N B B B B N N N N N B B B B N B N N B B B B N N B B B B B B B N N B B B B B B B B B B B B B N B N N N N N N N N N N B n l l l l l l l l l l l l l a < 6 8 7 7 7 7 7 7 8 7 8 7 7 7 7 7 7 6 8 = _ KXJXJXJXJXJXJXJXJXJXJXKX@XW.}.{.{.{.{.(.(.(.{.G.(.G.(.(.(.(.(.G.(.(.(.G.G.G.G.G.G.G.G.G.(.^.G.G.G.G.G.G.G.G.G.^.G.).^.^.^.F.F.F.H.I.P.P.U.U.U.Y.Y.Y.Y.P.K.L.Y.Y.Y.U.L.L.L.L.L.U.U.L.L.        ",
"          Y.Y.Y.U.L.U.U.U.Y.U.U.U.U.U.U.U.U.U.U.L.L.U.U.U.U.L.L.U.L.L.L.K.P.L.K.P.P.P.P.P.P.P.`.[.[.K.K.K.K.K.K.`.`.F./.F.XX.X<.<.r.e.e.e.e.e.e.e.e.0.0.2.0.r.:.8.CX9X8X9X9X9X9X9X8X8X2XsX[ i m m n m m m n m m m m m m m m m m m m n n n n n n n n n n m m m m m m m m n m m m m n n m n n n n n n n m m n m n n m m m n n n n n n m n n n m m n m m m m m m m m m m m m N N m m m N m N N N m m m m m m m c x AXKXJXKXJXJXJXJXJXJXJXJXJXJXJXJXJXJXJXJXJXJXJXJXJXJXJXJXJXJXKXJX' w 5 u u u u u u u u u u u p u p p p p p p p p p p p p u u p p p p u u u u u u u u u u u q > d uXKXKXKXKXJXJXJXKXKXKXJXJXKXKXKXKXKXKXKXKXKXKXKXKXKXKXKXKXKXJXKXCXm n B B B N N N N N N N N N N N N N N N N N N N N B B B N B B B B B B B B B N B B B B B B B B B B B B B B B B B N N N N N N N B B B B B c l l l l l l l l l l l l l i < 7 8 7 7 8 8 7 7 7 8 7 7 7 7 7 7 7 7 4 - MXKXJXJXJXJXJXJXJXJXJXKXHXV.R.{.{.{.{.{.(.(.(.G.(.G.G.G.(.(.(.(.G.G.(.(.G.G.G.G.G.(.^.G.G.G.G.G.G.G.G.G.^.G.G.G.^.^.^.^.).G.F.F.F.K.P.P.U.L.L.U.U.U.Y.Y.K.L.L.L.L.L.L.L.L.L.L.L.L.L.L.        ",
"          U.Y.Y.U.U.U.U.U.U.U.U.U.U.U.U.U.U.U.U.U.U.U.U.U.U.U.U.U.U.K.L.K.K.L.K.K.K.K.P.K.K.P.`.`.[.`.K.K.K.K.K.K././.J.XX.X<.<.r.e.e.e.e.e.e.e.e.0.e.0.0.0.3.&.MXsX8X9X9X9X9X9X8X8X8XiX8Xv x m n m m m m m m m m m m m m n m n m n n n n n n n n n n n m m m m m m n m n m m n n n n n n n n n m m m m m m m m m n m m n n n m m m m m n m m m n m m m m m m m m m m m N N N m m m m m N N N m m m m m m m s ;XKXJXJXJXJXJXJXJXJXJXJXJXJXJXJXJXJXJXJXJXJXJXJXJXJXJXJXJXKXKXgXf : y p s u u u u p p u u u u u u p p p u p p p p p p p p p p p p p p u u p u p u u u u u u u u w w _ JXKXKXJXJXJXJXKXJXJXKXJXKXKXKXKXKXKXKXKXKXKXKXKXKXKXKXKXJXJXKX#.c N B B B B B B B B N N B N N N N N N N N N B B B B B N B B B B B B B B B N N N B B N N B B B B N B N N N B N N N N N N B N B B B B B N c l l l l l l l l l l l l l 9 3 8 8 8 8 7 7 7 7 7 7 7 7 7 7 7 7 7 8 = f KXJXJXJXJXJXJXJXJXJXJXKX@XS.}.{.{.{.{.(.(.(.(.(.G.(.G.G.(.(.(.G.(.(.(.(.G.G.G.G.G.^.G.G.G.G.G.G.G.G.G.G.).G.G.^.^.^.^.^.^.J.F.H.K.I.K.U.L.K.U.Y.U.Y.Y.P.L.L.K.K.L.L.L.L.U.L.L.L.L.L.        ",
"          L.U.U.U.U.U.L.L.U.U.U.L.U.U.U.U.U.U.U.U.U.U.U.U.U.U.U.P.P.K.K.K.K.K.K.K.K.K.K.P.P.].K.K.`.`.`.`.`.K.F././.J.XX.X<.,.r.e.e.e.e.e.e.e.e.e.e.e.2.0.e.;.7.CX8X8X8X8X8X8X9X8X2X8XsXE z m m m m m m m m n n m m m n n m m n n n n n n n n n n n n n n m m n n n n n m m m n n n n n n m n m m m m m m m m m m n n n n n n m m m n m m m m m m m m m m m m m m m m m m m m m m m m m N N m m m m m m B u Z KXJXJXJXJXJXJXJXJXJXJXJXJXJXJXJXJXJXJXJXJXJXJXJXJXJXJXJXKXKX' w 5 u u u u u u u p p p p p p p p u u p p p p p p p p p p p p p p p p u p p p p u u u u u u u u u u y 5 f SXKXKXKXJXJXKXKXJXKXJXKXKXKXKXKXKXKXKXKXKXKXKXKXKXKXKXKXJXKXJXC c B B B B B N B B B B B N N N N N N N N B B B B B B N B B B B B B B B B N N N N N N N B B N N B B N N N N N N B N B B N N B B B B B B m l l x l l l l l l l l l x a < 6 8 8 8 7 8 7 7 7 9 9 9 8 9 8 7 7 7 4 = uXKXJXJXJXJXJXJXJXJXKXJXLXV.E.(.{.{.{.{.(.(.(.(.G.G.(.(.(.(.(.(.(.(.(.(.G.G.G.G.^.G.G.G.G.G.G.G.G.G.G.G.G.G.G.^.^.^.^.^.^.).F.F.F.I.K.U.U.L.Y.Y.U.U.K.P.Y.Y.L.L.L.L.L.L.U.L.L.L.L.L.        ",
"          U.U.U.U.U.L.L.L.L.L.U.U.U.U.U.U.U.U.U.U.U.U.U.L.L.L.L.L.K.K.K.P.P.K.K.K.K.K.P.P.].].K.K.K.`.`.F.K./././.J.XX.X<.,.r.e.e.e.e.e.e.e.e.e.e.e.0.e.4.,.&.MXiX2X9X8X8X8X8X8X8X2XiX2Xv c m m m m m m m m n m m m n n n m m n m n n n n n n n m n n n m m m n n n n n m n m m m n n n n n n m m m m m m m m m n n n n n n n m n m m m m m m m m m m m m m m m m m m m m m m m m m m m N N m m m m m B x w fXKXJXJXJXJXJXJXJXJXJXJXJXJXJXJXJXJXJXJXJXJXJXJXJXJXJXJXKXKX' : q u u u u u u p p p p p p p u p p u u p p p p p p p p p p p p p p p p u u p u u u u u u p u u u u u u p 5 6 eXKXKXJXJXJXKXJXJXJXKXKXKXKXKXKXKXKXKXKXKXKXKXKXKXKXKXKXJXKXfXM m B B B N N B B B N N N N N N N N N N B B B B N N B B B B B B B B B B B N N N N N B N N N B N N N B B N B B B N N N N B B B B B N B B n l l x l l l l l l l l l x r < 7 8 8 7 7 7 7 7 8 8 8 8 8 8 7 7 7 w = f KXKXJXJXJXJXJXJXJXJXJXKX@XS.}.{.{.{.{.(.(.(.(.(.(.(.(.(.(.(.(.G.G.(.(.(.G.G.G.).(.G.G.G.G.G.G.G.G.G.G.G.G.^.^.).^.^.^.^.).F.F.F.I.K.P.U.U.U.Y.U.U.L.P.Y.U.L.L.K.L.L.L.L.L.U.Y.L.L.        ",
"          U.U.U.Y.Y.L.L.L.L.L.Y.Y.Y.Y.U.U.U.U.U.U.U.U.U.U.L.L.K.K.L.L.K.P.P.K.K.K.K.K.K.K.[.`.K.K.K.K.`.+XK././.J.XXQ.<.,.y.e.e.t.e.e.e.t.e.e.e.0.0.0.e.e.:.n.BX2X8X9X8X2X8X2X8X8X8XsXE l m m n m m m m m m n m n n n m m m m n n n n n n n n n m n n n m n m n n n n n n m m m m n n n n n m m m m m m m m n n n n n n n n m m m m m m m m m m m m m m m m m m m m m m m m m m m m m m m m N m m m N B 5 _ KXJXJXJXJXJXJXJXJXJXJXJXJXJXJXJXJXJXJXJXJXJXJXJXJXJXJXKXKX_ 5 y u i u p p u u u p p p p p u p p p u p p p p p p p p p p p p p p p p p p p p u u u u p p p u u u u u u u p w 4 :XKXKXJXJXKXKXJXKXJXJXKXKXKXKXKXKXKXKXKXKXKXKXKXKXJXJXKXKXKX[ n B B B N B B B B N N N N N N N N N B B B B B N N B B B B B B B B B B B N B B N B B B B B B N N N B B B N B N N N B N N N B B N B B B B n l l x l x l l l l l l l k 6 3 8 8 8 8 7 7 8 7 8 8 8 8 7 7 7 8 7 7 = yXKXJXJXJXJXJXJXJXJXKXKXPXV.E.{.{.{.{.{.(.(.(.(.(.(.(.(.G.(.(.G.G.G.G.G.G.G.G.G.G.G.(.G.G.G.G.G.G.G.G.G.G.^.^.).^.^.^.^.)./.).H.H.K.K.U.U.Y.Y.U.U.U.U.U.U.L.L.L.L.L.L.L.L.U.L.L.K.        ",
"          U.U.U.Y.Y.U.Y.Y.Y.Y.Y.Y.Y.Y.U.U.U.U.U.U.U.U.U.U.U.U.K.K.K.L.P.P.K.K.K.K.K.K.K.K.K.K.K.K.K.K.K././.+X^.OXQ.<.,.r.e.e.e.e.e.t.t.t.t.e.e.0.0.e.2.w.*.qXsX8X8X9X8X2X8X8X8X2XpX2Xm c m m m m m m m m m m m n n n m m m n n n n n n n n n n m n n m m m n n n n n n n m m m m n n n n m m n m m m m m m m n n n m m m n m m m m m m m m m m m m m m m m m m m m m m m m m m m m m m m m m m m m B i 5 VXKXJXJXJXJXJXJXJXJXJXJXJXJXJXJXJXJXJXJXJXJXJXJXJXJXJXKXJXZ 5 u p u u p p u u u p u p p p p u p u p p u p p p p p p p p p p p p p p p p p p p p u p p p p p p p p p u u u u p w 4 ;XKXKXKXKXJXJXJXJXJXKXKXKXKXKXKXKXKXKXKXKXKXKXKXKXJXKXJXKXZXN m N N B B B B N N N N N N N N B N N B B B B B B B B N N B B B B B B B B B B N B N N N N N N N N B B B N N N N B B N N N N N N N N N N m x l x x x x x l l l l l x p 2 7 7 8 8 7 8 8 8 7 8 8 7 7 8 7 7 7 8 > f KXJXJXJXJXJXJXJXJXJXJXKX@XS.}.{.{.{.{.(.(.(.(.(.(.(.(.(.(.(.(.G.G.G.G.G.G.(.G.G.G.G.G.G.G.G.G.G.G.G.G.G.^.G.G.).^.^.^.F.F.).).H.H.K.P.U.U.U.L.L.Y.Y.U.Y.Y.L.L.L.L.L.L.L.K.L.L.L.        ",
"          U.U.U.Y.Y.U.U.Y.Y.Y.U.U.U.U.U.U.U.U.U.U.U.U.U.L.K.P.L.L.K.P.P.P.K.K.K.K.K.K.[.K.K.K.K.`./././.+X+XJ.OXC.>.2.y.e.e.e.e.e.e.t.e.e.e.e.e.e.e.e.t.;.8.CX9X8X8X8X8X8X8X8X2X8XdX( x m m n m m m m m m m m m m m m m m m m n n n n n n n n n n m m m m n n n n n n n n m m m m m n n n n n m m m m m m m m n n m m m n n m m m m m m m m m m m m m m m m m m m m m m m m m m m m m m m m m m N B z , ` KXJXKXJXJXJXJXJXJXJXJXJXJXJXJXJXJXJXJXJXJXJXJXJXJXJXKXJXZ 5 u p u u u u p u u u u p p u p u u p u p p u p p p p p p p p p p p p p p p p p p p p p p p p p p p p p p u u u u u p y 5 *XKXKXJXKXKXJXJXJXKXKXKXKXKXKXKXKXKXKXKXKXKXKXKXKXKXKXKXKX[ c N N B B B B B N N N N N N N N N N N N N B N N B N B N N B N B B N N B B B N N N N N N N N N N N B N N N N N N B B N B B N N B N N N B n l l x x x x l l l l l l x 8 4 8 8 8 8 9 9 7 7 8 8 7 7 8 7 7 7 7 4 = eXKXJXJXJXJXJXJXJXJXJXKXPXS.R.{.{.{.{.{.(.(.(.(.(.(.(.(.(.(.(.G.G.G.G.G.G.G.G.G.G.G.G.G.G.G.G.G.G.G.G.G.G.G.G.^.^.^.^.).F.F.).H.H.P.K.L.U.U.L.L.Y.Y.U.Y.Y.Y.L.L.L.L.L.L.L.L.L.L.        ",
"          U.U.U.U.U.U.U.Y.Y.Y.U.U.U.U.U.U.U.L.U.U.U.U.U.K.K.K.P.U.P.P.P.P.K.K.K.K.K.K.K.K.K.K.`.`././.+XF.^.XX!.>.0.r.e.t.t.e.e.e.t.e.e.e.e.e.e.e.e.e.e.%.%XBX8X8X9X8X8X8X8X8X2XpX2Xm c m m m m m m m m m m m m m m m n m m m n n n n n n n n n n m m n n n n n n n n n n m m m m m n n n n n m m m m m m m n n m m m m n n n m m m m m m m m m m m m m m m m m m m m m m m m m m m m m m m m m B n 5 4 NXKXJXJXJXJXJXJXJXJXJXJXJXJXJXJXJXJXJXJXJXJXJXJXJXJXKXKX_ 5 u p u u u p u u p p p p p p p p p u p p p u u p p p p p p p p p p p u u u p p p p p p p p p p p p p p p u u u u u u u p q : ;XKXJXKXJXJXJXJXKXKXKXKXKXKXKXKXKXKXKXKXKXKXKXKXKXKXKXKXVXm n B N B B B B B B B N N B N N N N N N B N N N N N N B N N N N B B N B B N N N N N N N N N B B N B B N B B B B B B B B B N N N N N N B B c l l x x x x l l l l l x k 3 8 8 8 8 9 7 7 8 8 9 7 8 8 8 7 7 8 0 > f KXKXJXJXJXJXJXJXJXJXJXKX@XW.}.{.{.{.{.(.(.(.(.(.(.(.(.(.(.(.(.G.G.G.(.G.G.G.G.G.G.G.G.G.G.G.G.G.G.G.H.G.^.^.^.G.^.^.^.).).H.H.H.K.K.K.U.U.L.L.Y.Y.L.Y.Y.Y.P.K.K.L.L.L.L.L.L.L.        ",
"          U.U.U.U.U.U.U.U.U.U.U.U.U.U.U.U.U.U.U.U.U.U.L.K.K.U.P.P.P.P.].K.K.K.K.K.K.K.K.K.K.K././././.F.^.OX!.>.e.y.r.e.e.e.e.e.e.t.t.e.e.e.e.0.e.e.e.<.-.NXiX8X9X9X8X8X8X8X8X8XsX[ x m m m m m m m m m m m m n m m n n m m n n n n n n n n n n n n n n n n n n n n n n m m n n m n n n n n n m n n m m m m m m m m m m n n m m m m m m m m m m m m m m m m m m m m m m m m m m m m m m m m m B x t > A KXKXJXJXJXJXJXJXJXJXJXJXJXJXJXJXJXJXJXJXJXJXJXJXJXJXKX' > u p p p p p p p p p p p p p p u p p p p p u u p p p p p p p p p p p u u p u u u p p p p p p p p p p p p u u u u p u u u u p q 4 eXKXJXJXJXJXJXJXKXKXKXKXKXKXKXKXKXKXKXKXKXKXKXKXKXKXKXKXE c N B B B B B B B B B N N B N N N N B B N B N N N N B N N B B B N N B N N N N N N N N N N N B N B B B B B N N B B B B B N N N N N N N B m x l l x l x l l l l l l x i 3 8 8 8 8 8 8 8 8 8 8 9 8 8 8 7 8 w w - uXKXJXJXJXJXJXJXJXJXJXJXDXS.{.{.{.{.{.(.(.(.(.(.(.(.(.(.(.(.(.G.G.G.(.G.G.G.G.G.G.G.G.G.G.G.).G.G.G.H.).(.).^.^.^.^.^.^.).).H.H.I.P.L.L.L.L.U.Y.U.L.U.U.U.P.K.L.L.L.L.L.L.L.U.        ",
"          U.U.U.U.U.U.L.L.U.U.U.U.U.L.U.U.U.U.U.U.K.L.L.L.P.K.K.K.K.P.P.].[.K.K.K.`.K.K.K.K.`./././.F._.OX!.>.e.s.r.e.e.e.e.e.t.t.t.e.e.e.e.0.0.2.2.e.:.$XNX9X8X9X9X8X8X8X8X2X9X8XN c m m m m m m m m m m m n n m m n n m n n n n n n n n n n n m m n n n n n n n n n n n n n n m n n n n m m m n n m m m m m m m m m m n n m m m m m m m m m m m m m m m m m m m m m m m m m m m m m m m m B c t w q aXKXJXJXJXJXJXJXJXJXJXJXJXJXJXJXJXJXJXJXJXJXJXJXJXJXKXeX5 y p p p p p p p p p p p p p p u u p p p p p u u p p p p p p p p p p u p p u u u u p p p p p p p p p p p u u u u p u u u u u u p 5 6 AXKXJXKXKXJXJXKXKXKXKXKXKXKXKXKXKXKXKXKXKXKXKXKXKXKXKXaXm N B B B B B B B B N B N N N N N N N N B B N B B B N N N N N N N N B N N N N N N N N N N N B N B N N B N N B B B B B B B N N N N N N N N n l l x x x x l l l l l x z 6 7 8 7 7 8 9 7 7 8 8 8 9 8 8 7 7 7 0 > f KXKXJXJXJXJXJXJXJXJXJXJXC.E.(.{.{.{.{.(.(.(.(.(.(.(.(.(.(.G.G.G.G.G.G.G.(.(.G.G.G.G.G.G.).).G.G.G.G.G.G.).).^.^.G.^.^.).).H.H.I.I.U.L.K.U.U.U.Y.U.U.Y.P.L.L.L.L.L.L.L.L.L.U.        ",
"          U.U.U.U.U.U.L.L.U.U.U.U.U.U.U.U.U.U.U.K.K.P.L.K.K.K.K.K.K.P.P.P.`.K.P.P.K.K.K.K.K.K.+X`.F._.OX!.>.s.d.r.e.y.r.e.e.e.t.t.t.e.e.e.e.e.0.0.4.9.&.gXpX8X9X8X8X8X8X8X2X1XpX| x m m m m m m m m m m m m m n m n n n n m n m m n n n n n n n m m m m m m m n n n n n n n n n m m n n m m m m m n n m m m m n m m m m m m m m m m m m m m m m m m m m m m m m m m m m m n m m m m m m n B n u y 5 Z KXKXJXJXJXJXJXJXJXJXJXJXJXJXJXJXJXJXJXJXJXJXJXJXJXKXSX8 q s p p p p p p p p p p p p p p p p p u p p p p p p p p p p p p p p p u p p u u u p p p p p p p p p p p p u u u u p u u p u u u u p 5 d JXKXJXKXKXKXKXKXKXKXKXKXKXKXKXKXKXKXKXKXKXKXKXKXJXKXKXG n N B B B B B B B B N N N N N N N N N B B N B B B B B B B B B N N N N N N N N B N N N N N N B B N N N B N B B B B B B B B N N N N N N N N c l l l x x x l l l l l x i 3 8 8 7 8 8 7 7 7 8 8 8 8 8 8 8 7 8 7 - yXKXJXKXJXJXJXJXKXJXJXKXnXA.}.{.{.(.{.{.(.(.(.(.(.(.G.G.(.(.G.G.G.G.G.G.G.G.G.).G.G.G.G.G.G.G.G.G.G.G.G.).).^.).F.).).).).H.H.I.I.U.U.U.U.U.Y.Y.U.U.Y.P.L.L.L.L.L.L.Y.U.L.L.        ",
"          Y.U.L.L.U.U.L.L.U.U.U.U.U.U.U.U.U.U.U.K.K.K.K.K.K.K.K.K.P.P.P.P.K.K.P.K.K.K.K.K./.+X+XF._.XXc.<.d.d.y.t.e.y.t.t.t.t.t.t.t.t.e.e.e.e.0.0.e.:.7.NX9X2X9X8X8X8X8X2X2X9X9XV c m m m m m m m m m m m m n n n n n n m m m m m n m m m m m n n n m m m m m n n n n n n n n n n m n m m m m m m m m m m m n n m n n n m m m m m m m m m m m m m m m m m m m m m m m m m m m m m m m m B n u u u w :XKXJXJXKXJXJXJXJXJXJXJXJXJXJXJXJXJXJXJXJXJXJXJXJXKXJXd 5 a p p p p p p p p p p p p p p p p p p p p p p p p p p p p p p p p p p u u p u u u u u p p p p p p u u p p u p p p u p p p p p u u p p 5 ` KXKXKXKXKXKXKXKXKXKXKXKXKXKXKXKXKXKXKXKXKXKXKXJXKXKX#.n B B B B B B B B B B B B N N B B N N B B N B B B B B B B B B N N N N N N B B N N N N N N N N N N N N N N B B B B B B B B B N N N N N N N m x l x x x x l l l l l x k 6 6 8 8 8 8 8 8 8 7 8 8 8 8 8 8 7 7 0 = S KXKXJXJXJXJXJXJXJXJXKXLXV.E.{.{.{.{.{.(.(.(.(.(.(.(.G.(.(.G.G.G.G.G.G.G.G.).G.G.G.G.G.G.G.G.G.G.G.G.G.G.^.^.).).).).).).).H.F.I.U.U.U.L.Y.Y.U.Y.U.Y.P.K.L.L.K.K.L.Y.U.L.L.        ",
"          Y.U.U.U.U.U.L.L.U.U.U.U.U.U.U.U.K.K.L.K.K.K.K.K.K.K.K.K.K.K.P.P.`.K.K.K.K.K.`.`.K.`.J._.OXc.,.s.d.s.e.t.t.t.t.t.t.t.t.t.t.t.e.0.e.e.2.0.0.*.qXsX8X9X8X8X8X8X8X2X<XsXo.c n m m m m m m m m m m m m m n m m m m n n m m m m m m m m m n n n m m m n n n n n n n n n n n m m n m m m m m m m m m m m n m n n n m m n n n m m m m m m m m m m m m m m m m m m m m m m m m m m m B n p u p q s FXKXJXJXJXJXJXJXJXJXJXJXJXJXJXJXJXJXJXJXJXJXJXJXJXKX' 5 p u p p u u p p u p p p p p p p p p p p p p p p p p p p p p p p p p p p u p p u u u u u u u p p p p p p p p p u u u p p p p p p p u u u u 5 eXKXJXKXJXKXKXKXKXKXKXKXKXKXKXKXKXKXKXKXKXKXKXKXJXKXBXB N B B B B B B B B B B B B B N N N B B B B B B B B B B B N N N N N N N N N N N N N N B B N N N N N N N N B B B B B B B B B N N N N N m N N n l x x x x l l l l l l x i 3 8 7 8 8 8 7 7 8 7 8 8 8 8 7 7 7 0 4 - AXKXJXJXJXJXJXJXJXJXJXKX@XS.}.{.{.{.{.(.{.{.(.(.(.(.G.G.G.G.G.G.G.G.G.G.G.G.G.G.G.G.G.G.G.G.G.G.G.G.G.).G.^.^.^.^.^.).F.).).H.F.P.U.U.Y.Y.U.U.U.Y.U.P.K.L.L.K.K.L.Y.L.L.L.        ",
"          U.U.U.U.U.U.U.L.U.U.U.U.U.U.U.U.U.K.K.K.K.L.[.[.`.K.K.P.P.K.[.K.P.K.K./.`././.K.+XF. XOXa.,.d.s.g.y.e.t.t.t.t.t.t.t.t.e.t.t.e.0.e.e.2.e.;.6.CX8X8X8X8X8X8X2X2X2X8X9XG c n m m m m m m m m m m m m m m m m m m n n m m m m m m m m m m n n m m m n n n n n n n n n n m m m n n m m m m n n m m m m m m n m m n m n n n n m m m m m m m m m m m m m m m m m m m m m m m m n B n u u p p w ` KXJXJXJXJXJXJXJXJXJXJXJXJXJXJXJXJXJXJXJXJXKXJXJXKXSX0 y p p p p p p p p p p p p p p p p p p p p p p p p p p p p p p p p p u p p u p u u u u u u u p p u p u u u u p u u u u p p p p p p p p u u p q d LXKXJXJXKXKXKXKXKXKXKXKXKXKXKXKXKXKXKXKXKXKXKXKXKXKXE m B B B B B B B B B B B B B B B B B B B B B B B B B B B B B B B N N B B B B N N B B B B N N N N N N B B N B B B B B B B B N N N N N m m N N x x x x x x x l x l l l l 7 6 8 8 8 8 8 8 8 8 8 8 8 8 8 8 7 7 0 = ] KXJXJXJXJXJXJXJXJXJXKXPXS.{.{.{.{.{.(.{.{.(.(.(.(.(.(.G.G.G.G.G.G.G.G.G.G.G.G.G.G.G.G.G.G.G.G.G.G.G.).F.^.^.^.^.^.).F.).).H.H.I.U.U.U.Y.U.Y.U.Y.Y.U.K.K.L.K.K.L.Y.L.L.L.        ",
"          U.U.U.U.U.U.U.U.L.U.U.U.U.U.K.K.U.K.K.K.K.[.[.[.[.[.[.P.K.K.[.K.P.K.K.+X+X`.`./.F. X.Xa.,.d.s.s.g.y.t.y.y.y.t.t.t.t.t.e.e.e.e.e.0.0.0.0.*.%XNX<X8X8X8X8X2X2X2X<XpXo.c n m m m m m m m m m m m n m m m n m m m m m n n n m m m m m m m m m n n n n n n n n n n n m m m m m m n n m m m m n n m m m m n m n m n n m n n m n m m m m m m m m m m m m m m m m m m m m m m m B M p u p p p 5 :XKXJXJXJXJXJXJXJXJXJXJXJXJXJXJXJXJXJXJXJXJXJXJXKXKX_ w p p p p p p p p p p p p u p p p p u p p p p p p p p p p p p p p p p u u p p u u u u u u u u p p p p u p p p p p u u u u u p p p p u u u u u p 5 ' KXKXKXKXKXKXKXKXKXKXKXKXKXKXKXKXKXKXKXKXKXJXKXJXKX4XM B B B B B B B B B B B B B B B B B B N N B B B B B B B B B B B N N B N B B B B B B N B N N N N N N N N N B B B B B B B B B N N N N N N N N n x x x x x x x l l l l x s 4 8 8 8 8 8 8 8 8 8 8 8 8 8 7 7 w w : 1 JXKXJXJXJXJXJXJXJXJXJXKX~.D.{.{.{.(.(.(.(.(.(.(.G.(.(.G.G.G.G.G.G.G.G.G.G.G.G.G.G.G.G.G.G.).G.G.G.G.^.^.G.^.G.G.^.^.).).).H.H.I.U.U.U.Y.U.Y.U.Y.Y.Y.K.K.K.K.L.U.L.L.L.L.        ",
"          U.L.L.U.U.U.U.U.U.U.U.U.U.U.U.U.U.L.K.[.K.K.].[.[.[.[.K.K.K.K.K.[.`.`.`.K.`.`.F. X.Xa.,.d.s.s.g.j.t.t.y.y.y.t.t.t.t.t.e.e.e.e.e.e.0.e.,.=.CXiX8X9X8X2X8X8X8X8X2XiXG x m m m m m m m m m m m m m m m m m m m m m m m n n m m m m m m m m m m n n n n n n n n n n n m m m m n n n m m m m m m m m m n n n n m m m m m m m m m m m m m m m m m m m m m m m m m m m m m m N n p p a p p q s FXKXJXJXJXJXJXJXJXJXJXJXJXJXJXJXJXJXJXJXJXJXJXJXKXyXt p p p p p p p p p p p p p p p p p p p p p p p p p p p p p p p p p p p p u u u u u u u u u u u p p p p u p p p p p p u u p p p p p p u u p u u p y 0 AXKXKXKXKXKXKXKXKXKXKXKXKXKXKXKXKXKXKXKXKXKXJXKXKXCXN m B B B B B B B B B B B B B N B B B N N N B B B B N B B B B B B B B B B B B B B B B B B B B B B B B B B B B B B B B B B B N N N N N N N N N c x x x x x x x l l l l l 7 6 8 8 8 8 8 8 7 7 8 8 8 8 7 7 w w 7 = ;XKXJXJXJXJXJXJXJXJXJXKXIXS.}.(.(.(.(.(.(.(.(.(.(.(.G.G.G.G.G.G.G.G.G.G.G.G.G.G.G.G.G.G.G.G.G.G.G.G.^.^.^.^.^.^.^.^.F.).).).H.I.P.U.U.U.Y.Y.Y.U.Y.Y.K.K.K.K.U.U.U.L.L.L.        ",
"          U.U.U.U.U.L.U.U.U.U.U.U.U.U.U.P.K.K.[.`.`.`.].].[.[.K.K.K.K.K.[.`.`.`.`./.+XF.XX.X0.3.s.f.g.d.g.y.t.y.y.t.t.t.t.t.t.t.e.e.e.e.e.e.e.e.&.7.CX2X8X9X8X2X8X8X8X2XiX<Xm n m m m m m m m m m m m m m m m m m m m m m m m m n n m m m m n n m m m m n n n n n n n n m m m m n m m n n m m m m m m m m m m n n n m m m m m m m m m n m m m m m m m m m m m m m m m m m m n B m p p p p p p 5 _ KXJXJXJXJXJXJXJXJXJXJXJXJXJXJXJXJXJXJXJXJXJXJXKXKXZ q a p p p p p p p p p p p p p p p p p p p p p p p p p p p p p p p p p p p p p p u u u u p u u u u p p p u p p p p p p p u u p p p p p p p p u u u p 5 _ KXKXKXKXKXKXKXKXKXKXKXKXKXKXKXKXKXKXKXKXKXKXKXKXKXE m B B B B B B B B B B B B B N B B B B N N B B B B B B B B B B B B B B B B B B B B B B B B B B B B B B B B B B B B B B B B N N N N N N N N B m x x x x x x x l l l l x s 6 8 8 8 8 8 8 8 8 8 8 8 7 7 8 w w 8 - f KXKXJXJXJXJXJXJXJXJXKXJXT.R.{.(.{.{.{.(.(.(.(.(.(.G.G.G.G.G.G.G.G.G.G.G.G.G.G.G.G.G.G.G.G.G.G.F.H.^.^.G.^.^.^.^.).F.F.).).H.H.I.P.U.U.Y.U.Y.Y.P.P.K.K.K.L.U.U.L.L.L.L.        ",
"          U.U.U.U.U.U.U.U.U.U.U.U.U.U.P.K.K.K.K.`.[.].].[.[.`.`.`.[.K.K.`.`.`.`.`./.F.XX].w.0.d.j.f.d.g.g.t.t.y.y.t.t.t.t.t.t.t.t.e.e.e.e.e.e.0.%.qXdX2X8X8X8X8X8X8X8X2XsX[ x m m m m m m m m m m m m m m m m m m m m m m m m m n n m m m m n m m m m m n n n n n n n m n m m m n m m n n n n m m m m m m m m n n n m m m m m n n n n n m m m m m m m m m m m m m m m m m m B m s u p p p p p 5 *XKXJXJXJXJXJXJXJXJXJXJXJXJXJXJXJXJXJXJXJXJXJXJXKXgXw u a p p p p p p p p p p p p p p p p p p p p p p p p p p p p p p u p p p p p p p p p p u u u u u u p p p u u p p u p p p p u p p p p p p p p u u p p y 7 VXKXKXKXKXKXKXKXKXKXKXKXKXKXKXKXKXKXKXKXKXKXKXKXKX[ m N V B B B B B B B B B B N N B B N N N N N N B B B B B B B B B B B N B B B B B B B B B B B B B B B N B B B B B B B B B B N N N N N N N m N N n x x x x x x l l l l x l 8 7 8 8 8 8 8 8 8 8 8 8 7 7 8 7 8 0 4 < VXKXJXJXJXJXJXJXJXJXJXKXlXS.}.{.{.{.{.(.(.(.(.(.(.(.G.G.G.G.G.G.G.G.G.G.G.G.G.G.G.G.G.G.G.G.G.F.H.G.G.G.F.F.).).).).F.).).H.F.'.P.U.U.U.U.Y.P.P.U.K.K.U.U.L.U.Y.L.U.L.        ",
"          U.U.U.U.U.U.U.U.U.U.U.U.U.U.K.[.[.[.`.[.[.[.[.[.[.`.[.K.`.`.`.`.`./.+X+XF.XX].,.0.g.f.s.s.f.g.f.e.t.t.y.t.t.t.t.t.t.e.e.e.e.e.e.e.e.>.-.BX8X8X9X8X8X8X8X8X8X9XiXC c m m m m m m m m m m m m m m n m m m m m m m m m m n m m m m n n n m m m m n n n n n n m n n n n m m m m n m m n m m m m m m m m n n m m n m m m m m m m m m m m m m m m m m m m m m m m m m B m a u a a p a p u t SXKXJXJXJXJXJXJXJXJXJXJXJXJXJXJXJXJXJXJXJXJXJXKXKX` w p p p p p p p p p p p p p p p p p p p p p p p p p p p p p p p p p p p p p p p p p p p u u u u u u p u u p u u u u p p p p u p p p p u p p p u u u u p 5 ` KXKXKXKXKXKXKXKXKXKXKXKXKXKXKXKXKXKXKXKXKXKXJXKX0Xm N B B B B B B B B B B B N N N N N B N N N N B B B B B B B B B B B B B B B B B B B B B B B B B B B B B B B B B B B B B B N N N N N N N N m N m c x x x x x l l l l l x s 3 8 8 8 8 7 8 7 7 7 8 7 7 7 7 w 0 0 = ' KXJXJXJXJXJXJXJXJXJXKXDXS.}.{.{.(.(.{.(.(.(.(.(.(.G.G.G.G.G.G.G.G.G.G.G.G.G.G.G.G.G.G.G.G.G.H.).G.G.).).).F.F.).).^.).).H.H.I.P.U.U.U.U.U.P.P.P.Y.L.U.U.L.U.U.L.L.L.        ",
"          U.U.U.U.U.L.U.U.U.U.U.U.U.U.L.[.[.[.[.[.[.[.[.[.[.`.K.K.`.`.`.`.`.K.+X+XXX].,.0.g.f.d.s.f.g.h.y.e.t.t.y.t.t.t.t.t.e.e.e.e.e.e.e.0.t.*.$XBX2X8X8X8X8X8X8X8X2XsX#.c m m m m m m m m m m m m m m m n m m m m m m m m m m n m m m n n n n m m m m n n n n n n n n n n n n m n m m m m m n m m m m m m m m n m m m m m m m m m m m m m m m m m m m m m m m m m m m N m a p a a a a p a y d JXKXJXJXJXJXJXJXJXJXJXJXJXJXJXJXJXJXJXJXJXJXKXKXAXi u a a p a a p p p p p p p p p p p p p p p p p p p p p p p p p p p p p p p p p p p p p p p p u u u p p p p p u u u u p p p p u u p p p p u p p p u u u p q 8 AXKXJXJXKXKXKXKXKXKXKXKXKXKXKXKXKXKXKXKXKXKXKXKXZXD m B B B B B B B B B B B N N N N N B B N N N B B B B B B B B B B B B N N B B B B B B B B B B B B B B B B B B B B B B B B B B B N N N N N N N B n x x x x x x l l l l x l 8 6 8 8 7 7 8 8 7 8 8 8 7 7 7 w 0 0 : 1 FXKXJXJXJXJXJXJXJXJXKXJXQ.E.}.{.(.{.{.(.(.(.(.(.(.G.G.G.G.G.G.G.G.G.G.G.G.G.G.G.G.G.^.G.G.G.H.F.H.G.G.).).).).).).^.).).H.).I.P.K.P.P.P.U.P.P.P.U.U.U.U.L.L.L.L.L.L.        ",
"          U.U.U.U.U.L.U.U.U.L.L.L.L.K.[.[.`.`.`.[.[.[.[.[.`.K.`.[.K.`.`.+X+X+XF.XXQ.,.e.h.s.f.f.f.g.h.j.t.t.t.y.y.t.t.t.t.t.e.e.e.e.e.e.e.e.w.*.gXpX8X9X8X2X8X9X8X2X8XpXG x m n m m m m m m m m m m m m m m m m m m m m m m m m m m m n n m m m m m m m n n n n n n n n n n n m m m m m m m m m m m m m m m m n m m m m m m m m m m m m m m m m m m m m m m m m m m m B m a u a a a a a p a q Z KXKXJXJXJXJXJXJXJXJXJXJXJXJXJXJXJXJXJXJXJXJXJXKX;Xq p p a a a a p p p p a p p p p p p p p p p p p p p p p p p p p p p p p p p p p u p p p p p u u u u p p p p p p p u u p p p p p p p p p p p p p p p p u u p 5 ' KXKXKXKXKXKXKXKXKXKXKXKXKXKXKXKXKXKXKXKXKXKXKXKXE m B B B B B B B B B B B B B N N N N N N B B B B B B B B B B B B N N B B N N B B B B B B B B B B B B B B B B B B B B B B B B B B N N N N N N N m c x x x x x l l l l x x i 3 8 8 8 8 8 8 7 7 8 8 7 7 7 8 0 w 8 - *XKXJXJXJXJXJXJXJXJXJXKXxXS.}.{.{.{.{.(.(.(.G.(.(.G.G.G.G.G.G.G.G.G.G.G.G.G.G.G.G.G.G.G.F.F.F.F.).G.G.).F.^.).G.).).).).).).).I.P.P.P.U.U.P.P.Y.Y.Y.U.U.U.U.L.L.L.L.        ",
"          U.U.L.U.L.U.U.U.U.L.L.L.K.K.].[.[.[.`.[.[.].[.[.`.K.`.[.`.`.`.`.+XF.XXT.,.r.k.f.d.f.g.g.g.h.f.e.y.t.y.y.t.t.t.t.t.e.e.e.e.e.e.e.t.>.6.BX8X8X0X0X8X8X8X8X3XpX3Xn n n m m m m m m m m m m m m m m m m m m m m m m m m m m m m m n m m m m n n n n n n n n n n n n n m m m m m m n n n n n n m m m m n n m m m m m m m m m m m m m m m m m m m m m m m m m m N N k u a a a a a a a a q ' KXJXJXJXJXJXJXJXJXJXJXJXJXJXJXJXJXJXJXJXJXJXKXKXZ w a p a a a a p p p p p a p p p p p p p p p p p p p p p p p p p p p p p p p p p u u u p p p u u u u u u p u p p u u p p p p p p p p u p p p p p p p p p u p w d JXKXKXJXKXKXKXKXKXKXKXKXKXKXKXKXKXKXKXKXKXKXKXKX[ m B B B B B B B B B B B B B B B B B N B B B B B B B B B B B B B B B B B B N N N B B B B B B B B B B B B B B B B B B B B B B B B N N N N N N N B m x x x x x x x x l l x a 6 7 8 7 8 8 8 7 7 8 7 8 8 8 8 8 w 0 > f KXJXJXJXJXJXJXJXJXJXKXPXV.R.{.{.{.{.(.(.(.G.G.(.G.G.G.G.G.G.G.G.G.G.G.G.G.G.G.G.G.G.).).G.G.F.G.G.G.).).G.G.).G.).).).).).H.I.I.P.P.U.Y.Y.P.Y.U.L.U.L.L.L.L.L.L.U.        ",
"          U.L.L.U.Y.U.U.U.U.L.L.L.K.K.K.[.[.].].[.[.[.`.`.[.[.`.`.[.[.`.`./.OX!.,.t.h.g.d.f.f.f.g.h.h.y.e.y.t.t.t.t.t.t.t.t.e.e.e.e.e.0.0.t.*.$XdX8X0X0X0X8X8X8X2X8XpXE x m m m m m m m m m m m m m m m m m m m m m m m n m m n m m m m m m m n n n n n n n n n n n n n n n m n n n m m n n n n n n m m m n n m m m m m m m m m m m m m m m m m m m m m m m m m n m N k p a a a a a a a a p q :XKXJXJXJXJXJXJXJXJXJXJXJXJXJXJXJXJXJXJXJXJXJXKXVXy i a p p p p p p p p p a a p p p p p p p p p p p p p p p p p p p p p p p p p p p p u u p p p p u u u u u p u u p p u p p p p p p p p p p p p p p p p p p p u u 5 yXKXKXJXKXKXKXKXKXKXKXKXKXKXKXKXKXKXKXKXKXKXKXKX#.m N B B B B B N N B B B B B B B B B B B B B B B B B B B B B B B B B B B m m D D D B B B B B B B B B B B B B B B B B B B B B B B N N N N N N N B B c l x x x x x x x l l l t 3 8 8 7 8 8 8 8 8 7 7 8 8 0 8 w 8 6 < SXKXJXJXJXJXJXJXJXJXJXJX~.W.}.{.(.(.{.(.G.G.G.(.G.G.G.G.G.G.G.G.G.G.G.G.G.G.G.G.G.G.^.).F.F.H.G.G.G.).).F.).).).G.G.).).).).H.I.P.P.Y.U.Y.Y.Y.U.L.L.U.U.L.U.U.U.L.        ",
"          L.L.L.U.U.U.U.U.U.L.L.L.K.[.K.K.[.[.[.[.[.[.`.K.[.`./.`./.`./.^.OX!.<.i.g.g.g.g.g.j.j.f.h.f.e.t.t.y.t.t.t.t.t.t.t.e.e.e.e.e.0.0.w.&.tXpX2X0X8X0X8X8X7X2X8X2XV c m m m m m m m m m m m m m m m m m m m m m m m m m m m m m n n m n m n n n n n n n n n n n n n n n n n n n n m n n n n n m m m m m n m m m m m m m m m m m m m m m m m m m m m m m m n m N l p a a a a a a a a a p i yXKXJXJXJXJXJXJXJXJXJXJXJXJXJXJXJXJXJXJXJXJXJXKX;Xw p p a a p p p a a p p a a p p p p p p p p p p p p p p p p p p u p p p p p p p p p p u p p p p u u u u u p u u u p p p p p u u p p u u u u p p p u p u p p p u 5 ' KXKXKXJXKXKXKXKXKXKXKXKXKXKXKXKXKXKXKXKXKXJXKXaXm B B B B B B N B B B B B B B B B B B B B B B B B B B B B B B B N N B n N ~ ..} I D B D B B D D D B B B B B B B B B B B B B B B N N N N N N N N B m x l x x x x l l l l x a 3 7 8 8 8 8 8 8 8 7 7 8 8 8 8 8 8 0 = ' KXJXJXJXJXJXJXJXJXJXKXxXS.}.{.{.G.(.(.G.G.(.(.(.G.G.G.G.G.G.G.G.G.G.G.G.G.G.G.G.G.G.G.F.F.F.G.G.G.H.H.).H.F.).).F.^.).).).).I.P.P.U.U.U.Y.Y.Y.Y.K.K.L.Y.U.U.U.U.        ",
"          U.U.U.U.U.U.U.U.L.L.[.[.[.[.[.[.[.[.[.[.[.[.[.`.`./././././.`.OX!.<.i.g.g.g.g.g.j.j.g.g.h.y.e.y.y.y.t.t.t.t.t.t.e.e.e.e.0.e.0.4.:.6.dX8X7X7X0X0X7X7X8X2XiXo.n n n m m m m m m m m m m m n n n n m m m m m m m m m n m m n m m m m m n n n m n n n n n n m n n n n n n n n n n n m m m m n n m m m m m m m m m m m m m m m m m m m m m m m m m m m m m N l u a a a a a a a a a a u s VXKXJXJXJXJXJXJXJXJXJXJXJXJXJXJXJXJXJXJXJXJXKXKX` q p p a a p p p a a a a p p p p p p p p p p p p p p p p p p p p p u p p p p p u p p p u p p p u u u p u u u u u u u p u u p p u p p p u p p u p p u u u p p p p 5 f KXKXKXJXKXKXKXKXKXKXKXKXKXKXKXKXKXKXKXKXKXJXKXNXm N B B B B B B N B B B B B B B B B B B B B B B B B B B B N N B B N n m ) 2X2X<XX.^ D B B D D D B B B B B B B B B B B B B B B B B B N N N N N N N B c l x x x x x l l l l l r 4 0 8 8 8 8 8 0 7 8 8 8 8 8 8 8 0 : f JXKXJXJXJXJXJXJXJXJXKXPXS.{.{.{.R.{.(.(.(.(.(.(.G.G.G.G.G.G.G.G.G.G.G.G.G.G.G.G.G.G.J.F.F.F.F.G.G.).G.).).).).).).).).^.).).I.P.U.U.U.U.U.Y.U.U.U.K.L.U.U.L.L.L.        ",
"          U.U.Y.Y.U.U.U.L.L.[.[.K.].[.[.].[.[.[.[.[.[.`.`.`././.`.F.^.OX!.,.j.g.d.g.g.g.g.g.g.g.h.h.t.e.y.y.t.t.t.t.t.t.t.e.e.e.e.e.e.0.0.:.$XsX2X8X0X0X0X7X7X8X<XpXE c n n m m m m m m m m m m n m m m m m m m m m m m m m n n m n m m n n n m m m m m n m n n m n n n n n n n n n n n m m m n m n n m m m m m m m m m m m m m m m m m m m m m m m m m m m m B x u a a a a a a a a a a a y d GXKXJXJXJXJXJXJXJXJXJXJXJXJXJXJXJXJXJXJXJXJXKXJXb y a a a a p p p a a a a p p p p a p p p p p p p p p p p p p p p p p p p p p p u p p p p p p u u u u p u u u u u u u u u p p u p p p p p p p u u p p u p u u p p q 8 AXKXJXJXKXKXKXKXKXKXKXKXKXKXKXKXKXKXKXKXJXKXKXCXN m B B B B B B B B B B B B B B B B B B B B B B B B N B B B B B B m m ) 8X<X+.X.+.O.^ F B D D D D D F F F F F F D D B B B B B B B B B N N N N N N N m l x x x x x x l l l x s 4 7 8 8 8 8 8 7 8 8 8 8 8 8 8 8 0 7 - eXKXJXJXJXJXJXJXJXJXJXJX~.W.{.{.{.{.(.(.(.(.(.G.G.G.G.G.G.G.G.G.G.G.G.G.G.G.G.G.G.G.J.^.).G.).F.G.G.G.G.G.).).G.G.^.).).).).H.I.P.U.L.U.Y.U.Y.Y.U.K.U.U.U.L.L.L.        ",
"          U.U.U.U.U.U.L.K.L.[.[.K.[.].[.[.[.[.`.[.`.`.`.`.`././.F._.XXB.9.f.k.g.g.g.g.g.g.g.g.g.h.g.e.t.y.y.t.t.t.t.t.t.t.e.e.e.e.e.e.0.,.>.SX8X2X0X0X0X8X8X8X2X9X8XV n n m m m m m m m m m m m m m m m m m m m m m m m m m m m m m m n n n m n m m m m n m m n m n n n n n n n n n m m m m n n m m n m m m m n m m m m m m m m m m m m m m m m m m m m m m B v u p a a a a a a a a a a a y Z JXKXJXJXJXJXJXJXJXJXJXJXJXJXJXJXJXJXJXJXJXJXKXVXp u a a a a a p p p p a a a a a a a a p a a p p p p p p p p p p p p p p p p p p p p p p p p p u u u p u p u u u u p p p u u p p p p p p p p p p p p p p p p p u u y w uXKXJXKXKXJXJXKXKXKXKXKXKXKXKXKXKXKXKXJXJXKXKXFXG n B B B B B B B B B B B B B B B B B B B B B B B B B B B B B B B n W 9X<X<X+.O.O.X.{ ^ F D D D F H J K K J H J H H F D D B B B B B B N N N N N N N N c l x x x x x l l l l l 8 6 8 8 8 8 8 7 7 8 8 8 8 8 8 8 8 0 = ] KXJXJXJXJXJXJXJXJXJXKXxXS.}.(.{.R.G.(.(.(.(.G.G.G.G.G.G.G.G.G.G.G.G.G.G.G.G.G.G.G.J.^.G.G.G.H.).G.G.G.G.G.).).^.^.^.^.).).H.H.P.P.K.U.Y.Y.Y.Y.U.L.K.L.L.L.U.U.        ",
"          U.U.L.L.U.L.L.K.L.[.L.K.[.[.[.[.[.`.`.[.`.`.`.`.`.`.F._.OXc.,.j.g.g.g.j.g.g.g.g.g.g.g.h.y.e.t.t.t.t.t.t.t.t.t.t.e.e.e.e.e.0.0.;.n.NX<X7X7X7X7X8X8X2X<XpXo.n m m m m m m m m m m m m m m n m m m m m m m m m m m m m m n m n n n n m m m m m m n m m m m n n n n n n n n n m m m m n n m m n n m n m m m m m m m m m m m m m m m m m m m m m m m N x p a a a a a a a a a a a a a y Z KXKXJXJXJXJXJXJXJXJXJXJXJXJXJXJXJXJXJXJXJXJXKXeXt p a a a a a a a p a a a a a a a a a a a a a p p p p p p p p p p p p p p p p u p p p p u u p p p u u u u u u u u u p p p p p p p p u p p p p p p p p p p p p u u u 5 *XKXKXKXKXKXKXKXKXKXKXKXKXKXKXKXKXKXKXJXKXJXKXJXE n B B B B B B B B B B B B B B B B B B B B B B B B B B B B N B n D <X8X2X2X<X+.O.X.{ { ^ F D H H H H H H H J H J J H H F D B N B B B N N N N N N N N m x l x x x x l l l l x i 6 8 8 8 8 8 8 7 8 8 8 8 8 7 8 8 0 - 1 JXKXJXJXJXJXJXJXJXKXKXLXD.R.{.{.{.G.G.(.(.(.(.G.G.G.G.G.G.G.G.G.G.G.G.G.G.G.G.G.G.J.J.G.G.H.H.F.G.G.G.G.G.).H.).^.).^.^.).).H.I.P.P.U.U.Y.Y.Y.U.U.Y.U.U.L.L.U.        ",
"          U.L.L.L.L.L.L.L.[.[.K.K.[.[.[.`.[.[.`.K.`.`.`././.F._.OXc.,.h.g.g.g.g.g.f.g.g.g.g.g.g.h.y.e.t.t.t.t.t.t.t.t.t.t.e.e.e.e.e.0.q.:.$XdX2X7X2X8X2X2X2X1X1XpXE c m m m m m m m m m m m m m m m m m m m m m m m m m m m m m m n n n n n m m m m m m m m m m m n n n n n n m m m m m m m m m m m m m m n n m m m m m m m m m m m m m m m m n n m n m B x u a a a a a a p a a a a a a a q Z KXKXJXJXJXJXJXJXJXJXJXJXJXJXJXJXJXJXKXJXJXJXKX;Xq p a a a a a a a a a a p p p p p a a a a p p p p p p p p p p p p p p p p p p p p p p p p p u p u u u u u u u u u u u p p p p p p p p u u p p p p p p p u u u p u u 5 _ KXKXKXJXKXKXKXKXKXKXKXKXKXKXKXKXKXKXJXKXJXKXKXE n B B B B B B B B B B B B B B B B B B B B B B B B B B B B B m N } 9X2X2X2X<X<X+.X.{ } { ^ H H H H J J J J J J H J J H H H F D N N B B N B N N N N m N c l x x x x l l l l x k 7 7 8 8 8 8 0 8 8 8 8 8 8 7 8 7 8 7 - eXKXJXJXJXJXJXJXJXJXJXKX~.S.{.(.{.{.G.(.(.(.(.(.G.G.G.G.G.G.G.G.G.G.G.G.G.G.G.G.G.G.G.G.G.F.G.G.G.G.G.G.G.G.).).^.).^.^.).).H.H.P.U.P.P.P.L.U.P.U.Y.L.U.U.U.U.        ",
"          U.L.L.L.L.L.L.[.K.[.[.[.[.[.[.K.K.`.`.`.`.`./.`.+X XOXc.,.g.d.d.g.h.g.g.g.g.g.g.g.g.k.g.e.t.t.t.t.t.t.t.t.t.t.e.e.e.e.e.0.e.w.;.qXpX1X0X1X1X8X2X2X2X9X8XV c m m m m m m m m m m m m m n m m m m m m m m m m m m m m m n m n n n m m m m m m m m m m m m n n n n n n m m n m m n m m m m m m m m m m m m m m m m m m m m m m m m m m m n n n N x u p a a a a a a p p a a a a a p q ` KXJXJXJXJXJXJXJXJXJXJXJXJXJXJXJXJXJXJXJXJXKXKX' q p a a a a a a a a a a a a p p p a a a a p p p p p p p p p p p p p p p p p p p p p p p p p p p p u u p u u u u u u u u p p p p p p p p p p p p p p p p p p u u u u w Z JXKXKXJXJXKXKXKXKXKXKXKXKXKXKXKXKXJXJXKXKXKXKX[ n B B B B B B B B B B B B B B B B B B B B B B B B B B B B N c G 8X8X2X2X2X2X<X+.O...} } ..) H H J J J J J J J J J J J J H H H D B N N B B N N N N m N n x x l x x x l l l l l i 3 8 8 8 8 0 8 8 8 8 8 8 8 8 8 8 0 : _ KXJXJXJXJXJXJXJXJXJXKXcXS.{.{.{.{.(.(.(.(.(.(.G.G.G.G.G.G.G.G.G.G.G.G.G.G.G.G.G.G.G.G.G.G.G.G.G.F.H.F.F.G.G.).).^.^.^.^.).).H.P.P.P.P.P.K.U.L.U.Y.L.L.U.U.Y.        ",
"          U.L.L.L.L.L.K.K.K.[.[.[.[.[.[.[.K.`.`.`.`./.`.F. XOXc.9.g.h.g.h.g.g.g.g.g.g.g.g.g.g.h.y.e.t.t.y.t.t.t.t.t.t.t.e.e.e.e.e.0.e.<.1.NX8X7X0X7X1X1X1X1X3XiXo.M m m m m m m m m m m m m m m n m m m m m m m m m m m m m n n n m n n n m m m m m m m m m m m m m n n n n n n n n m m n m m n m m m m m m m m m m m m m m m m m m m m m m m m n m N x u p a a a a a a p a a a a a a p a q ` KXJXJXJXJXJXJXJXJXJXJXJXJXJXJXJXJXJXJXKXJXKXKXZ y a a a a a a a a a a a a a a p p a a p p p p p p p p p p p p p p p p p p p p p p p p p p p p p p p u u p u u u u u u u u p p p p p p p p p p p p p p p p p u u u p w d GXKXJXJXJXJXKXKXKXKXKXKXKXKXKXKXKXKXKXKXJXJXKX .n B B B B B B B B B B B B B B B B B B B B B B B B B B B B m B X.9X2X2X2X2X2X<X<X+.X.} } { { ^ H H K J J J J J J J J J F F H H H F D N N B B B N N m m N c l x x l x l l l k x s 6 7 8 8 8 8 8 8 8 0 8 8 8 8 8 8 8 2 d JXKXJXJXJXJXJXJXJXJXKXPXD.R.{.(.{.(.(.(.(.(.(.(.G.G.G.G.G.G.G.G.G.G.G.G.G.G.G.G.G.G.G.G.G.G.G.F.G.G.F.G.G.G.G.^.^.^.).^.).).).I.P.P.P.P.K.U.U.U.Y.U.L.U.U.Y.        ",
"          U.L.L.L.K.K.[.[.[.[.[.[.[.[.[.[.[.K.`.`.`.`.F. XOXu.,.h.g.g.h.g.g.g.g.g.g.g.g.g.g.g.g.e.e.t.t.y.t.t.t.t.t.t.t.e.e.e.e.e.e.e.*.7.NX1X7X7X0X7X7X7X1X1XpX[ c m m m m m m m m m m m m m m n m m m m m m n n n n m m n n n n n n m m m m m m m m m m m m m m m m n n n n n n m m m m m m m m m m m m m m m m m m m m m m m m m m m m m m m n N x u p a a a a a a a p p p a a a a a a q ' KXJXJXJXJXJXJXJXJXJXJXJXJXJXJXJXJXJXJXKXJXKXKXZ y a a a a a a a a a a a a a a a a p p p a a p p p p a p p p p p p p p p p p p p p p p p p p p p p p p u p u u u u u u u u u p p p p p p p p p p p p p p p u u u u p q i BXKXJXJXJXKXKXKXKXKXKXKXKXKXKXKXKXKXKXKXJXKXKX#.m B B B B B B B B B B B B B B B B B B B B B B B B B B B B n ~ 8X<X2X2X2X2X2X<X<X+.X.} { } } { ^ H J J J J J J P J P J J J J J J K H D B N B B B N m N B n x x l l l l l l l l l 8 6 8 8 8 8 8 8 8 0 8 8 8 8 0 8 8 7 2 eXKXJXJXJXJXJXJXJXJXKXKXC.E.{.(.(.(.(.G.G.(.(.(.G.G.G.G.G.G.G.G.G.G.G.J.G.G.G.G.G.G.G.G.G.G.F.G.G.G.G.G.G.G.G.G.G.).).^.^.H.I.I.I.P.P.P.K.U.K.U.Y.U.L.L.U.L.        ",
"          L.L.L.K.K.K.[.[.[.[.[.[.[.`.`.[.[.K.`.`.[.F. XOXu.9.k.g.h.h.g.g.g.g.g.g.g.g.g.g.g.h.s.e.t.t.t.t.t.t.t.t.t.t.t.e.e.e.e.e.0.0.&.%XpX7X0X7X7X7X7X7X1X8XiXV c m m m m m m m m m m m m m m m m m m m m m m n n n n n n n n n n n m m m m m m m m m m m n n n n n m m m m n n m m m n m m n m m m m m m m m m m m m m m m m m m m m m m m m B c u p a a a a a a a a a a a a a a a a p q  .KXJXJXJXJXJXJXJXJXJXJXJXJXJXJXJXJXJXJXJXJXKXJXb u a a a a a a a a a a a a a a a a p p p p a p a p a p p p p p p p p p p p p p p p p p p p p p p p p p u u p p u u u u u u u u u u u u p p p p p p p p p p p p p u u q i fXKXJXKXKXKXJXKXKXKXKXKXKXKXKXKXJXJXKXKXJXJXKX#.m B B B B B B B B B B B B B B B B B B B B B B B B B B B m N X.8X<X<X<X2X2X2X2X2X<XX.{ { { { } { ^ H I J P P P P J J J J J J J J J H K F N m B B N m N N m c l l l l l l l l l x s 6 8 8 8 8 8 8 8 8 8 8 8 0 8 8 0 0 - ] KXJXJXJXJXJXJXJXJXJXKXlXS.}.{.(.{.(.G.(.(.(.G.(.(.G.G.G.G.(.G.G.G.G.F.J.G.G.G.G.J.G.G.G.G.G.G.G.G.G.G.G.G.^.G.^.^.^.^.^.).I.I.I.I.P.U.U.K.K.K.U.U.L.L.U.L.        ",
"          U.U.K.K.K.K.].[.[.[.[.`.`.K.K.K.K.`.`./.F. X.Xu.w.k.d.g.h.h.h.g.g.g.g.g.g.g.g.g.g.h.y.e.t.t.t.t.t.t.t.t.t.t.t.e.e.e.e.e.e.,.=.VX9X7X0X7X7X7X7X1X1XiX@.m m m m m m m m m m m m m m m m m m m m m m m m n n n n n n n n n n m m m m m m m m m m m m n n n n n n m m m m m m m m m m m n m m m m m m m m m m m m m m m m m m m m m m m B n p p a a a a a a a a a a a a a a a a a p q ;XKXJXJXJXJXJXJXJXJXJXJXJXJXJXJXJXJXJXJXJXJXKXGXb u a a a a a a a a a a a a a a a a a p p p p p a a a p p p p p p p p p p p p p p p p p p p p p p p p p p p p p u u u u u u u u u u u u p p p p p p p p p p p p u u u y 0 eXKXJXKXKXKXJXKXKXKXKXKXKXKXKXKXJXJXKXKXJXJXKX#.m B B B B B B B B B B B B B B B B B B B N B B B B B B B n W 2X<X<X<X<X2X2X2X2X2X<XX.{ { { } } { } I J P P P P P P P P P P P J J J J J K F B m B B N N N N n l l l l l l l l l x z 8 6 8 8 8 8 8 8 8 8 8 8 0 0 0 8 0 4 e GXKXJXJXJXJXJXJXJXJXJXIXS.{.{.(.{.(.G.(.(.G.(.G.(.(.G.G.G.G.G.G.G.G.F.F.G.G.G.J.G.G.G.G.G.G.G.G.G.G.G.G.G.G.G.^.^.^.^.^.).H.P.I.I.P.U.U.U.U.K.L.U.U.U.Y.L.        ",
"          L.[.K.[.[.[.[.[.[.[.[.K.K.K.K.`.`.`.`.F. X.Xa.0.k.d.h.h.h.h.g.g.g.g.g.g.g.g.g.g.h.g.e.e.t.t.t.t.t.t.t.t.t.e.e.e.e.e.e.e.e.;.8.NX2X7X0X7X7X7X1X1X1XsX[ c m m m m m m m m m m m m m m m m m m m m m m m n n n n n n n n n n m m m m m m m m m m m n m m n n m n m m m m m m m m m m m m m m m m m m m m m m m m m m m m m m m m m m B n p p a a a a a a a a a a a a a a a a a a p q ;XKXJXJXJXJXJXJXJXJXJXJXJXJXJXJXJXJXJXJXJXJXKXFXz u a a a a a a a a a a a a a a a a a a a p p p a a a p a p p p p p p p p p p p p p p p p p p p p p p p p p p p p u u u u u u u p p u p p p p p p p p p p p p p p p u u w eXKXJXKXKXKXKXJXKXKXKXKXKXKXKXKXJXJXKXJXJXKXKX#.m B B B B B B B B B B B B B B B B B B B B B B B B B B m B ..8X<X<X<X<X<X2X2X2X2X<XO.{ { { } { } ..) J P P P P P P P P P P P P P P P J J K J B m N B N N B m x l x x l l l l l l x i 4 8 8 8 8 8 0 8 8 8 0 8 0 0 8 8 0 : uXKXJXJXJXJXJXJXJXKXJXLXT.E.{.(.{.{.G.G.(.G.(.G.G.G.(.(.G.G.G.G.G.G.G.G.G.G.F.J.G.F.F.F.G.G.G.G.G.G.G.G.G.G.G.).).^.^.^.).).'.I.I.I.P.U.U.U.U.U.U.U.U.U.U.        ",
"          L.L.K.[.].`.`.[.[.[.`.K.K.K.`.`.`.`.F.XX.Xu.q.h.d.h.g.g.h.g.g.g.g.g.g.g.g.h.g.g.h.f.e.t.t.t.t.t.t.t.t.t.e.e.e.e.e.e.e.0.e.&.$XNX1X7X7X7X7X1X7X1X8XiXG c m m m m m m m m m m m m m m m m m m m m m m m n n n n n n n n n n m m m m m m m m m m m m m m m n n m n m m m m m m m m m m m m m m m m m m m m m m m m m m m m m m m m B n a p a a a a a a a a a a a a a a a a a a a p q ;XKXJXJXJXJXJXJXJXJXJXJXJXJXJXJXJXJXJXJXJXJXKXZXk u a a a a a a a a a a a a a a a a a a a a a p p p p a a a p p p p p p p p p p p p p p p p p p p p u p p p p p p p u u u u u u p p p p p p p p p p p p p p p p p p p y w eXKXKXJXKXKXKXJXKXKXKXKXKXKXKXKXJXKXKXJXJXJXKX#.m B B B B B B B B B B B N N B B B B B N B B B B B B B n G 8X2X<X<X<X<X<X2X2X2X<X2X+.{ { { { } } { } Q P P P P P P P P P P P P P P P P J F K H B m N N N B B n l l x l l l l l l x a 6 7 8 8 8 0 0 0 0 8 0 8 8 0 8 8 0 : ] KXJXJXJXJXJXJXKXKXKXKX~.S.{.{.(.{.G.G.G.G.G.G.G.G.G.G.G.G.G.G.G.G.G.G.G.G.G.G.G.G.F.G.G.G.G.G.G.G.G.G.G.G.^.).G.G.^.^.).).H.I.K.K.P.P.I.U.U.U.U.U.U.U.U.        ",
"          [.K.K.[.P.[.[.`.`.`.`.`.`.`./.+X/.F.XX.X3.q.k.g.h.h.g.h.h.h.g.g.g.g.g.g.g.g.g.g.h.y.e.y.t.t.t.t.t.t.t.t.e.e.e.e.e.e.e.0.0.*.qXsX1X7X7X7X7X7X7X1X9X<XN c m m m m m m m m m m m m m m m m m m m m m m m n n n n n n n n n n m m m m m m m m m m m m m m m n m m n n m m m m m m m m m m m m m m m m m m m m m m m m m m m m m m B n a a a a a a a a a a a a a a a a a a a a a a p q  .KXJXJXJXJXJXJXJXJXJXJXJXJXJXJXJXJXKXJXJXJXKXZXz u a a a a a a a a a a a a a a a a a a a a p p p p p a p p p p p a p p p p p p p p p p p p p p p p p p p p p p p p u u u u u u u p p p p p p p p p p p p p p p p p p y 0 eXKXJXJXJXKXKXKXKXKXKXKXKXKXKXKXJXKXKXJXJXJXKX#.m B B B B B B B B B B B N N B B B B B B B B B B B B N N } 9X<X<X2X<X<X<X<X2X2X<X2X+...{ { { { { } { | I P U P U U U U P P P P P P P P P P P K J B m N B N B m x l x x l l l l l l l 8 6 8 8 8 0 0 0 0 8 0 0 8 8 8 0 0 2 f KXKXJXJXJXJXJXJXJXKXKXxXS.{.{.{.{.G.(.G.G.G.G.G.G.G.G.G.G.G.G.G.G.G.G.G.J.G.G.G.G.G.G.G.G.G.G.G.G.G.G.).G.^.^.G.G.^.^.).).H.I.I.K.P.I.K.K.U.P.U.U.P.K.L.        ",
"          [.[.K.`.].`.[.`.`.K.K.`.`././.K.F.XX.X5.q.k.g.h.h.h.h.h.h.g.g.g.g.g.g.g.g.g.g.g.g.e.e.y.t.t.t.t.t.t.t.t.e.e.e.e.e.e.e.0.,.1.VX9X7X7X7X7X7X7X1X3XpX| n n m m m N m m m m m m m m m m m m m m m m m m m n n m m n n n m n n m m m m m m m m m m m m m n m m m m n n m m m m m n n n m m n m m m m m n m m m m m m m m N m m m B m a p a a a a a a a a a a a a a a a a a a a a a p q  .KXJXJXJXJXJXJXJXJXJXJXJXJXJXJXJXJXJXJXJXJXKXFXz u a a a a a a a a a a a a a a a a a a a a p p a p p p p p p p p a p p p p p p p p p p p p p p p p p p p p p p u p p u u u u u u p p p p p p p p p p p p p p p p u u y 8 eXKXJXJXJXKXKXKXKXKXKXKXKXKXJXJXJXKXKXJXJXJXKX#.m B B B B B B B B B B N N N B B B B B B B B B B B B m G 2X2X<X<X<X<X<X<X2X2X2X<X<X+.{ { { { { { } { { ^ P U P U U U U U P P P P P P P P P P P K J D m B N N N c l x x l l l l l l x s 3 8 8 8 0 0 0 0 8 8 0 0 0 0 0 0 7 6 SXKXJXJXJXJXJXKXJXJXKXDXS.{.(.{.{.(.G.G.(.G.G.G.G.G.G.G.G.G.G.G.G.G.G.G.G.J.J.J.^.G.G.G.G.G.G.J.G.G.G.G.G.).G.).).^.^.^.H.H.F.H.I.P.P.K.`.K.P.U.Y.L.L.L.        ",
"          [.[.[.[.[.].[.`.K.K./.`.`.`.K.F.XX.X3.q.l.g.g.h.h.h.h.h.h.h.g.g.g.g.g.g.g.g.g.g.f.e.t.t.y.t.t.t.t.t.t.e.e.e.e.e.e.e.0.e.:.8.dX0X7X7X7X4X7X7X7X1X9XE c m m m m N m m m m m m m m m m m m m m m m m m n n m n n n n n m n n m m m m m m m m m m m m m m m m m n n n m m n m n n m m m m m m m m m m m m m m m m m m m m m m B m a p a a a a a a a a a a a a a a a a a a a a a a p q  .KXJXJXJXJXJXJXJXJXJXJXJXJXJXJXJXJXJXJXJXJXKXFXz u a a a a a a a a a a a a a a a a a a a a a a a a a a p p p p p p a p p p p p p p p p p p p p p p p p p p p p p p p p p u u p p p p p p p u p u p p p p p p u u u u y 0 eXKXJXJXJXKXJXKXJXKXKXKXKXKXJXJXJXKXKXJXJXJXKX#.m B B B B B B B B B B B N N N B B B B B B B B B B B m | 9X<X<X<X<X<X<X<X2X2X2X<X2X+...{ { { { { } { ..| I P U P P U U U U U U U U U U P P P P P K K D m N B B n x l l l l x x l l x l 8 8 8 8 0 0 8 8 0 0 0 0 0 8 0 0 0 > *XKXJXJXJXJXJXJXJXJXKXJXC.E.(.(.{.{.G.(.G.G.G.G.G.G.G.G.G.G.G.G.G.G.G.G.G.G.G.G.F.F.F.F.G.G.G.G.G.G.G.G.G.G.G.G.).^.^.^.F.F.I.I.'.'.I.P.].K.K.].U.U.U.U.        ",
"          [.[.[.[.`.[.K.K.`./././.`./.F.XXL.3.t.k.g.h.h.h.h.h.h.h.h.h.g.g.g.g.g.g.g.g.g.h.s.e.t.t.y.t.t.t.t.t.t.e.e.e.e.e.e.e.0.0.&.$XsX1X0X7X7X4X7X7X1X0X2XV c m m m m m m m m m m m m m m m m m m m m m m m n m m m n m n m m n n m m m m m m m m m m m m m m m m n m m n m m n m n m m m n m m m m m m m m m m m m m m m m m m B m a p a a a a a a a a a a a a a a a a a a a a a a a p q ;XKXJXJXJXJXJXJXJXJXJXJXJXJXJXJXJXJXJXJXJXJXKXFXz u a a a a a a a a a a a a a a a a a a a a a a a a a a a a p p p p a a a a p p p p p p p p p p p p p p p p p p p p p p p p p p u p p p p p p p u u p p p p p p u u u y 0 eXKXJXJXJXJXKXKXJXKXKXKXKXKXJXJXJXKXKXJXJXJXKX,XN B B B B B B B B B N B B B B B B B B B B B B B B m B O.9X<X<X<X<X2X2X<X<X2X2X<X2X<X..{ { { { { { { { { ! P U Y P P U U U U U U U U U U U P P U U K H B N B B m c l x x l l l l l l x r 7 8 8 8 0 0 0 0 0 0 0 0 0 0 0 t > _ KXKXJXJXJXJXJXJXKXJXKX@XS.{.(.R.(.G.(.(.(.G.G.(.G.G.G.G.G.G.G.G.G.G.G.G.G.G.G.G.F.F.G.G.G.G.G.G.G.G.G.G.G.G.G.^.^.^.^.).).H.I.).).I.P.'.'.'.'.].].].].        ",
"          [.[.[.[.[.`.`.`.`././.`./.^.OXT.,.t.h.h.g.h.h.h.h.h.h.h.h.h.g.g.g.h.g.g.g.g.g.h.y.e.t.t.t.t.t.t.t.t.t.e.e.e.e.e.e.0.0.w.>.qXiX0X0X0X7X7X7X7X1X9XO.m n m m N m m m m m m m m m m m m m m m m m m m m m n m m m n m m m m m m m n n m n m m n n m m n m m m m m m m m m m m n n m m m n n n m m m m m m m m m m m m m m B m k p a a a a a a a p a a a a a a a a a a a a a a a a p y ;XKXJXJXJXJXJXJXJXJXJXJXJXJXJXJXJXJXJXJXJXJXKXFXz u a a a a a a a a a a a a a a a a a a a a a a a a a a a p p p a a p a p a p p p p a p p p p p p p p p p p p p p p p p p p p p p p p p p p p p p u p p p p p p p u p y w eXKXJXJXKXKXKXJXJXKXKXKXKXKXKXJXJXKXJXJXJXJXKX,XB B B B B B B B B B B B B B B B B B B B B B B B B n G 8X<X<X<X<X<X2X2X2X<X2X2X<X2X<X..{ { { { { { { { X.| P U Y U P P U U U U U U U U U U U U P P U I H B N B B n l x x x l l l l l x s 7 8 8 8 8 0 0 0 0 0 0 0 0 0 0 t 4 9 GXKXJXJXJXJXJXJXKXJXKXnXS.}.{.{.(.G.(.G.(.(.G.(.G.G.G.G.G.G.G.G.).G.G.^.G.G.G.^.G.G.G.G.^.G.H.G.G.G.G.G.^.G.G.G.^.^.^.).^.F.H.I.I.I.I.`.'.'.'.].].P.].        ",
"          [.[.[.[.[.[.K.`././.`.`./.OXQ.,.p.h.h.h.h.h.h.h.h.h.h.h.h.h.g.g.g.g.g.g.g.g.h.f.e.t.t.t.t.t.t.t.t.t.t.e.e.e.e.0.0.0.0.<.6.NX2X7X7X7X7X7X7X1X1X9X| c n m m N m m m m m m m m m m m m m m m m m m m m m m m n n m m m m m m m m n m m n m m n m m n n m m m m m m m m m m m n n m m m n m n m m m m m m m m m m m m m N m k p a a a a a a a a a a a a a a a a a a a a a a a a a p y  .KXJXJXJXJXJXJXJXJXJXJXJXJXJXJXJXJXJXJXJXJXKXGXz u a a a a a a a a a a a a a a a a a a a a a a a a a a p a a p a a p a a a p p p p p p p p p p p p p p p p p p p p p p p p p p p p p p p p p p p p p p p p p p p u u y w eXKXJXKXKXKXKXJXJXKXKXKXKXKXKXJXJXKXKXJXJXJXKX#.N B B B B B B B B B B B B B B B B B B B B B B B B m | 8X+.<X<X<X<X2X2X2X2X2X2X<X2X+...{ ..{ { { { { { X.} Y P Y U P P U U U U U U U U U P P U P P P U I F B N B m l l x x l l l l l x a 8 8 8 8 0 0 0 0 0 0 0 0 0 0 0 0 w : gXKXJXJXJXJXJXJXJXJXKXDXS.{.{.{.(.G.G.G.(.(.G.G.G.G.G.G.G.G.G.G.).G.G.G.G.G.G.G.G.G.G.G.G.G.G.G.G.G.G.^.^.G.).).^.^.^.).)./.H.H.I.I.K.'.'./.'.].].].].        ",
"          [.[.K.`.`.K.K.`././.`./.XXT.,.i.l.h.h.h.h.h.h.h.h.h.h.h.h.h.g.g.g.g.g.h.g.g.h.s.e.y.t.t.t.t.t.t.t.e.e.e.e.e.e.0.0.0.0.>.8.NX1X1X4X4X7X7X1X1X3X9XE x m m m m m m m m m m m m m m m m m m m m m m m m m m m n n m m m n m m m m n n n m m m m m n m m m m m m m m m m m m m n m m m m m m m m m m m m m m m m m m m N N k a k a a a a a a a a a a a a a a a a a a a a a a a a p p y  .KXJXJXJXJXJXJXJXJXJXJXJXJXJXJXJXJXJXJXJXJXKXFXz u a a a a a a a a a a a a a a a a a a a a a a a a a a a a a a a a a a a a a p p p p p p p p p p p p p p p p p p p p p p p p p p p p p p p p p p p p p p p p p p u u y w eXKXJXKXKXKXKXKXKXJXKXKXKXKXKXKXJXKXJXJXJXJXKX#.N B B B B B B B B B B B B B B B B B B B B B B B m D O.2X<X<X<X<X2X<X2X<X<X<X<X<X<X+.{ { ..{ { { { { { ..{ Q P Y U U U U U U U U U U U U P P U P P P P P K F m N B c l x x l l l l l l l r 7 8 0 0 0 0 0 0 0 0 0 0 0 0 0 0 : ' KXJXJXJXJXJXJXJXJXJXJXQ.E.{.{.(.G.G.(.G.(.(.(.(.(.G.G.(.(.G.G.G.G.G.).^.G.G.G.G.G.G.G.G.G.G.H.G.G.G.G.G.^.^.^.^.^.^.^.^.).G.^.).).).'.'.).I.].'.'.'.        ",
"          [.K.`.K.K.`.`.`.`.F.+XOXT.3.i.h.k.g.h.h.h.g.h.h.h.h.h.g.h.h.g.g.g.g.g.g.g.h.h.y.e.t.t.t.t.t.t.t.t.t.e.e.e.e.e.0.0.0.0.&.$XsX1X7X7X7X7X7X7X1X1X2XC x m m m m m m m m m m m m m m m m m m m m m m m m m m m m n n m m m m m m m m n m m m m m n n m m m m m m m m m m m m m n m m m m m m m m m m m m m m m m m m m m l p k k a a a a a a a a a a a a a a a a a a a a a a a a a p q  .KXJXJXJXJXJXJXJXJXJXJXJXJXJXJXJXJXJXJXJXJXKXFXz u a a a a a k a a a a a a a a a a a a a a a a a a a a a a a a a a a p a a a a a p p p p p p p p p p p p p p p p p p p p p p p p p p p p p p p p p p p p p p p u u p y w :XKXJXJXJXKXKXKXKXJXKXKXKXKXKXKXKXJXJXJXJXKXKX#.N B B B B B B B B B B B B B B B B B B B B B B B m ~ 8X+.<X2X<X<X<X<X<X<X<X<X<X<X<X+.{ { ..{ { { { { { { ../ P Y Y U U U U U U U U P U U P P P P P P P P P K D m N n l x x l l l l l l x s 7 8 8 0 0 0 0 0 0 0 t t 0 0 0 0 : _ KXKXJXJXJXJXJXJXJXJXKX@XS.(.{.G.G.G.G.G.(.G.(.(.(.G.G.(.(.G.G.G.G.G.G.G.G.G.G.G.G.G.G.G.G.G.G.G.G.G.G.H.^.G.^.^.).^.^.^.^.^.^.).).).).).).'.'.'.'.'.        ",
"          [.K.[.K.`./.`.`.`.`.OXT.,.f.k.h.g.g.h.h.h.g.h.h.h.h.h.g.h.h.g.g.g.g.g.g.g.h.g.t.t.t.t.t.t.t.t.t.t.t.e.e.e.e.0.0.0.0.w.*.mXpX3X7X7X7X7X7X1X1X9X@.n c m m m m m m m m m m m m m m m m m m m m m m m m m m n n n n n m m m m m m n m m m m m m m m m m m m m m m m m m m m m m m m m m m m m m m m m m m m m m m m N l p k k a a a a a a a a a a a a a a a a a a a a a a a a a a p q ;XKXJXJXJXJXJXJXJXJXJXJXJXJXJXJXJXJXJXJXJXKXKXFXz u k a a k a k a a a a a a k a a a a a a a a a a a a a a a a a a a a a a a a p p p p p p p p p p p p p p p p p p p p p p p p p p p p p p p p p p p p p p p p p p p p u w eXKXJXJXJXJXKXKXJXJXKXKXKXKXJXJXKXJXKXJXJXKXKX#.m B B B B N B B B B B B B B B B B B B B B B B N B } 2X+.<X2X2X<X<X<X<X<X<X<X<X<X<X+.{ { { { { { { { { { X.) I U U U U U U U U U U U U U U P P P P P P P P P H D m m x l x l l l l l l x k 8 8 8 0 r 8 0 0 0 0 t t 0 0 0 0 2 r GXKXJXJXJXJXJXJXJXJXKXxXS.{.{.(.(.G.G.G.G.G.G.(.G.G.G.G.G.G.G.G.(.G.G.G.G.^.G.G.G.G.G.G.G.G.G.G.^.G.G.^.G.G.^.G.).^.^.^.^.^.).).H.).).).).'.'.'.P.P.        ",
"          [.[.[.+X`.K.`.F._.OX!.,.j.k.h.h.h.k.h.h.g.g.h.h.h.h.h.g.g.g.g.g.g.g.g.g.g.h.f.e.t.t.t.t.t.t.t.t.t.t.e.e.e.e.e.0.0.e.<.=.VX9X1X7X7X7X7X1X1X3XiX| c n m m m m m m m m m m m m m m m m m m m m n m m m m m n n n n m m m m m m n m m m m m m m m m m m m m m n n m m m m m m m m m m m m m m m m m m m m m m m m N x p a a a a a k a a a a a a a a a a a a a a a a a a a a a a a p q ;XKXJXJXJXJXJXJXJXJXJXJXJXJXJXJXJXJXJXJXJXKXKXFXz p k k k k a a a a a a a a a k a a a a a a a a a a a a a a a a a a a a p p p p p p p p p p a p p p p p p p p p p p p p p p p p p p p p p p p p p p p p p p p p p p p u w eXKXJXJXJXJXJXKXKXJXKXKXKXJXJXJXKXJXKXJXJXJXKX#.n B B B B B B B B B B B B B B B B B B B B B B m G <X+.<X<X<X<X<X<X<X<X<X<X<X<X<X<X+.{ { { { ..{ { ....{ X.) K U U U U U U U U U U U U U U U U P P P P P P P J J D m x l x l l l l l l l l r 7 t t r t 0 t 0 0 t t 0 0 0 0 7 6 VXKXJXJXJXJXJXJXJXJXKXDXS.}.{.(.(.(.G.G.G.G.G.G.G.(.G.G.G.G.G.G.(.(.(.G.G.^.).).(.G.G.^.^.^.).G.G.).G.(.G.(.(.G.G.^.^.^.).).^.F.).).).).).).).I.].P.        ",
"          [.[.`././.`.F./.OX!.<.j.l.k.h.h.k.h.h.h.h.h.h.h.h.h.h.h.g.g.g.g.g.g.g.g.g.k.y.e.t.t.t.t.t.t.t.t.t.t.e.e.e.e.0.0.0.e.;.6.BX2X1X7X7X7X7X1X1X1XiX[ x n m m m m m m m m m m m m m m m m m m m m n m m m m m m n n m m m m m m m m m n n m m m m m m m m m m m m m n m m m m m m m m m m m m m m m m m m m m m m N c p a k a a a a k a a a a a a a a a a a a a a a a a a a a a a a p y ;XKXJXJXJXJXJXJXJXJXJXJXJXJXJXJXJXJXJXJXJXJXKXFXz u k k k a a a a k a a a a k a k a a a a a a a a a a a a a a a a a a a a p p p p p p p p p p p p p p p p p p p p p p p p p p p p p p p p p p p p p p p p p p p p p p y w eXKXKXJXJXJXJXKXKXKXKXKXKXKXJXKXJXJXKXJXKXKXKX#.n B B N N B B B B B B B B B B B B B B B B B B m | 2XO.<X<X<X<X<X<X<X<X<X<X<X<X<X2XO.{ { { { { { ........X.) J U U Y U U W U U U U U U U U U U P P P P P P P P K F N c x l l l l l l l l x s 7 r 0 0 0 t r t 0 t t 0 0 0 0 0 : ;XKXJXJXJXJXJXJXJXJXKXLXT.E.(.(.(.(.G.G.G.G.G.G.G.G.G.G.G.G.G.G.G.G.(.(.G.G.G.(.).G.G.G.G.G.G.(.(.(.^.G.G.(.(.(.).).).).^.^.^.^.^.).).).).^.).'.].P.        ",
"          `.`.`.`.`.F./.OX!.<.g.k.k.h.h.h.k.h.h.h.h.h.h.h.h.h.h.g.g.g.h.g.g.h.h.h.h.h.y.e.t.t.t.t.t.t.t.t.t.t.e.e.e.e.0.0.0.t.*.7.BX3X7X7X7X7X7X1X1X7X9XE x m m m m m m m m m m m m m m m m m m m m m n n m m n n m m m m m m m m n n m n n n m m m m m m m m m m m n m n m m m m m m m m m m m m m m m m m m m m m N x p a k a a a a a a a a a a a a a a a a a a a a a a a a a a a a a p y ;XKXJXJXJXJXJXJXJXJXJXJXJXJXJXJXJXJXJXJXJXJXKXFXz p k k k a a k a a a k k a k a a a a a a a a a a a a a a a a a a a a a a a a a a p p p p p p p a p p p p p p p p p p p p p p p p p p p p p p p p p p p p p p p p p p u 0 eXKXJXJXJXJXKXKXKXKXKXKXKXKXJXKXJXKXKXJXKXJXKX#.m B B B B B B B B B B B B B B B B B B B B B m D X.+.+.<X<X<X<X<X<X<X<X<X<X2X<X<X<XX.} { { { { { ..........} I J U Y U U U U U U U U U U U U U U U U U U P P P J H D n x x l l l l l l l x z 8 0 t t t 0 t t 0 0 0 0 0 0 t 0 : _ KXJXJXJXJXJXJXJXJXJXKXQ.J.(.(.(.(.G.G.(.G.G.G.G.G.G.G.G.G.G.(.G.G.(.(.(.(.G.G.(.(.(.(.G.^.^.(.^.(.(.^.(.G.(.(.(.(.).).G.).^.).).).).).).).).).'.'.        ",
"          `.`.`.[.K. XOXB.3.h.l.k.k.h.h.h.k.k.h.h.h.h.h.h.h.h.h.g.g.g.h.h.g.h.h.h.h.g.e.t.t.t.t.t.t.t.t.t.t.t.e.e.e.e.e.0.e.e.*.%XsX3X7X7X7X7X7X1X1X0X2XB c m m m m m m m m m m m m m m m m m m m m m m m m n n n n m m m n n m m n m m n n n n m n n m m m m m m m n m n m m m m m m m m m n n m m m m m m m m m N c a a a a a k k a a a k k k a a a a a a a a a a a a a a a a a a a a p y ;XKXJXJXJXJXJXJXJXJXJXJXJXJXJXJXJXJXJXJXJXJXKXZXz p a a a a a k a a k k a a a a a a a a a a a a a a a a a a a a a a a a a a a a a a p p p a p p p p a p p p p p p p p p p p p p p p p p p p p p p p p p p p p p p p p u 0 eXKXJXKXKXKXKXKXKXKXKXKXKXKXKXJXKXKXKXKXJXJXKX#.m B B B B B B B B B B B B B B B B B B B B B m ~ 2X+.+.+.+.+.<X<X<X<X<X<X<X<X<X<X<XX.} { { { { { ..X.......X.) J U U U P U U U U U U U U U U U U U U U U P P P J K H B x x x l l l l l l x l i 8 t r t 0 t t 0 0 0 0 t 0 0 t 2 f JXKXJXJXJXJXJXJXJXJXKX@XS.}.{.(.(.G.(.(.G.G.G.(.(.G.G.G.G.(.(.G.G.(.(.(.(.G.(.(.(.(.(.(.(.(.(.(.(.(.G.(.(.(.G.(.(.(.(.).^.^.).).^.).).).).^.).).H.        ",
"          `.K.[.K. XOXc.,.k.k.k.k.h.k.k.h.k.k.h.h.h.h.h.h.h.h.h.g.g.g.g.g.g.h.h.h.k.s.0.t.t.t.t.t.t.t.t.t.t.e.e.e.e.e.e.0.e.q.*.qXpX1X7X1X7X0X7X1X1X9X@.m n m m m m m m m m m m m m m m m m m m m m m m m n n n n n n m m n n m m n m m n n n n n n m m m m m m m n n m n n m m m m m m m m n n m m m m m n m N N x s a k k a a k k a a a k k k a a a a a k k a a a k k a a a a a a a a a y ;XKXJXJXJXJXJXJXJXJXJXJXJXJXJXJXJXJXJXJXJXJXKXFXz u a a a a a a a a k k a a a a a a a a a a k a a a a a a a a a a a a a a a a a a a a a a a p p p a a p p p p p p p p p p p p p p p p p p p p p p p p p p p p p p p p u t eXKXJXJXKXKXKXKXKXKXKXKXKXKXJXKXKXKXKXKXJXJXKX#.m B B B B B B B B B B B B B B B N B B B B N B } <XO.+.+.+.+.<X<X+.<X<X<X<X<X<X<X+...} { { { { ....X.X.X.X.X.{ I J U P U U U U U U U U U U U U U U U U U P P P P J K F m l x x l l l l l l x s 7 t r 0 t t t 0 0 0 0 t 0 t t 7 9 VXKXJXJXJXJXJXJXJXJXKXcXS.}.(.(.(.(.(.G.G.(.G.G.G.(.G.G.(.(.(.G.G.G.(.(.(.(.(.(.(.G.G.(.(.G.(.(.(.(.(.(.(.(.(.G.(.(.(.(.(.^.).).^.^.).).^.).^.).).        ",
"          L.[.K. XOXc.,.h.k.g.h.h.h.k.k.k.k.k.h.h.h.h.h.h.h.g.g.g.g.g.g.g.h.h.h.h.k.y.e.t.t.t.t.t.e.t.t.t.t.e.e.e.e.e.e.0.e.9.=.gXiX1X7X7X7X7X7X1X3XpX[ c m m m m m m m m m m m m m m m m m m m m m m m n n n n n n n n n n n n m m n n m n n n n n m m m m m m m n m n m m m m m m m m m m m m m m n m m m m B c p a k a k a a k k a a a a a a a a a a k k a a a a k k a a a a a a a a a y ;XKXJXJXJXJXJXJXJXJXJXJXJXJXJXJXJXJXJXJXJXJXKXFXz u a k a a a a a a a a a a a a a a a a a a k k k k a a k a a a a a a a a a a a a a a a a a a a a p p p p p p p p p p p p p p p p p p p p p p p p p p p p p p p p p p u t eXKXJXJXJXJXJXJXJXJXJXKXKXKXJXKXJXJXKXKXJXJXKX#.m B B B B N B B B B B B B N B N N N B B B m G O.+.O.+.+.+.+.<X<X<X<X<X<X<X<X<X<XO.{ { { { { ......X.O.X.X.X.X.) J P Y U U U U U U U U U U U U U U U U U U P P P P K K D l x x l x l l l l x k 0 0 t 0 t t t t 0 0 0 0 t r t 8 4 yXKXJXJXJXJXJXJXJXJXKXDXD.{.(.(.G.G.G.G.G.G.G.G.G.(.(.(.(.(.(.G.(.(.(.(.(.(.(.(.(.G.G.(.(.G.(.(.(.(.(.(.(.(.(.(.(.(.(.G.(.^.).(.(.^.^.).^.^.).).).        ",
"          [.F. XOXc.,.h.k.k.h.h.k.k.k.k.k.k.k.k.h.g.g.h.h.h.h.g.g.g.g.g.g.h.h.h.h.h.e.e.t.t.t.t.t.t.t.t.t.t.e.t.e.e.e.0.0.t.,.-.dX8X1X7X7X7X1X1X1X3XpXE c m m m m m m m m m m m m m n m m m m m m m m m m m n n n n n n n n n n m m n n m m n n n n n m n m m m m n m m m m m m m m m m m m m m m n m m m m N c a a k k a a a k a k a a a a a a a a a k k a a a a a a a a a a a a a a a a y ;XKXJXJXJXJXJXJXJXJXJXJXJXJXJXJXJXJXJXJXJXJXKXFXz y p p p p p p p p p p p p p p p p p p p p a a a p a p p p p p p p p p p p p p p p p p p p p p p u u p p u u u u u u u u u u p p p u u u u u u u u u u u u u u u u u u 0 :XKXJXKXKXJXJXJXJXJXKXKXKXKXKXKXJXJXKXJXKXJXKX#.m B N B B B B B B B B B B B N B N B B B B m / <XO.O.+.+.+.<X<X<X<X<X<X<X<X<X<X+.X.{ { { ....{ ..X.+.+.O.O.X.X.{ I P U U U U U U U U P U U U U U U U U U U P P P P K K F c l x x x x l l l x x t 0 t t t t t 0 0 0 0 t t t t i 2 ' KXJXJXJXJXJXJXJXJXKXLXD.R.{.(.(.G.G.G.G.G.(.(.G.(.(.{.(.(.(.(.(.(.(.(.(.(.(.(.(.(.G.G.(.G.(.(.(.(.(.(.(.(.(.(.(.(.G.G.).^.(.(.(.(.^.^.).).^.^.^.        ",
"          F. XOXc.w.l.h.k.k.l.k.k.k.h.k.k.k.h.h.h.h.h.h.h.h.g.g.g.g.g.h.g.h.h.h.k.g.e.e.t.t.t.e.t.t.t.t.t.t.e.t.e.e.e.e.0.t.>.8.dX7X7X7X7X7X1X1X1X7X9XE x m m m m m m m m m m m m m m m m m m m m m m m m m n n n n n n n n n n m m m n n n n n n n n m m m m m m m m m m m m m m m n n m m m m m m m m m N c a a k a a k k a a a a a a k k k k a a k a a a k k a a a a a a a a a a a a u 5 *XKXJXJXJXJXJXJXJXJXJXJXJXJXJXJXJXJXKXJXJXJXKXFXs w i t i i i i i i i i i i i i i i i i i i i i i i i i t t t t t t t t t t t t t t t t t t t t t t t t t t 0 0 0 0 0 0 0 0 q q q q q 0 q w 0 q 0 0 0 0 0 q q w w w w 5 > gXKXJXJXKXKXKXKXJXKXKXKXKXKXKXKXKXJXJXJXJXKXKX,Xc B B N N B B B B B B B B B B B B B B B N B { O.O.+.+.+.+.+.<X<X<X<X<X<X<X<X<X+.X.{ { { X...{ O.<X<X<X<X+.X.X.O.) J U Y U U U U U P U U U U U U U U U U P P P P P P J K B k x x x x x l l x c u w r t t t 0 0 0 8 t t t t t i 4 Z KXKXJXJXJXJXJXJXJXJXJXC.E.(.(.(.G.G.G.R.G.(.(.G.(.G.R.(.(.(.(.(.G.(.(.(.(.(.(.(.(.(.G.(.(.(.(.(.(.(.(.(.(.(.(.(.(.(.).(.(.(.(.(.(.(.(.^.).^.^.^.        ",
"           XOXd.w.l.k.h.g.k.k.k.k.k.k.k.k.k.h.h.h.h.h.h.h.h.h.g.g.h.h.h.h.h.g.h.k.s.e.e.t.t.t.e.t.t.t.t.t.t.e.e.e.e.e.e.e.t.;.$XNX7X7X7X7X7X7X1X1X0X2XB c m m m m m m m m m m m m m m m m m m m m m m m m m n n n n n n n n n m m m m m m n n n n n n m m m n m m m m m m m m m m n m m m m m n m m m m N c a k k a a a k a a a a a a a a a a a a a k a a k k a a k a a a a a a a p y p b Z yXKXJXJXJXJXJXJXJXJXJXJXJXJXJXJXJXJXJXJXJXJXKXJXeX:XeXeXeXeXeXeXeXeXeXeXeXeXeXeXeXeXeXeXeXeXeXeXeXeXeXeXeX:XeXeXeXeXeX:X:X:X:XeXeXeXeXeXeXeX:XeXeX:X:X:X:X:X:XeXeXeX:X:X:X:X:X:X:X:X:X:X:X:X:X:X:X:X:X:X:X:X:X:X:X;X;X*X*XHXKXKXJXJXKXKXKXKXKXKXKXKXKXKXKXKXKXJXJXJXKXKXgXA V m m N B B B B B B B B B B B B B B B m G O.O.O.O.+.+.+.+.+.<X<X<X<X<X<X+.+.X.{ { { { { ..+.2X8X8X2X2X<XO.O.<X{ T P I U U U U U U P U U U U U U U P P U U P U P P J L F l x x x x x l l x c a 0 t t r t t 0 0 r t t t t t i 4 d KXKXJXJXJXJXJXJXJXJXKX@XD.(.(.(.G.G.G.G.G.G.G.G.(.G.R.(.(.(.(.(.G.(.(.(.(.(.(.G.(.(.(.(.(.(.(.(.(.{.(.(.(.(.(.(.(.(.(.(.(.(.(.(.(.(.(.^.^.^.^.^.        ",
"          OXu.q.l.g.k.h.k.k.h.k.k.k.k.k.k.h.h.h.h.h.g.h.h.h.h.g.g.g.h.h.h.g.g.h.h.y.e.e.t.t.e.e.t.t.t.t.t.t.e.e.e.e.e.e.e.t.&.%XdX7X7X7X7X7X7X1X3XiX+.m n m m m m m m m m m m m m m m m m m m m m m m m n n n n n n n n n n n m m m m m m m n n n n n n m m m m m m m m m m m n n n m m n n n n m m m m c a k k k k a a a a a a a a a a a a a a a a a a a a a a a k a a a a k p q s ` eXFXJXKXJXJXJXJXJXJXJXJXJXJXJXJXJXJXJXJXJXJXJXJXJXJXJXKXKXKXKXKXKXKXKXKXKXKXKXKXKXKXKXKXKXKXKXKXKXKXKXKXKXKXKXKXKXKXKXKXKXKXKXKXKXKXKXKXKXKXKXKXKXKXKXKXKXKXKXKXKXKXKXKXKXKXKXKXKXKXKXKXKXKXKXKXKXKXKXKXKXKXKXKXKXKXKXKXKXKXKXKXJXKXJXJXJXKXKXKXKXKXKXKXKXKXKXKXKXKXKXJXJXKXJXKXKXAX6X[ V n m B B B B B B B B B B B B N N ) +.O.O.O.+.+.+.+.+.<X<X<X<X<X<X+.O.X.} { ..{ } +.9XiXiX9X8X2X2X<XO.+.+.) J Y I U U U U U U U U U U U U U P U U U P P P P P K K m l x x x x x x l x l 0 0 t t t t t 0 0 t t t t t t 0 6 AXKXJXJXJXJXJXJXJXJXKXzXD.{.(.(.G.G.G.R.(.G.G.G.G.G.G.G.(.(.(.(.(.(.(.(.(.(.(.(.(.(.G.R.G.R.(.(.(.{.(.(.(.(.(.(.(.(.(.(.(.(.(.(.(.(.).).^.(.(.(.        ",
"          d.0.l.h.h.k.k.k.h.h.k.k.k.k.k.k.h.h.h.h.h.h.g.g.g.g.g.h.g.g.g.h.g.g.h.h.e.e.t.t.t.t.t.t.t.t.t.t.e.e.e.e.e.0.0.0.q.&.=XpX1X7X7X7X1X1X1X3XiX#.M n m m m m m m m m m m m m m m m m m m m m m m m m m m n n n n n n n n m m m m m m m n n n n n n m m m m m m m m m m n n n m m n n n n n n n m c a a k k k k k a a a a a a a a a a a a a a a a a a a a a a a a a k a q y ` VXKXKXKXKXJXJXJXJXJXJXJXJXJXJXJXJXJXJXJXJXJXJXJXJXJXJXJXJXJXJXJXKXKXJXJXJXJXJXJXJXJXJXJXJXJXKXJXJXJXJXJXJXJXKXJXJXJXJXKXKXJXJXJXJXJXJXJXJXJXJXJXJXJXJXJXJXJXJXKXJXJXJXJXJXJXKXJXJXJXJXJXJXJXKXJXJXJXKXJXJXJXJXJXJXJXJXJXJXJXJXJXJXKXKXJXJXJXJXKXKXKXKXKXKXKXKXKXKXKXKXKXKXKXJXJXJXKXKXKXKXKXAX .C n m B B B B N B B N B B m D ..O.O.O.+.+.+.+.+.<X+.<X<X<X<X+.O...{ { { { { ..iXsXpXpXpXiX8X<X<X+.O.<X} P U U P P U U U U U U U U U U U U U U P P P P P P P L D k x x x x x x x x x t 0 8 t t t t 0 0 t t t t t t t < wXKXJXJXJXJXJXJXJXJXKXcXD.{.(.G.G.G.G.(.(.(.G.G.G.G.G.R.R.R.G.(.(.G.G.(.G.G.(.(.(.R.R.G.G.G.G.(.{.{.(.(.G.(.G.G.R.(.(.(.(.(.(.(.(.(.(.(.(.^.^.^.        ",
"          e.k.h.k.k.k.k.k.h.h.k.k.k.k.k.k.g.h.h.h.h.h.g.g.g.g.g.h.h.g.h.h.h.g.h.f.e.e.t.t.t.t.t.t.t.t.t.e.e.t.e.e.e.0.0.0.9.=.gX9X>X4X7X7X1X1X1X3XiX| c n m m m m m m m m m m m m m m m m m m m m m m m m m m m n n n n n n m n m m m m m m m n n n m m n m m m n n m m m m n m m m m n n m m n n m c a k k k k k k k a a a a a k k a a a a a a a a a a a a a a a a a a p q Z gXKXKXJXJXJXJXJXJXJXJXJXJXJXJXJXJXJXJXJXJXJXJXJXJXJXJXJXJXJXJXJXJXJXJXJXKXKXKXKXKXKXJXJXJXKXKXJXJXJXJXJXJXKXKXKXKXJXJXKXKXJXKXJXJXJXJXJXKXJXJXJXJXKXKXKXKXKXKXKXKXKXJXJXJXJXJXJXJXJXJXJXJXJXJXKXKXJXJXJXJXKXKXKXKXKXKXJXKXJXJXJXKXJXJXKXKXKXKXJXJXKXKXKXKXKXKXKXKXKXKXKXKXKXKXKXKXJXJXKXKXJXJXKXKXKXFX .M n N N N B B B N B N N Q +.X.O.+.+.+.+.+.+.<X+.<X<X+.O.X...{ { { { { { <XsXsXsXsXsXpX9X2X2X2X+.+.O.Q P U U P U U U U U U U U U U U U U U U U U P P P P K J c l x x x x x x x x p 0 8 t t t t t t t t t t t t t : *XKXJXJXJXJXJXJXJXJXJXDXD.(.(.G.R.G.(.(.G.G.G.G.G.G.G.G.G.G.G.G.G.G.G.(.G.R.R.G.G.G.G.G.G.R.(.(.{.{.{.{.{.{.R.G.{.{.{.G.(.(.(.(.(.(.(.(.(.^.^.^.        ",
"          h.h.k.k.l.k.h.k.k.k.k.k.k.k.k.h.k.h.h.h.h.g.g.g.g.g.h.h.h.h.h.g.g.h.k.y.e.t.t.t.t.t.t.t.t.t.t.t.e.e.e.0.0.0.0.0.9.1.dX8X7X7X7X7X7X7X1X1XiXE x m m m m m m m m m m m m m m m m n m m m m m m m m m m m m n n n m m m n m m m m m m n n n n m m n n m m n n n m m m n n m m m m m m m n m c a a k k k k k a a a a a a a a k a a a a a a a a a a a a a a a a a u y ' KXKXJXJXJXJXJXJXJXJXJXJXJXJXJXJXJXJXJXJXJXJXJXJXJXJXJXJXJXJXJXJXJXJXJXJXJXJXKXKXKXKXJXJXJXJXKXKXKXKXJXJXJXJXKXKXKXKXJXJXKXJXJXKXJXJXJXJXJXKXJXJXKXJXKXKXKXKXKXKXKXKXKXKXJXJXJXJXJXJXJXJXJXJXKXKXJXJXJXJXJXKXKXJXKXKXKXKXKXKXJXJXJXKXJXJXKXKXKXKXKXJXJXJXKXKXKXKXKXKXKXKXKXKXKXKXKXKXKXKXKXKXKXKXJXKXKXKXKXVXA n B B B B N B B m D } O.X.O.+.+.+.+.+.+.+.<X<X<XO.X...{ { { { { } X.iXdXsXsXsXsXsXiX8X8X2X<X+.<X| P U U U U U U U U U U U U U U U U U U U U P P P P P L B k x x x x x l l x a 0 0 r r t t t t t t t t t y t : ' KXJXJXJXJXJXJXJXJXJXKXK.J.(.G.R.G.G.{.G.G.R.G.R.G.G.G.G.G.G.G.G.R.R.R.G.R.R.G.G.G.G.G.G.R.{.G.(.(.{.{.(.{.{.{.(.{.G.(.{.(.(.(.(.(.(.(.(.(.(.(.        ",
"          h.k.k.k.k.k.k.h.k.k.k.k.k.k.k.h.k.h.h.h.g.g.h.g.g.g.h.g.h.h.h.g.g.h.g.e.e.t.t.t.t.t.t.t.t.t.t.t.e.e.e.0.0.0.0.e.<.8.sX0X7X7X7X7X7X7X7X7X9XG x m m m m m m m m m m m m m m m m m m m m m m n n n m m m n m m n m m m m m m m m n n n n n n n m n n m m n n n m m m m n m m m m m n n m c a a k k k k k k a a a a k k a a a a a k k k a a a k a k k k k a a y s eXKXKXJXKXJXJXJXJXJXJXJXJXJXJXJXJXJXJXJXJXJXJXJXJXJXJXJXJXJXJXJXJXJXJXJXJXJXJXJXJXKXKXJXJXJXKXJXJXJXJXJXJXJXJXJXKXJXJXKXJXKXKXJXJXJXJXJXJXJXKXJXKXKXKXKXKXKXKXKXKXKXKXKXKXKXKXJXJXKXKXKXJXJXJXJXJXKXJXJXJXJXJXKXKXJXKXKXJXJXKXJXJXJXKXKXKXJXKXKXKXKXKXKXKXKXKXKXKXKXKXKXKXKXKXKXKXKXKXKXKXKXKXKXJXKXKXKXKXJXKXKXJXE c N B N B B B m ^ O.X.O.O.+.+.+.+.+.+.<X+.+.O.X...{ { { { { { { +.pXsXsXdXsXsXsXpXiX8X2X2X+.<XX.P U Y U U U P P P P U U U U U U U U U U U U P P P P L F l x x x x x x x x l 0 0 t t t t t t t t t t t y y : h KXJXJXJXJXJXJXJXJXKXKXQ.S.{.R.R.G.G.G.G.G.G.G.G.G.G.G.G.G.G.G.G.G.G.G.G.G.G.G.G.G.G.G.R.R.G.G.G.G.(.(.(.{.{.(.G.(.{.{.{.{.{.(.(.G.G.(.(.(.(.(.        ",
"          k.k.h.k.k.k.k.k.k.k.k.k.k.k.k.k.k.h.h.h.g.g.g.g.g.g.h.g.h.h.h.g.g.h.g.e.e.t.t.t.t.t.t.t.t.t.t.e.e.e.e.0.0.0.0.q.:.7.sX7X4X7X4X4X4X7X1X7X2XD c m m m m m m m m m m m m m m m m m m m n m m n n n m m m m m m n n m m m m m n n n n n m m n n n n m m m n n m n m m n m n n m m m n m n k a k k k a a a a a a a k k a a k a a a k k k a a a a k k k k a a y p fXKXJXJXJXJXJXJXJXJXJXJXJXJXJXJXJXJXJXJXJXJXJXJXJXJXJXJXJXJXJXJXJXJXJXJXJXJXJXJXJXJXJXJXJXJXJXKXJXJXJXJXKXJXJXJXJXJXJXJXJXJXJXKXJXJXJXJXJXJXJXJXJXJXJXJXKXJXKXKXKXJXKXJXJXJXKXKXKXJXKXKXKXJXJXJXJXJXJXJXJXJXJXJXKXKXKXKXJXJXJXJXJXKXKXKXKXKXKXKXKXKXKXKXKXKXKXKXKXKXKXKXKXKXKXKXKXKXKXKXKXKXKXKXKXKXKXKXKXKXKXJXJXKXKX[ n B N B B m D } X.X.O.O.+.+.+.+.+.+.+.O.X.X.{ { { { { { { { { 2XpXsXdXdXsXdXdXsXsX9X2X2X<X<X+.! P U U U P U P P P U U U U U U U U U U U U U U P P K J x l x x x x x x x l t 0 t t t t t t t t t t t t y 4 d JXKXJXJXJXJXJXJXJXJXKX@XS.(.G.G.G.G.G.G.G.G.G.G.G.G.R.G.G.G.G.R.G.G.G.G.G.G.G.G.R.R.R.R.G.G.G.G.G.{.G.G.(.{.(.(.(.R.(.(.{.(.{.(.G.G.(.(.(.(.(.        ",
"          k.k.k.k.k.k.k.k.k.k.k.k.k.k.k.k.k.h.h.h.g.g.h.h.g.g.h.h.h.h.h.h.g.k.f.e.e.t.t.t.e.t.t.t.t.t.t.t.e.e.e.0.0.0.0.q.;.$XsX7X4X7X7X4X4X4X>X0XO.N c m m m m m m m m m m m m m m m m m m m n n n n n n n m m n m m n m m m m n n n n n n m m m m m m m m m m m m m m n n n m n m m m n m m k a k k k k k a a a k k k a a a a a a a a a a a a a a a a a k k a u t gXKXJXJXJXJXJXJXJXJXJXJXJXJXJXJXJXJXJXJXJXJXJXJXJXJXJXJXJXJXJXJXJXJXJXJXJXKXJXJXJXJXJXJXJXJXJXJXJXJXJXJXJXKXJXJXJXJXJXJXKXJXJXJXJXJXJXJXJXJXJXJXJXJXJXJXKXKXJXKXKXKXKXKXJXJXKXKXKXJXKXJXJXJXJXJXJXJXJXJXJXJXKXKXJXJXJXJXKXKXJXJXJXJXKXKXKXJXKXKXKXJXKXJXKXKXKXKXKXKXKXKXKXKXKXKXKXKXKXKXKXKXKXKXKXKXKXKXKXKXJXKXKXJXJXKXKX[ n B N B m Y X.X.X.O.O.+.+.+.+.<X+.+.X.....{ ....{ { ..{ { ..9XpXpXdXsXsXsXsXsXsXiX2X<X<X<X<X| P U U U P U U P P P U P U U U U U U U U U U U P P P K m k c x x x x x x x p w 0 0 t t t t t t t t t t t w 7 AXKXJXJXJXJXJXJXJXJXKXxXS.(.G.R.G.G.R.R.R.G.G.G.R.R.R.R.G.R.R.R.R.R.G.G.G.G.G.G.R.G.G.R.G.R.G.G.(.(.{.(.{.R.{.{.G.G.{.(.{.G.{.{.G.G.G.G.G.(.(.        ",
"          k.k.k.l.k.k.k.k.k.k.k.k.k.k.k.k.h.h.h.h.g.h.h.g.h.h.h.h.h.h.h.h.g.k.s.0.t.t.t.e.t.t.t.t.t.t.t.e.e.e.0.0.0.0.0.0.&.%XpX7X4X7X4X7X7X4X1X0Xo.M n m m m m m m m m m m m m m m m m m m m n n n m m n m m m n n n m m m n n n n n n n n m m m m m m m m m m n m m m n n n m n n m n m n k a k k k k k k k a a k k k a a a a a a k a a a a a a a k k a a a p y :XKXJXJXJXJXJXJXJXJXJXJXJXJXJXJXJXJXJXJXJXJXJXJXJXJXJXJXJXJXJXJXJXJXJXJXJXJXJXJXJXJXJXJXJXJXJXJXJXJXJXJXJXJXJXJXJXJXJXJXJXJXJXJXJXJXJXJXJXJXJXJXJXJXJXKXKXJXJXJXKXJXJXKXKXJXJXKXKXKXJXJXJXJXJXJXJXJXJXJXJXJXJXKXKXJXJXJXJXKXKXJXJXJXKXKXKXKXJXKXJXJXJXKXJXKXKXKXKXKXKXKXKXKXKXKXKXKXKXKXKXKXKXKXKXKXKXKXKXKXKXKXKXKXKXJXJXKXJXG c B m D } O.O.O.O.O.O.+.+.+.+.O.X.X.{ { ......{ ....{ { { 2XsXpXsXsXsXsXsXsXsXpX8X<X+.<X<XX.Y P U U U U I P P P P U U U U U U U U U U U U P P P L D l x x x x x x x x s 0 0 0 t t t t t t t t t t t w 2 yXKXJXJXJXJXJXJXJXJXKXxXS.(.{.{.{.{.{.{.{.R.G.R.{.R.R.R.R.R.R.{.{.{.{.{.{.{.{.{.(.{.{.{.{.{.{.{.{.{.}.}.{.{.{.R.{.(.G.R.(.(.(.(.(.(.(.G.G.(.(.        ",
"          k.k.k.k.k.k.k.k.k.k.k.l.k.k.k.k.h.h.h.h.g.g.h.h.h.h.h.h.h.h.h.g.h.k.y.e.t.t.t.t.t.t.t.t.t.t.e.e.e.e.0.0.0.0.0.w.&.qXiX4X4X4X7X7X4X4X4X9X| c n m m m m m m m m m m m m m m m m m m m m m m m m m m n n m n n m m m n n n n n n n n n m n n m m n m n m n m m m m m m m n n n m m k a k k k k k k a a a a k k k a a a a k a k a a k a a k a k k a a a q  .KXJXJXJXJXJXJXJXJXJXJXJXJXJXJXJXJXJXJXJXJXJXJXJXJXJXJXJXJXJXJXKXKXKXKXJXJXJXJXJXJXJXJXJXJXJXJXJXJXJXJXJXJXJXJXJXJXJXJXJXJXJXJXJXJXJXJXJXJXJXJXJXJXJXJXJXKXJXJXJXJXKXKXKXKXJXJXJXKXKXKXKXJXJXJXJXJXJXJXJXJXJXJXJXJXJXJXJXJXJXKXKXKXJXJXKXKXKXKXKXKXJXJXKXJXKXKXKXKXKXKXKXKXKXKXKXKXKXKXKXKXKXKXKXKXKXKXKXKXKXKXKXKXKXKXKXJXKXKXZXD c m ^ O.O.X.X.X.X.O.O.O.+.O.X...{ { { { { ..{ ..{ { { { X.iXsXsXsXsXdXdXsXsXpX9X2X+.+.+.+.! P Y Y U U Y P P U P P U U U U U U U U U P U U P P J H c l x x x x x x x k 0 0 t t t t t t t t t t t t 0 : :XKXJXJXJXJXJXJXJXKXKXcXB.S.D.S.S.S.S.S.S.S.S.S.S.S.S.S.S.S.S.S.S.S.S.S.S.S.S.S.S.S.S.S.S.S.S.S.D.D.W.S.D.R.{.(.}.R.G.R.G.G.G.(.(.G.(.G.G.(.(.        ",
"          k.k.k.k.k.k.k.k.k.k.k.k.k.k.k.k.k.h.h.h.g.g.g.h.h.h.h.h.h.h.h.h.h.h.e.e.t.t.e.t.t.t.t.t.t.e.e.e.e.e.0.0.0.0.0.9.=.gXiX5X0X5X4X7X4X4X4X9X| c n m m m m m m m m n m m m m m m m m m m m m m m m m n n m m n m m m n n n m n n n n n n n n n n n n n m m m m m n m m m m m n m n k a k k k k k k k k a a a a k k k a k k k k k k a k a a k a a a a a q Z KXKXJXJXJXJXJXJXJXJXJXJXJXJXJXJXJXJXJXJXJXJXJXJXJXJXJXJXKXKXKXKXKXKXKXKXJXJXJXJXKXKXJXJXJXJXJXJXJXJXJXJXJXJXJXJXJXJXKXJXJXJXJXJXJXJXJXJXJXJXJXJXJXJXJXJXJXKXJXJXJXJXJXKXKXJXJXJXJXKXKXKXJXJXJXJXJXJXJXJXJXJXJXJXJXJXJXJXJXJXJXKXKXKXKXKXKXKXKXKXJXJXJXJXKXJXKXKXKXKXKXKXKXKXKXKXKXKXKXKXKXKXKXKXKXKXKXKXKXKXKXKXKXKXKXKXKXKXKXJXKXiXM D X.O.O.X.X.X.X.O.O.O.O.X.X...{ { ..{ { ..{ ....{ { ....+.iXdXdXdXdXdXsXsXsXiX8X<X+.+.<X| J Y Y Y U U U U U U U U U U U U U U U U P U U P P P K B k x x x x x l x l t 0 0 t t t t t t t t t q t t > ' KXJXJXJXJXJXJXJXJXJXLXcXcXcXcXcXcXcXcXcXcXcXcXcXcXcXcXcXcXcXcXcXcXcXzXxXxXzXzXzXxXxXzXzXzXxXxXxX@X@X@X.XT.S.W.J.}.}.R.G.G.G.G.(.G.G.G.G.G.(.        ",
"          k.k.k.k.k.k.k.k.k.k.k.k.k.h.k.k.h.h.h.h.g.g.g.h.h.h.h.h.h.h.h.g.h.g.e.t.t.t.e.t.t.t.t.t.t.t.e.e.e.e.0.0.0.0.0.,.1.fX9X0X0X4X4X7X4X4X>X8XE x n m m m m m m m n m n m m m m m m m m m m m m n m n n m n n m n n n n n n n n n n n n n n n n m m m m n m m m n m m m m n n m n k a k k k k k k k k k a a a a a a k k k k k k k a k k k k a a a a a u q gXKXJXJXJXJXJXJXJXJXJXJXJXJXJXJXJXJXJXJXJXJXJXJXJXJXJXJXKXJXKXKXKXKXKXJXJXJXKXJXJXKXKXJXJXJXJXJXKXJXKXKXKXKXJXJXJXJXJXKXJXJXJXJXJXJXJXJXJXJXJXJXJXJXJXJXJXJXJXJXJXJXJXJXJXJXJXKXJXJXKXJXJXKXJXJXJXJXJXJXJXJXJXJXJXJXJXJXJXJXJXJXKXKXKXKXKXKXJXKXKXJXJXJXJXKXKXKXKXKXKXKXKXKXKXKXKXKXKXKXKXKXKXKXKXKXKXKXKXKXKXKXKXKXKXKXKXKXKXKXJXKXKX} ^ O.O.O.O.X.X.O.O.X.X.X.....{ { { { { { ......{ { ..X.X.X.+.iXdXdXdXdXdXsXsXpX9X2X<X+.<X..I U Y U U U U U U U U U U U U U U U U U U U U P P P K F l x x x x x x x x u 0 t t t t t t t t t 0 q 0 q > _ KXJXJXJXJXJXJXJXJXJXJXKXKXKXKXKXJXJXJXKXKXJXKXKXKXKXKXKXKXKXKXKXKXKXKXKXKXKXKXKXKXKXKXKXKXKXKXKXKXKXJXKXLXcX@XC.B.D.}.{.G.G.G.(.G.G.G.(.G.(.        ",
"          k.k.k.l.k.k.k.k.k.k.l.k.k.h.k.k.h.h.h.h.h.h.h.h.h.h.h.h.h.h.g.g.k.s.e.t.t.t.e.t.t.t.t.t.t.e.e.e.e.e.0.0.0.0.0.<.1.dX8X0X5X4X7X7X4X>X4X8XG x n m m m m m m n n m m m m m m m m n m m m m m n n m m m m m m n m n m m m n n n n n m m m n n m m m m m m m m m m m m n n m m l a k k k k k k k k k k k k a a k k k k a a a a a a k k a a a a a a a q Z KXJXJXJXJXJXJXJXJXJXJXJXJXJXJXJXJXJXJXJXJXJXJXJXJXJXJXJXKXJXJXKXKXKXKXJXJXKXKXJXKXKXKXJXJXJXJXKXKXJXKXKXKXKXJXJXJXJXJXJXJXJXJXJXJXJXJXJXJXJXKXJXJXJXJXJXJXJXJXJXKXKXKXJXKXJXKXKXJXJXJXJXJXKXJXJXJXJXJXJXJXJXJXJXJXJXJXJXJXJXKXJXJXKXKXJXJXKXJXJXJXJXKXJXKXKXKXKXKXKXKXKXKXKXKXKXKXKXKXKXKXKXKXKXKXKXKXKXKXKXKXKXKXKXKXKXKXKXKXKXKXJXKXBX| X.O.O.O.X.X.X.X.X.X.X.....{ { { { { { ....{ { { X.X.X.X...O.8XsXdXsXdXdXsXpX9X2X<X+.<X+.Q P Y U U U Y U U U U U U U U U U U U U U U U P P P K K c l x x x x x x x a q t q t t t t t t t t t q q : Z KXJXJXJXJXJXJXJXJXJXJXJXJXJXJXJXJXJXJXJXJXJXJXJXJXJXJXJXJXJXJXJXJXJXJXJXJXJXJXJXJXJXJXJXJXJXJXJXJXJXJXJXKXJXJXJXnXC.B.R.}.G.G.(.{.G.G.G.G.G.        ",
"          k.k.k.k.k.k.k.k.k.k.l.k.k.h.k.k.h.h.h.h.h.g.h.h.h.h.h.g.g.h.h.h.k.s.e.t.t.t.t.t.t.t.t.t.t.t.e.e.e.0.0.0.0.0.0.>.8.NX0X4X4X4X4X4X4X7X4X9XG x n m m m m m m m m m m m m m m m m m n m m m m n n m m m m m m m m m m m m m m m m m n m m n n m m m m m m m m m m m n n m m l k k k k k k k k k k k k k k k k k a k k a a a a a a k k a a a a a a a q eXKXJXJXJXJXJXJXJXJXJXJXJXJXJXJXJXJXJXJXJXJXJXJXJXJXJXJXJXKXJXJXJXJXJXJXJXJXKXJXKXKXKXJXKXJXJXKXKXKXJXJXKXKXKXJXJXJXJXJXJXJXJXJXJXJXJXJXJXJXJXKXJXJXJXJXJXJXKXJXKXKXKXKXJXJXJXJXKXKXKXJXJXJXKXJXJXJXJXJXJXJXJXJXJXJXJXJXJXJXJXJXJXJXJXJXKXJXJXKXKXKXKXKXKXKXKXKXKXKXKXKXKXKXKXKXKXKXKXKXKXKXKXKXKXKXKXKXKXKXKXKXKXKXKXKXKXKXKXKXKXKXKXKXKX+.{ O.O.X.X.X.X.X.X...{ ..{ { { { { { { ....{ { ....X.X.X...{ X.<XpXdXdXdXsXpX9X2X<X+.<X2X) J W Y U U U U U U U P U U U U U U U U U U U P P U J K N k c x x x x l x k q q t t t t t t t t t t t t 5 d GXKXJXJXJXJXJXJXJXJXJXJXJXJXJXJXJXJXJXJXJXJXJXJXJXJXJXJXJXJXJXJXJXJXJXJXJXJXJXJXJXJXJXJXJXJXJXJXJXJXJXJXJXJXJXKXKXJXnX!.S.}.(.(.G.{.(.G.G.G.        ",
"          k.k.k.k.k.k.k.k.k.k.l.k.k.h.k.k.h.h.h.h.h.h.h.g.g.h.h.g.g.h.h.h.k.r.e.y.t.t.e.e.t.t.t.e.e.e.e.e.e.0.0.0.0.0.0.;.7.NX0X4X7X7X4X4X4X5X4X2XC c n m m m m m m m m m m m m n n n n m m m m m m m n m m m m m m m m m m m m m m m m n n m m n n m m m m n n m m m n n n n m x k l l k k k k k k k k k k k k k k a k k k a a a a a a a a a a a a a k y b KXKXJXJXJXJXJXJXJXJXJXJXJXJXJXJXJXJXJXJXJXJXJXJXJXJXJXJXKXKXJXJXJXJXJXJXJXJXKXKXKXKXKXKXKXJXJXJXKXKXJXJXKXKXKXJXJXJXJXJXJXJXJXJXJXJXJXJXJXJXJXJXJXKXJXJXJXKXKXJXKXKXKXKXJXKXJXJXKXKXKXJXJXJXKXJXJXJXJXJXJXJXJXJXJXJXJXJXJXJXJXJXKXKXKXKXKXKXJXKXJXKXKXKXKXKXKXKXKXKXKXKXKXKXKXKXKXKXKXKXKXKXKXKXKXKXKXKXKXKXKXKXKXKXKXKXKXKXKXKXKXKXJXJXKXNX{ X.X.O.X.X.X.X.....{ { { { { { { { { ....{ { { ..X.X.X.X.X.X...<XsXdXsXsXsX9X2X<X<X+.<X} P U Y U Y U U U U U U U U U U U U U U U U U U P P P L D l x x x x x l x l t q t t t t t t t t t t q t 5 r CXKXJXJXJXJXJXJXJXJXJXJXJXJXJXJXJXJXJXJXJXJXJXJXJXJXJXJXJXJXJXJXJXJXJXJXJXJXJXJXJXJXJXJXJXJXJXJXJXJXJXJXJXJXJXJXJXJXKXPX~.A.}.(.G.G.(.G.G.G.        ",
"          l.k.k.k.k.k.k.k.k.k.k.h.h.h.k.k.h.h.h.h.h.g.h.h.h.h.h.h.g.h.h.h.h.r.e.t.t.t.e.e.t.t.e.e.e.e.e.e.e.0.0.0.0.0.0.;.m.dX5X5X0X5X4X4X4X>X0X@.N c n m m m m m m m m m m m m n n m n m m m m m m n n m m m m m m m m m m m m m m n n n m m m n n n m m m m m n n m n n n n l k l l k k k k k k k k k k k k k k k a a a a a a a a a a a a a a a a a a w ' KXJXJXJXJXJXJXJXJXJXJXJXJXJXJXJXJXJXJXJXJXJXJXJXJXJXJXJXKXKXJXJXJXJXJXJXJXJXKXKXJXKXKXKXJXJXKXJXKXJXJXJXKXKXKXJXJXJXJXJXJXJXJXJXJXJXJXJXJXJXJXJXJXJXJXKXJXJXJXKXKXKXKXKXKXKXJXJXJXJXKXJXJXJXKXJXJXJXJXJXJXJXJXJXJXJXJXJXJXJXJXJXKXKXKXKXKXJXJXKXKXKXJXKXKXKXKXKXKXKXKXKXKXKXKXKXKXKXKXKXKXKXKXKXKXKXKXKXKXKXKXKXKXKXKXKXKXKXKXKXKXKXKXJXKXFXX.o.O.X.X.X...{ { ....{ { { { { { { { ....{ { { ..X.O.X.X.X.X.X.X.2XsXdXsXsX9X2X<X<X<X2XO.Y P U U U U U P U U U U U U U U U U U U U U U U P P I H x x x x x x x x x u 0 y y y t t t t t t t t t 5 8 VXKXJXJXJXJXJXJXJXJXJXJXJXJXJXJXJXJXJXJXJXJXJXJXJXJXJXJXJXJXJXJXJXJXJXJXJXJXJXJXJXJXJXJXJXJXJXJXJXJXJXJXJXJXJXJXJXKXJXKXJX@XB.(.(.G.(.G.G.G.        ",
"          k.k.k.k.k.k.k.k.k.k.k.k.k.k.h.h.k.h.h.h.h.h.g.h.h.h.h.h.g.h.h.k.g.e.t.t.t.t.t.t.t.t.e.e.e.e.e.e.e.0.0.0.0.0.0.&.$XsX5X0X0X0X4X4X4X4XiX#.n n m m m m m m m m m m m m m n n m m m m m m m m m n m m m m m m m m m m m m m m m n n m m m n n n n m m n n n n m n m m x k k k k k k k k k k k k k k k k k k k a a a a k a a a a a a a k k a a a p 0 eXKXJXJXJXJXJXJXJXJXJXJXJXJXJXJXJXJXJXJXJXJXJXJXJXJXJXJXJXJXKXJXKXJXKXKXJXJXJXKXKXJXJXJXJXJXJXKXKXKXKXJXJXJXKXKXJXJXJXJXJXJXJXJXJXJXJXJXJXJXJXJXJXJXJXKXKXKXKXKXJXJXJXKXKXKXKXJXJXJXJXKXKXKXJXJXJXJXJXJXJXJXJXJXJXJXJXJXKXKXJXKXJXJXKXKXKXKXKXJXKXKXKXJXKXJXJXKXKXKXKXKXKXKXKXKXKXKXKXKXKXKXKXKXKXKXKXKXKXKXKXKXKXKXKXKXKXKXKXKXKXKXKXKXKXKXKX<X} X.X...{ { { { { { { { { { ....{ ....{ { ..{ ..X.X.X.X.X.X.O.X.O.iXsXsXpX9X2X<X<X+.2X<XQ P Y U U U P U U U U U U U U U U U U U U U U U U P U K m l x x x x x l x p q y t y t t t t t t t t q w 7 SXKXJXJXJXJXJXJXJXJXJXJXJXJXJXJXJXJXJXJXJXJXJXJXJXJXJXJXJXJXJXJXJXJXJXJXJXJXJXJXJXJXJXJXJXJXJXJXJXJXJXJXJXJXJXJXJXJXJXJXKXKX@XB.{.(.G.G.G.(.        ",
"          k.k.k.k.k.k.k.k.l.l.k.k.k.k.h.h.k.h.h.h.h.h.h.h.h.h.h.g.g.h.h.k.s.e.e.y.t.t.t.t.t.t.e.t.e.e.e.e.e.0.0.0.0.0.0.&.%XpX4X5X5X4X4X4X4X4XiXo.n n m m m m m m m m m m m m m m n m m m m m m m m m m m m m m m m m m m m m m m m m m m m m m m m m m m m n n n n n m n x k l l k k k k k k k k k k k k k k k k k k a k k k a a a k k k k k k a a a u s AXKXJXJXJXJXJXJXJXJXJXJXJXJXJXJXJXJXJXJXJXJXJXJXJXJXJXJXJXJXJXJXJXKXKXJXJXKXJXKXKXJXJXJXKXJXJXKXKXJXJXJXJXJXJXJXJXJXJXJXJXJXJXJXJXJXJXJXJXJXJXJXJXJXKXKXKXKXKXKXKXKXKXKXKXKXKXKXKXJXJXJXKXKXKXJXJXJXJXJXJXJXJXJXJXJXJXJXKXKXJXJXKXKXKXKXKXJXJXJXJXKXKXJXJXJXKXKXKXKXKXKXKXKXKXKXKXKXKXKXKXKXKXKXKXKXKXKXKXKXKXKXKXKXKXKXKXKXKXKXKXKXKXKXKXKXKX9X} X.X.{ { { { { { { { ....{ ....{ ....{ { { ....X.X.X.X.X.X.X.X.X.<XpXsXpX9X2X<X<X+.<X2X) J Y U U U U U U U U U U U U U U U U U U U U U U P U R D k x x x x x l c a 0 t t t t t t t t t q q t q 4 uXKXJXJXJXJXJXJXJXJXJXJXJXJXJXJXJXJXJXJXJXJXJXJXJXJXJXJXJXJXJXJXJXJXJXJXJXJXJXJXJXJXJXJXJXJXJXJXJXJXJXJXJXJXJXJXJXJXJXJXJXKXJX~.S.{.R.G.G.G.        ",
"          k.k.k.k.k.k.k.k.l.l.k.k.k.k.h.k.k.h.h.h.h.h.h.h.h.h.h.g.h.h.h.k.d.4.e.y.t.t.t.t.t.t.e.t.t.e.e.e.e.0.0.0.2.0.0.&.%XiX4X5X5X4X7X4X4X>XiX| n n m m m m m m m m m m m m m m m m m m m m m m m m m m m m m m m m m m m m m m m m m m m m m m m m m m m n n n n m m x k l l l l k k k k k k k k k k k k k k k k k k k k k k k k k k k k k k k a a y b JXKXKXJXJXJXJXJXJXJXJXJXJXJXJXJXJXJXJXJXJXJXJXJXJXJXJXJXKXJXJXJXJXKXKXJXJXKXKXKXKXJXJXKXKXJXJXJXJXKXKXJXJXJXKXJXJXJXJXJXJXJXJXJXJXJXJXJXJXJXJXJXJXJXKXKXKXKXKXKXKXJXKXKXJXKXKXKXKXJXJXKXKXKXKXJXJXJXJXJXJXJXJXJXJXJXJXJXKXKXJXJXKXKXKXKXKXJXJXJXJXKXKXJXJXKXKXKXKXKXKXKXKXKXKXKXKXKXKXKXKXKXKXKXKXKXKXKXKXKXKXKXKXKXKXKXKXKXKXKXKXKXKXKXKXKXKXsX} X...{ { { { { { ..{ ..{ ......{ { { { { { ....X.X.X.X.X.X.O.O.X.O.2XiXiX9X2X2X<X<X<X2X} J P U U U U U U U U U U U U U U U U U U U U U U P P R F l x x x x x x x k 0 0 y t t t q t t t t q t q 4 ;XKXJXJXJXJXJXJXJXJXJXJXJXJXJXJXJXJXJXJXJXJXJXJXJXJXJXJXJXJXJXJXJXJXJXJXJXJXJXJXJXJXJXJXJXJXJXJXJXJXJXJXJXJXJXJXJXJXJXJXJXJXKXGX!.E.(.(.G.G.        ",
"          k.k.k.k.k.k.k.l.l.k.k.k.k.k.h.h.k.h.h.h.h.h.h.h.g.h.g.g.h.g.g.k.r.e.e.y.t.e.t.t.t.t.t.t.t.e.e.e.e.0.0.0.2.0.w.=.qXiX5X5X5X4X4X7X7X>XpX| n n n m m m m m m m m m m m m m m m m m m m m m m m m m m m m m m m m m m m m m m m m m m m m m m m m n n n n n m m x k l l l l l l k k k k k k k k k k k k k k k a a k k k k k k k k k k k k k a a q Z KXKXJXJXJXJXJXJXJXJXJXJXJXJXJXJXJXJXJXJXJXJXJXJXJXJXJXJXJXJXKXJXJXKXKXJXKXKXKXJXJXJXJXJXJXKXJXKXJXJXJXKXKXJXKXKXKXJXJXJXJXJXJXJXJXJXJXJXJXJXJXJXJXJXKXJXKXKXJXJXJXJXJXJXJXJXJXKXKXKXKXKXJXKXJXJXJXJXJXJXJXJXJXJXJXJXJXJXKXJXJXKXKXJXKXKXJXJXJXJXJXJXKXJXJXKXKXKXKXKXKXKXKXKXKXKXKXKXKXKXKXKXKXKXKXKXKXKXKXKXKXKXKXKXKXKXKXKXKXKXKXKXKXKXKXKXKXNX{ X...{ { { } { { ....{ ..{ ......{ { ..{ { ....X.X.X.X.X.X.X.O.X.X.O.8X9X8X2X<X<X<X+.2XX.I U U U U U U U U U U U U U U U U U U U U U U P P U Y K c l l x x x x x l t 0 t t t t q t t t t t t q 5 ' KXJXJXJXJXJXJXJXJXJXJXJXJXJXJXJXJXJXJXJXJXJXJXJXJXJXJXJXJXJXJXJXJXJXJXJXJXJXJXJXJXJXJXJXJXJXJXJXJXJXJXJXJXJXJXJXJXJXJXJXJXJXKXcXS.{.G.(.(.        ",
"          k.k.k.k.k.k.k.l.k.k.k.k.k.k.h.h.k.h.h.h.h.h.h.h.g.h.h.h.h.g.h.k.r.e.e.t.t.e.t.t.t.t.t.t.e.e.e.e.0.0.0.0.2.0.,.=.qX9X5X4X4X7X7X7X7X1XpX[ c n n m m m m m m m m m m m m m m m m m m m m m m m m m m m m m m m m m m m m m m m m m m m m m m m m n n n n m m x k l l l l l l l l k k k k k k k k k k k k k k k k k k k k k k k k k k a k k a a q _ KXKXJXJXJXJXJXJXJXJXJXJXJXJXJXJXJXJXJXJXJXJXJXJXJXJXKXKXJXKXKXJXJXKXKXJXKXKXKXJXJXJXJXJXJXJXJXJXJXJXJXKXKXKXJXKXKXKXJXJXJXJXJXJXJXJXJXKXKXKXJXJXJXJXKXKXJXJXKXJXKXKXJXJXKXJXJXJXKXKXKXJXJXJXJXJXJXJXKXKXJXJXJXJXJXJXJXJXJXJXJXJXKXJXKXJXJXJXJXJXJXJXKXJXKXKXKXKXKXKXKXKXKXKXKXKXKXKXKXKXKXKXKXKXKXKXKXKXKXKXKXKXKXKXKXKXKXKXKXKXKXKXKXKXKXKXKXCX{ { X.{ { { { { { ......{ { { ....{ ....{ { { ..X.O.X.X.O.X.X.X.X.X.X.<X8X8X2X2X<X<X<X<X+.W P Y U U U U U U U U U U U U U U U U U U U P P P P P R m k x l x x x x x i 0 t t t t t t t t t t t t 5 ` KXJXJXJXJXJXJXJXJXJXJXJXJXJXJXJXJXJXJXJXJXJXJXJXJXJXJXJXJXJXJXJXJXJXJXJXJXJXJXJXJXJXJXJXJXJXJXJXJXJXJXJXJXJXJXJXJXJXJXJXJXJXJXJXC.S.{.{.(.        ",
"          k.k.k.k.k.k.l.l.k.k.k.h.h.h.h.h.h.h.g.g.h.h.h.g.g.g.g.h.g.h.h.h.r.e.y.t.t.e.e.t.t.t.e.e.e.e.e.e.e.0.0.0.0.0.,.=.gX9X7X5X4X7X7X7X7X>XiX[ c n m m m m m m m m m m m m m m m m m m m m m m m m m m m m m m m m m m m m m m m m m m m m m m n m m n n n m m x k l l l l l l l l l k k k k k k k k k k k k k k k k k k k k k k k k k k a a a a a q ` KXJXJXJXJXJXJXJXJXJXJXJXJXJXJXJXJXJXJXJXJXJXJXJXJXJXJXJXJXKXKXKXKXJXJXJXKXKXKXKXJXKXKXJXJXJXJXJXKXKXKXKXJXJXKXKXJXJXJXJXJXJXJXJXJXJXJXKXKXKXKXJXJXKXKXJXJXJXJXKXKXKXKXKXKXKXKXKXJXJXJXJXJXJXJXJXJXKXKXKXJXJXJXJXJXJXJXJXJXJXJXJXKXJXJXJXJXJXJXJXJXJXJXKXKXKXKXJXKXKXKXKXKXKXKXKXKXKXKXKXKXKXKXKXKXKXKXKXKXKXKXKXKXKXKXKXKXKXKXKXKXKXKXKXKXJXKXFX{ { X...{ { { ..........{ ........{ ....{ ..{ ..X.O.O.O.O.O.O.O.X.X.X.O.<X<X<X<X<X+.+.+.<X! J W U U U U U U U U U U U U U U U U U U U U P P P U R B k x x x l l x x s 0 t y y y t t t t y t t y 5 _ KXJXJXJXJXJXJXJXJXJXJXJXJXJXJXJXJXJXJXJXJXJXJXJXJXJXJXJXJXJXJXJXJXJXJXJXJXJXJXJXJXJXJXJXJXJXJXJXJXJXJXJXJXJXJXJXJXJXJXJXJXJXJXKXIXB.}.{.(.        ",
"          k.k.k.k.k.k.k.l.k.k.k.h.h.h.k.k.h.h.h.g.h.h.h.h.g.g.g.h.g.h.h.g.4.e.r.t.t.t.e.t.t.t.e.e.e.e.e.e.e.0.0.0.2.0.,.1.fX8X7X5X7X4X4X4X4X1X9XE c n m m m m m m m m m m m m m m m m m m m m m m m m m m m m m m m m m m m m m m m m m m m m m m n m n n n m m x l l l l l l l l k l k k k k k k k k k k k k k k k k k k k k k k k k k a a a a a a a q ' KXJXJXJXJXJXJXJXJXJXJXJXJXJXJXJXJXJXJXJXJXJXJXJXJXJXJXJXJXKXKXJXJXJXJXJXKXKXKXKXKXKXKXJXJXKXJXKXKXKXKXKXJXJXJXJXJXJXJXJXJXJXJXJXJXJXJXJXJXJXJXKXJXKXKXKXKXJXJXKXKXKXKXKXKXKXKXKXKXJXJXKXJXJXJXJXJXKXJXJXJXJXJXJXJXJXJXJXJXJXJXJXKXKXJXKXJXJXJXJXJXJXJXKXKXKXKXKXKXKXKXKXKXKXKXKXKXKXKXKXKXKXKXKXKXKXKXKXKXKXKXKXKXKXKXKXKXKXKXKXKXKXKXKXKXKXKXFX..} ..{ ..{ { { ..........{ ......{ { ........X.X.O.O.O.O.O.O.O.O.O.O.O.O.+.<X<X+.+.+.+.<X) J U U U U U U U U U U U U U U U U U U U U U U U U P R F l l x x l l x x a 0 t y y y t t t t t t t y 5 _ KXJXJXJXJXJXJXJXJXJXJXJXJXJXJXGXGXJXGXJXJXJXJXJXJXJXJXJXJXJXJXJXJXJXJXJXJXJXJXJXJXJXJXJXJXJXJXJXJXJXJXJXJXJXJXJXJXJXJXJXJXJXKXJXJXC.D.{.{.        ",
"          k.k.k.k.k.k.l.k.h.h.k.k.h.h.k.k.h.h.h.h.g.g.h.h.g.g.g.g.h.h.h.f.4.e.e.t.t.t.e.t.t.t.e.e.e.e.e.e.0.0.0.2.2.0.<.6.aX8X4X5X7X7X4X4X4X1X9XE c n m n m m m m m m m m m m m m m m m m m m m m m m m m m m m m m m m m m m m m m m m m m m m m m n n n n m c l l l l l l l k k k k k l k k k k k k k l l l k k k k k k k k k k k k a a a a k a a a q ' KXJXJXJXJXJXJXJXJXJXJXJXJXJXJXJXJXJXJXJXJXJXJXJXJXJXKXJXJXJXKXKXKXJXJXJXJXKXKXJXKXJXJXKXKXKXKXKXJXJXKXJXJXJXJXKXJXJXJXJXJXJXJXJXJXJXJXJXJXJXJXKXKXJXJXKXKXJXKXKXKXKXKXKXKXJXKXKXLXKXKXKXKXKXJXKXJXJXJXKXJXJXJXJXJXJXJXJXJXJXJXJXJXJXJXKXKXJXJXJXJXJXJXJXKXKXKXKXKXKXKXKXKXKXKXKXKXKXKXKXKXKXKXKXKXKXKXKXKXKXKXKXKXKXKXKXKXKXKXKXKXKXKXKXKXKXKXZXX.{ { { { ..{ { ..................{ { ..{ ....X.O.O.O.O.O.O.O.O.O.O.O.O.O.+.<X+.<X+.+.O.<X| P U U U U U U U U U U U U U U U U U U U U U U U U P Y J x l x x x x x x k t t t y y y t t t t y t y 5 Z KXJXJXJXJXJXJXJXJXJXJXJXJXJXJXGXGXJXJXJXJXJXJXJXJXJXJXJXJXJXJXJXJXJXJXJXJXJXJXJXJXJXJXJXJXJXJXJXJXJXJXJXJXJXJXJXJXJXJXJXJXJXJXJXJXxXS.}.{.        ",
"          k.k.k.k.k.k.l.k.h.h.k.k.h.h.h.h.h.h.h.h.h.g.h.h.g.g.g.g.g.h.g.s.4.r.y.t.t.e.e.t.t.t.e.e.e.e.e.e.0.0.0.0.0.0.>.6.pX8X4X4X7X7X4X4X4X7X9XE c m m n n n m m m m m m m m m m m m m m m m m m m m m m m m m m m m m m m m m m m m m m m m m m n n n n m c l l l l l l l k l k k k k k k k k k k k l l l l k k k k k k k k k k k k k k k k k k a a q ' KXJXKXJXJXJXJXJXJXJXJXJXJXJXJXJXJXJXJXJXJXJXJXJXJXJXKXJXJXJXJXKXKXJXJXJXJXKXJXKXKXJXJXJXKXKXKXJXJXJXJXJXJXJXKXKXJXJXJXJXJXJXJXJXJXJXJXKXJXJXKXJXKXJXJXKXKXKXKXKXKXKXKXKXKXKXKXKXKXKXKXKXKXKXJXJXJXJXJXJXJXJXJXJXJXJXJXJXJXJXJXJXJXJXJXJXKXJXJXJXJXJXKXKXKXKXKXJXKXKXKXKXKXKXKXKXKXKXKXKXKXKXKXKXKXKXKXKXKXKXKXKXKXKXKXKXKXKXKXKXKXKXKXKXKXKXKXFXX.{ ..{ ..{ { { ..............{ ..{ { { { ....X.X.O.O.O.O.O.O.O.O.O.O.O.O.O.O.+.+.+.+.O.<X} P W U U U U U U U U U U U U U U U U U U U U U U U P U K c k x x x x x x l t t t t y t t y y y t t y 5 f KXJXJXJXJXJXJXJXJXJXJXGXJXJXJXJXJXJXJXJXJXGXJXJXJXJXJXJXJXJXJXJXJXJXJXJXJXJXJXJXJXJXJXJXJXJXJXJXJXJXJXJXJXJXJXJXJXJXJXJXJXJXJXJXKXDXS.}.(.        ",
"          k.k.k.k.k.k.k.k.k.h.h.h.k.k.k.h.h.h.h.h.g.h.h.h.g.g.g.g.g.g.h.y.4.e.r.e.e.e.e.t.t.t.e.e.e.e.e.e.0.0.0.2.w.0.>.8.sX1X4X4X7X4X4X4X4X1X8XE c n n m n m m m m m m m m m m m m m m m m m m m m m m m m m m m m m m m m m m m m m m m m m m n n n n m c k l l l l l l l k l l k k k k k k k k k k l k k l k k k k k k k k k k k k k k k k k k a a q ' KXJXKXJXJXJXJXJXJXJXJXJXJXJXJXJXJXJXJXJXJXJXJXJXJXKXKXJXJXJXKXKXKXKXJXJXKXKXJXJXJXJXKXJXKXJXJXJXJXJXJXKXKXJXJXKXJXJXJXJXJXJXJXJXJXJXJXJXKXJXJXKXJXKXKXKXKXKXPXmX-X-X-X-X-X-X=XmXKXKXKXKXKXKXKXKXJXJXJXJXJXJXJXJXJXJXJXJXJXJXJXJXJXKXKXKXKXJXJXKXKXKXJXKXKXKXKXKXKXKXKXKXKXKXKXKXKXKXKXKXKXKXKXKXKXKXKXKXKXKXKXKXKXKXKXKXKXKXKXKXKXKXKXKXKXJXKXZX..{ ..{ { { { { { ......{ { { { { { { { { ....X.O.O.O.O.O.O.O.O.O.O.O.X.O.O.O.+.+.+.+.O.+.{ I U U U U U U U U U U U U U U U U U U U U U U U U P U K N k x x x l l x l t i t t y y y y y y y t y 5 d JXKXJXJXJXJXJXJXJXJXJXJXJXJXJXJXJXJXJXJXJXJXJXJXJXJXJXJXJXJXJXJXJXJXJXJXJXJXJXJXJXJXJXJXJXJXJXJXJXJXJXJXJXJXJXJXJXJXJXJXJXJXJXJXKXJXT.R.{.        ",
"          k.k.k.k.k.k.l.k.k.h.h.h.k.k.h.h.h.h.h.h.g.g.h.h.h.g.g.g.g.g.h.y.4.r.r.r.e.e.t.e.e.e.e.e.e.e.e.e.0.0.0.2.2.0.&.8.sX1X4X4X4X4X4X4X4X7X2XG c n m m n m m m m m m m m m m m m m m m m m m m m m m m m m m m m m m m m m m m m m m m m m n n n n m c l l l l l l l l l l l l k k k k k k k k k k k k k k k k k k k k k k k k k k k k k k k k a a q ' KXJXJXJXJXJXJXJXJXJXJXJXJXJXJXJXJXJXJXJXJXJXJXJXJXKXKXJXJXJXKXJXKXKXKXJXJXKXJXJXJXJXKXKXJXJXJXJXJXKXJXKXKXJXJXJXJXJXJXJXJXJXJXJXJXJXJXJXJXJXJXKXKXKXKX=Xg j @ X . . . . . . . X & g =XKXKXKXJXJXJXJXJXJXJXJXJXJXJXJXJXJXJXJXJXJXJXKXKXKXJXKXKXKXKXKXKXKXKXKXKXKXKXKXKXKXKXKXKXKXKXKXKXKXKXKXKXKXKXKXKXKXKXKXKXKXKXKXKXKXKXKXKXKXKXKXKXKXKXJXKXZX......{ { ....{ { ......{ ..{ { { { { { ......X.O.O.O.O.O.O.O.O.O.O.O.X.O.O.O.O.+.+.O.O.+.X.Y U W U Y U U U U U U U U U U U U U U U U U U U U P P I D k l l x x x x l i t t t i y y y y y y t y 5 d GXKXJXJXJXJXJXJXJXJXJXJXJXJXJXJXJXJXJXJXJXGXGXJXJXJXJXJXJXJXJXJXJXJXJXJXJXJXJXJXJXJXJXJXJXJXJXJXJXJXJXJXJXJXJXJXJXJXJXJXJXJXJXJXJXKXQ.E.}.        ",
"          k.k.k.k.k.k.k.k.h.h.h.h.k.k.h.h.h.h.h.h.h.h.h.h.h.g.g.g.g.g.h.r.4.r.r.e.e.e.e.e.t.e.e.e.e.e.e.e.0.0.0.2.2.2.&.8.sX1X4X4X4X4X4X>X4X4X2XG c m m m m m m m m m m m m m m m m m m m m m m m m m m m m m m m m m m m m m m m m m m m m m n n m m c l l l l l l l l l l k k l l k k k k k k l k k l k k k k k k k k k k k k k k k k k k k a a a a q ' KXJXJXJXJXJXJXJXJXJXJXJXJXJXJXJXJXJXJXJXJXJXJXJXJXJXJXKXKXKXJXJXJXJXKXJXKXJXJXJXKXKXKXJXJXJXJXKXJXJXJXKXJXJXJXJXJXJXJXJXJXJXJXJXJXJXJXJXJXJXKXKXKX-X& . . . @ # # # # # # # # @ X . . & -XLXKXKXJXJXJXJXJXJXJXJXJXJXJXJXJXJXJXJXJXKXKXKXJXKXKXKXKXJXJXJXJXJXKXKXKXKXKXKXKXKXKXKXKXKXKXKXKXKXKXKXKXKXKXKXKXKXKXKXKXKXKXKXKXKXKXKXKXKXKXKXKXJXKXZXX...X.........{ { { ....{ { { { { { { { ..X...X.O.O.O.O.O.O.O.O.O.O.O.O.O.O.O.O.O.O.O.X.O.O.Q P U U U U U U U U U U U U U U U U U U U U U U U P P K F l l l x x x x x p t t t t t y y y t t y y 5 r ZXKXJXJXJXJXJXJXJXJXJXJXJXJXJXGXJXGXJXJXJXGXJXJXJXJXJXJXJXJXJXJXJXJXJXJXJXJXJXJXJXJXJXJXJXJXJXJXJXJXJXJXJXJXJXJXJXJXJXJXJXJXJXJXJXJX~.D.{.        ",
"          k.k.k.k.k.k.k.k.h.h.h.h.h.h.h.h.h.h.h.h.h.h.h.h.g.g.h.g.j.g.g.r.4.r.r.e.e.e.t.e.e.e.e.t.e.e.e.0.0.0.0.2.2.0.&.7.dX1X4X7X7X4X4X4X>X7X<XV c m m m m m m m m m m m m m m m m m m m m m m m m m m m m m m m m m m m m m m m m m m m m n n m m c l l l l l l l l l l l l l l l k k k k k k k k k k k k k k k k k k k k k a k k k k k k k a a a a q ' KXJXJXJXJXJXJXJXJXJXJXJXJXJXJXJXJXJXJXJXJXJXJXJXJXJXJXKXKXKXKXJXJXJXKXJXKXJXJXJXJXKXKXJXJXJXJXKXJXJXJXKXKXJXJXJXJXJXJXJXJXJXJXJXJXJXJXJXKXKXKX=X& . X # $ # # # # # # # # # # # # # # X . % =XKXKXJXJXJXJXJXJXJXJXJXJXJXJXJXJXJXJXKXJXJXJXKXKXKXKXJXJXJXJXJXKXKXKXKXKXKXKXKXKXKXKXKXKXKXKXKXKXKXKXKXKXKXKXKXKXKXKXKXKXKXKXKXKXKXKXKXKXKXKXKXKXZX..........{ ....{ { ......{ ....{ { ......X...X.O.O.O.O.O.O.O.O.O.O.O.O.O.O.O.O.O.O.O.O.O.+.! J U U U U U U U U U U U U U U U U U U U U U U U P P P K c k x x x x x x p t t t i i i i y y y t y 5 r BXKXJXJXJXJXJXJXJXJXJXJXJXGXGXJXGXGXGXJXJXGXGXJXJXJXJXJXJXJXJXJXJXJXJXJXJXJXJXJXJXJXJXJXJXJXJXJXJXJXJXJXJXJXJXJXJXJXJXJXJXJXJXJXJXKX@XD.{.        ",
"          k.k.k.k.k.k.h.h.k.k.h.h.h.h.h.h.h.h.h.h.h.g.h.h.g.h.h.g.j.g.g.r.4.r.r.e.e.e.t.e.e.e.e.e.e.e.e.e.0.0.0.2.2.0.&.7.dX1X7X7X7X4X4X4X>X7X+.V c m m m m m m m m m m m m m m m m m m m m m m m m m m m m m m m m m m m m m m m m m m m m n m m c l k l x l l l l l l l l l l l l l l k k k k k k k k k k k k k k k k k k k k k k k k k k k k a a a q ' KXJXJXJXJXJXJXJXJXJXJXJXJXJXJXJXJXJXJXJXJXJXJXJXJXJXJXKXKXJXJXJXJXKXKXKXJXJXJXKXKXJXJXJXJXJXKXKXKXJXJXKXKXJXJXJXJXJXJXJXJXJXJXJXJXJXJXKXKXKXg . . # # # # # # # # # # # # # # # # # # # $ X . g KXKXJXJXKXJXJXJXJXJXJXJXJXJXJXJXJXJXKXJXKXKXKXJXJXJXJXJXJXJXKXKXKXKXKXKXKXKXKXKXKXKXKXKXKXKXKXKXKXKXKXKXKXKXKXKXKXKXKXKXKXKXKXKXKXKXKXKXKXKXKXCX..{ ........{ ..{ { ..........{ ........X.X.X.X.O.O.O.O.O.O.O.O.O.O.O.O.O.O.O.O.O.O.O.O.O.+./ P U U U U U U U U U U U U U U U U U U W U U U U U U P L M a x x x x x x a t t t t i i i y y y t t 5 8 fXKXJXJXJXJXJXJXJXJXJXJXJXJXGXGXGXJXJXJXJXGXGXJXJXJXJXJXJXJXJXJXJXJXJXJXJXJXJXJXJXJXJXJXJXJXJXJXJXJXJXJXJXJXJXJXJXJXJXJXJXJXJXJXJXKX@XS.{.        ",
"          l.k.k.k.k.k.k.h.h.h.h.h.h.h.h.h.g.h.h.h.h.g.h.h.g.g.g.h.g.g.f.e.r.r.r.e.e.e.t.t.e.e.e.e.e.e.e.e.e.0.0.2.2.2.&.7.sX1X7X4X4X4X4X>X>X7X+.N x n n m m m m m m m m m m m m m m m m m m m m m m m m m m m m m m m m m m m m m m m m m m m N c l l l l l l l l l l l l l l l l l l l l l l k k k k k k k k k k k k k k k k k k k k k k k k k k a a q ' KXJXJXJXJXJXJXJXJXJXJXJXJXJXJXJXJXJXJXJXJXJXJXJXJXJXJXJXJXJXJXKXJXKXKXKXJXJXJXKXKXJXJXKXKXKXKXKXKXJXJXJXKXJXJXJXJXJXJXJXJXJXJXJXJXJXKXKXLX& . @ $ # # # # # # # # # # # # # # # # # # # # $ # . & PXKXKXJXJXJXJXJXJXJXJXJXJXJXJXJXKXKXJXKXJXJXJXJXJXJXJXJXKXKXKXKXKXKXKXKXKXKXKXKXKXKXKXKXKXKXKXKXKXKXKXKXKXKXKXKXKXKXKXKXKXKXKXKXKXKXKXKXKXKXCX......{ ..{ { ............X.X.........X.....X.O.O.O.O.O.O.O.O.O.O.O.O.O.O.O.O.O.O.O.O.O.X.+.) J U U U U U U U U U U U U U U U U U U U U U U P P U P L B k x x x x x x a t y y y y i y y y t t y w 8 VXKXJXJXJXJXJXJXJXJXJXJXJXJXJXJXJXGXJXJXJXJXJXJXJXJXJXJXJXJXJXJXJXJXJXJXJXJXJXJXJXJXJXJXJXJXJXJXJXJXJXJXJXJXJXJXJXJXJXJXJXJXJXJXJXKX@XS.{.        ",
"          k.k.k.k.k.k.k.h.h.h.h.h.h.h.h.h.h.h.h.h.h.h.h.h.g.g.h.h.g.g.f.e.r.r.r.e.e.e.t.t.e.t.e.e.e.e.0.e.0.0.0.2.2.2.&.7.sX>X4X4X4X4X>X>X>X7X+.B c m m m m m m m m m m m m m m m m m m m m m m m m m m m m m m m m m m m m m m m m m m m m m c l l x l x l l l l l l l l l l l l l l l l k l k k k l k k k k k l k k k k k k k k k k k k k a a a a a q ' KXJXJXJXJXKXJXJXJXJXJXJXJXJXJXJXJXJXJXJXJXJXJXJXJXJXJXJXJXJXKXKXKXKXKXJXJXJXJXJXJXKXJXKXKXJXJXKXJXJXJXKXKXJXJXJXJXJXJXJXJXJXJXJXJXKXKXSX& . $ # # # # # # # # # # # # # # # # # # # # # # # # $ . X mXKXJXJXJXJXJXJXJXJXJXJXJXJXJXKXJXJXJXJXJXKXKXKXJXJXJXKXKXKXKXKXJXKXKXKXKXKXKXKXKXKXKXKXKXKXKXKXKXKXKXKXKXKXKXKXKXKXKXKXKXKXKXKXKXKXKXKXKXCX..{ ..{ ..{ { { ..........X.X.........X...X.X.O.O.O.O.O.O.O.O.O.O.O.O.O.O.O.O.+.+.O.O.O.X.+.| J U U U U U U U U U U U U U U W U U U U U U U U U U P L D l x x x x x x k t t y y y t t y y t t t w 8 VXKXJXJXJXJXJXJXJXJXJXJXJXJXJXJXGXJXJXJXJXJXJXJXJXJXJXJXJXJXJXJXJXJXJXJXJXJXJXJXJXJXJXJXJXJXJXJXJXJXJXJXJXJXJXJXJXJXJXJXJXJXJXJXJXKX@XS.{.        ",
"          k.k.k.k.k.k.k.h.h.h.h.h.h.h.h.h.h.h.h.h.h.h.h.h.g.g.h.h.g.h.s.e.r.r.r.e.e.e.t.e.e.t.e.e.e.e.0.0.0.0.0.2.2.2.&.7.sX>X4X4X4X4X>X>X>X7X+.N c m m m m m m m m m m m m m m m m m m m m m m m m m m m m m m m m m m m m m m m m m m m N n l l l x x x x l l l l l l l l l l l l l l k k l l k k l k k k k k k k k k k k k k k k k k k k k k a a a w ' KXJXJXJXJXJXJXJXJXJXJXJXJXJXJXJXJXJXJXJXJXJXJXJXJXJXJXJXJXJXKXKXKXJXKXJXJXJXJXJXJXKXKXJXJXJXJXKXKXJXKXKXJXJXJXJXJXJXJXJXJXJXJXJXJXKXPXX . $ # # # # # # # # # # # # # # # # # # # # # # # # # # $ X . MXKXJXJXJXJXJXJXJXJXJXJXJXJXJXJXJXJXKXJXKXJXKXKXJXJXKXKXKXKXKXKXKXKXKXKXKXKXKXKXKXKXKXKXKXKXKXKXKXKXKXKXKXKXKXKXKXKXKXKXKXKXKXKXKXKXKXKXCX{ { { { { { { { { ....X.X.....X.....X...X.X.X.X.O.O.O.O.O.O.O.O.O.O.O.O.O.O.O.O.+.O.O.O.X.+.} P U I U U U U U U U U U U U U U U U U U U U W U U U J L F k x x x x x x k y t y y y t i y y t y y w t VXKXJXJXJXJXJXJXJXJXJXJXJXGXJXGXGXJXJXJXJXJXJXJXJXJXJXJXJXJXJXJXJXJXJXJXJXJXJXJXJXJXJXJXJXJXJXJXJXJXJXJXJXJXJXJXJXJXJXJXJXJXJXJXJXKX@XS.{.        ",
"          k.k.k.k.k.k.k.h.h.h.h.h.h.h.h.h.h.h.h.g.h.h.h.h.g.g.g.h.g.h.s.e.r.r.r.e.e.e.t.e.e.t.e.e.e.e.0.0.0.0.0.2.2.2.&.#XsX1X4X7X4X4X4X>X>X7X+.B c n m m m m m m m m m m m m m m m m m m m m m m m m m m m m m m m m m m m m m m m m m N c l l x x l x x x l l l l l l l l l l l l l l k k l l l l l k k k k k l k k k k k k k k k k k k k k k k a a w ' KXJXJXJXJXJXJXJXJXJXJXJXJXJXJXJXJXJXJXJXJXJXJXJXJXJXJXJXJXJXKXJXJXJXJXKXKXJXKXKXKXKXKXJXJXJXJXKXKXKXKXJXJXJXJXJXJXJXJXJXJXJXJXJXKXKX& . $ # # # # # # # # # # # # # # # # # # # # # # # # # # # # $ . % LXKXKXJXJXJXJXJXJXJXJXJXJXJXJXJXJXKXKXKXKXJXJXJXJXKXKXKXKXKXKXKXJXKXKXKXKXKXKXKXKXKXKXKXKXKXKXKXKXKXKXKXKXKXKXKXKXKXKXKXKXKXKXKXKXKXKXBX{ { ..{ ..{ { { ......X...................X.X.O.O.O.O.O.O.O.O.O.O.O.O.+.+.+.+.+.O.O.O.O.O.+.} I U Y U U U U U U U U U U U U U U U U W U U U U P U P R J l l x x x x x l y t y y y y y y y y y t w 8 gXKXJXJXJXJXJXJXJXJXJXJXJXGXGXGXGXGXGXJXJXJXJXJXJXJXJXJXJXJXJXJXJXJXJXJXJXJXJXJXJXJXJXJXJXJXJXJXJXJXJXJXJXJXJXJXJXJXJXJXJXJXJXJXJXKX@XS.{.        ",
"          k.k.k.k.k.k.k.h.h.h.h.h.h.h.h.h.h.h.h.g.h.h.h.h.g.g.g.g.g.h.s.e.r.r.r.e.e.e.t.e.e.t.e.t.e.e.0.0.0.0.0.0.2.2.&.7.sX1X7X7X4X4X4X>X>X7XO.N c n n m m m m m m m m m m n m m m m m m m m m m m m m m m m m m m m m m m m m m m m m n l l x x x x x x l l l l l l l l l l l l l l l l k l l l l l l k k k k k k k k k k k k k k k k k k k a a a a q ' KXJXJXJXJXJXJXJXJXJXJXJXJXJXJXJXJXJXJXJXJXJXJXJXJXJXJXJXJXJXKXKXJXJXJXKXKXKXKXJXKXKXKXJXJXJXJXKXKXKXJXJXJXJXJXJXJXJXJXJXJXKXJXKXKXg . $ # # # # # # # # # # # # # # # # # # # # # # # # # # # # # # $ . g KXKXJXKXJXJXJXJXJXJXJXJXJXJXJXKXJXJXKXKXKXJXJXJXKXKXKXKXKXKXKXKXKXKXKXKXKXKXKXKXKXKXKXKXKXKXKXKXKXKXKXKXKXKXKXKXKXKXKXKXKXKXKXKXKXKXBX{ ....{ ....{ { ....X.................X...X.X.O.O.O.O.O.O.O.O.O.O.O.+.+.+.+.+.O.O.O.O.O.O.O.{ Y U U U U U U U U U U U U U U U U U U U U U U U P P P I K n l x x x x x l u t y y y y t y t t y y w 8 gXKXJXJXJXJXJXJXJXJXJXJXJXJXGXGXGXGXJXJXJXJXJXJXJXJXJXJXJXJXJXJXJXJXJXJXJXJXJXJXJXJXJXJXJXJXJXJXJXJXJXJXJXJXJXJXJXJXJXJXJXJXJXJXJXKXlXS.{.        ",
"          k.k.k.k.k.k.h.h.h.h.h.k.k.h.h.h.h.h.h.g.g.h.h.h.g.h.h.g.g.h.y.e.e.r.r.e.e.e.t.e.e.t.e.t.e.e.0.0.0.0.0.2.2.2.&.7.sX1X4X4X7X4X4X>X>X7X+.N c n n m m m m m m m m m n n m m m m m m m m m m m m m m m m m m m m m m m m m m m m n l l l x x x x x x l l l l l l l l l l l l l l l l l l l l l l k k k k k k k k k k k k k k k k k k k k k a a a q ' KXJXJXJXJXJXJXJXJXJXJXJXJXJXJXJXJXJXJXJXJXJXJXJXJXJXJXJXJXJXJXJXJXJXJXKXJXJXKXKXKXKXJXKXKXJXJXJXJXJXJXJXJXJXJXJXJXJXJXJXKXJXJXKXqX. # # # # # # # # # # # # # # # # # # # # # # # # # # # # # # # # # # . -XKXJXJXJXJXJXJXJXJXJXJXJXJXJXKXJXKXKXKXJXJXJXJXJXKXKXKXKXKXKXKXKXKXKXKXKXKXKXKXKXKXKXKXKXKXKXKXKXKXKXKXKXKXKXKXKXKXKXKXKXKXKXKXKXKXBX{ ..X.{ { { { ......X.................X.X.X.X.O.O.O.O.O.O.O.O.O.O.O.+.+.+.O.O.O.O.O.O.O.O.O.{ Y U U U U U U U U U U U U U U U U U U W U U U U U U P P R N k x x x x x l u q y y y y y t y t y y w 8 fXKXJXJXJXJXJXJXJXJXJXJXGXGXGXJXJXGXJXJXJXJXJXJXJXJXJXJXJXJXJXJXJXJXJXJXJXJXJXJXJXJXJXJXJXJXJXJXJXJXJXJXJXJXJXJXJXJXJXJXJXJXJXJXJXKXlXS.{.        ",
"          k.k.k.k.k.k.h.h.h.h.h.k.k.k.h.h.h.h.h.g.g.h.h.h.g.h.h.g.g.h.y.e.r.r.r.e.e.e.e.e.e.t.e.t.e.e.0.0.0.0.0.2.2.2.&.7.sX1X4X4X7X4X4X>X>X7X+.B c n n m m m m m m m m m n n n n m m m m m m m m m m m m m m m m m m m m m m m m m c l l x l x x x l l x x l l l l l l l l l l l l l l l k k l l l l l k k k k k k k k k k k k k k k k k k k k a a a w ' KXJXJXJXJXJXJXJXJXJXJXJXJXJXJXJXJXJXJXJXJXJXJXJXJXJXJXJXJXJXJXJXJXKXKXJXJXJXKXJXKXKXJXKXKXJXJXJXJXKXJXJXJXJXJXJXJXJXJXJXKXJXKXLX% X $ # # # # # # # # # # # # # # # # # # # # # # # # # # # # # # # # $ X X PXKXJXJXJXJXJXJXJXJXJXJXJXJXJXJXJXKXKXJXJXJXJXJXKXKXKXJXJXKXKXKXKXKXKXKXKXKXKXKXKXKXKXKXKXKXKXKXKXKXKXKXKXKXKXKXKXKXKXKXKXKXKXKXKXCX..{ X...{ { { ..................X...X.X.X.X.X.O.O.O.O.O.O.O.O.O.O.O.+.+.+.+.+.O.O.O.O.O.O.O...Y U U U U U U U U U U U W W U U U U U W U U U U U P P P R D l x x x x l l p q t y y y y y y t y y w 8 fXKXJXJXJXJXJXJXJXJXJXJXGXGXGXJXGXGXJXJXJXJXJXJXJXJXJXJXJXJXJXJXJXJXJXJXJXJXJXJXJXJXJXJXJXJXJXJXJXJXJXJXJXJXJXJXJXJXJXJXJXJXJXJXJXKXlXS.{.        ",
"          k.k.k.k.k.h.h.h.k.h.h.k.k.k.h.h.h.h.h.g.g.g.h.h.h.h.g.g.h.h.r.e.e.r.r.e.e.e.e.e.e.t.e.e.e.e.0.0.0.0.0.2.2.2.&.7.dX1X4X4X7X4X>X>X>X7X+.V c m m m m m m m m m m m m m m m m m m m m m m m m m m m m m m m m m m m m m m m c l l x x l l l l l l x x l l l l l l l l l l l l l l l k k l k k k k k k k k k k k k k k k k k k k k k k k k a a a w ' KXJXJXJXJXJXJXJXJXJXJXJXJXJXJXJXJXJXJXJXJXJXJXJXJXJXJXJXJXJXJXKXKXKXKXJXJXJXJXKXJXJXKXKXKXKXKXJXJXJXJXJXJXJXJXJXJXJXKXJXJXKXKX-X. $ # # # # # # # # # # # # # # # # # # # # # # # # # # # # # # # # # # $ . g KXKXJXJXJXJXJXJXJXJXJXJXJXJXJXJXJXJXJXJXJXJXKXKXKXKXJXJXKXKXKXKXKXKXKXKXKXKXKXKXKXKXKXKXKXKXKXKXKXKXKXKXKXKXKXKXKXKXKXKXKXKXKXKXZXX...X.......{ ....................X.X.X.X.X.X.O.O.+.O.+.+.+.+.O.O.O.O.+.+.+.+.O.+.O.O.O.O.O.X.W U U U U U U U U U U U W W W U U U U U U U U U U P P U R D l x x x l l x p q y y y y t y y y y y w 8 fXKXJXJXJXJXJXJXJXJXJXJXJXGXGXJXJXGXGXJXJXJXJXJXJXJXJXJXJXJXJXJXJXJXJXJXJXJXJXJXJXJXJXJXJXJXJXJXJXJXJXJXJXJXJXJXJXJXJXJXJXJXJXJXJXKX@XS.{.        ",
"          k.k.k.k.k.h.h.h.k.k.k.k.k.h.h.h.h.h.h.g.g.g.h.h.h.h.g.g.h.h.r.e.r.r.r.e.e.e.e.e.e.t.e.e.e.e.0.0.0.0.0.2.2.2.&.7.dX1X4X4X7X4X>X>X>X7X+.V c m m m m m m m m m m m m m n n m m m n m m m m m m m m m m m m m m m m m m m n x l x x x l l l l l l x x l l l l l l l l l l l l l l l k k k l k k k k k k l l k k k k k k k k k k k k k k k a a a q ' KXJXJXJXJXJXJXJXJXJXJXJXJXJXJXJXJXJXJXJXJXJXJXJXJXJXJXJXJXJXKXJXKXJXKXJXJXJXJXJXJXKXKXJXKXKXKXJXJXJXJXJXJXJXJXJXJXJXJXKXJXKXKX& X # # # # # # # # # # # # # # # # # # # # # # # # # # # # # # # # # # # # X % LXKXJXJXJXJXJXJXJXJXJXJXJXJXKXKXKXJXJXJXJXJXJXKXKXKXKXKXKXKXKXKXKXKXKXKXKXKXKXKXKXKXKXKXKXKXKXKXKXKXKXKXKXKXKXKXKXKXKXKXKXKXKXKXCXX.X.X.................X.X.........X.X.X.X.X.O.O.O.+.O.O.+.+.+.O.O.O.O.+.+.+.+.O.+.O.O.O.O.+.X.Q U U U W U U W U U U U U U U U U U W W U U U U U U P P R F l x x x x l x p q y y y y y y t y y y w 0 VXKXJXJXJXJXJXJXJXJXJXJXJXGXGXJXJXGXGXJXJXJXJXJXJXJXJXJXJXJXJXJXJXJXJXJXJXJXJXJXJXJXJXJXJXJXJXJXJXJXJXJXJXJXJXJXJXJXJXJXJXJXJXJXJXKXlXS.{.        ",
"          k.k.k.k.k.h.h.h.h.h.h.h.h.h.k.h.h.h.h.h.g.h.h.h.h.h.h.h.h.h.r.e.r.e.e.e.e.e.e.e.e.e.e.e.e.e.0.0.0.0.0.2.2.2.&.8.dX1X7X4X4X4X>X4X>X1X+.V c n m m m m m m m m m m m m m m m m n m m m m m m m m m m m m m m m m m m m n l l x x x x x x l x x x x x l l l l l l l l l l l l l l l k k k l l l k k k k k l l k k k k k k k k k k k k k k k a a y ' KXJXJXJXJXJXJXJXJXJXJXJXJXJXJXJXJXJXJXJXJXJXJXJXJXJXJXJXJXKXKXKXKXJXJXJXKXKXKXJXJXJXJXJXJXKXJXJXKXJXJXJXJXJXJXJXJXJXKXJXJXKX=X. # # # # # # # # # # # # # # # # # # # # # # # # # # # # # # # # # # # # # # . -XKXJXJXJXJXJXJXJXJXJXJXJXJXJXJXJXJXKXJXJXJXKXKXKXKXKXKXKXKXKXKXKXKXKXKXKXKXKXKXKXKXKXKXKXKXKXKXKXKXKXKXKXKXKXKXKXKXKXKXKXKXJXKXCX..X.X.....{ ............X.X.......X.X.X.X.X.O.O.O.O.O.+.+.+.+.+.O.O.O.O.+.+.+.+.+.O.O.O.O.+.O.! P U Y U U U U U U U U U U U U U U W W U U U U U U P P I J x l x x x x x p q y y y y t t t y y y w r VXKXJXJXJXJXJXJXJXJXJXJXJXGXGXJXJXGXJXJXJXJXJXJXJXJXJXJXJXJXJXJXJXJXJXJXJXJXJXJXJXJXJXJXJXJXJXJXJXJXJXJXJXJXJXJXJXJXJXJXJXJXJXJXJXKXlXS.{.        ",
"          k.k.k.k.k.h.h.h.h.h.h.h.h.k.h.h.h.h.h.g.g.g.h.h.h.h.h.h.h.g.r.e.r.e.e.e.e.e.e.e.e.t.t.e.e.e.0.0.0.0.2.2.2.2.&.8.sX1X7X7X5X4X>X>X>X7X<XV c n m m m m m m m m m m m m n n m n n m m m m m m m n m n m m m m m m m m n x l x x x l x x x x x x x x l l l l l l l l l l l l l l l l l k k k l l k k k k k l k k k k k k k k k k k k k k k z k a y ' KXJXJXJXJXJXJXJXJXJXJXJXJXJXJXJXJXJXJXJXJXJXJXJXJXJXJXJXKXKXKXJXJXJXJXJXJXKXKXJXJXJXJXJXJXKXKXJXJXJXJXJXJXJXJXJXJXJXJXJXKXKXg . $ # # # # # # # # # # # # # # # # # # # # # # # # # # # # # # # # # # # # $ . g KXKXJXJXJXJXJXJXJXJXJXJXJXJXJXJXJXKXKXKXJXKXKXKXKXKXKXKXKXKXKXKXKXKXKXKXKXKXKXKXKXKXKXKXKXKXKXKXKXKXKXKXKXKXKXKXKXKXKXKXKXJXKXCX....X.....{ ............X.X.........X.X.X.X.O.O.O.O.O.O.O.O.+.+.+.+.+.O.+.+.+.+.+.+.O.O.O.+.O.! P U U U U U U U W W U U U U U U U W W U U U U U U U P I K n l x x x x x a q y y y y t t y y y y w i VXKXJXJXJXJXJXJXJXJXJXJXGXGXGXJXJXGXJXJXJXJXJXJXJXJXJXJXJXJXJXJXJXJXJXJXJXJXJXJXJXJXJXJXJXJXJXJXJXJXJXJXJXJXJXJXJXJXJXJXJXJXJXJXJXKXlXS.{.        ",
"          k.k.k.k.k.h.h.h.h.h.h.h.h.h.h.h.g.h.h.g.g.h.h.h.h.h.h.h.h.h.e.e.r.r.r.e.e.e.e.e.e.e.t.e.e.e.e.e.0.0.2.2.2.2.&.8.pX1X7X7X5X4X>X4X>X1X<XD c m m m m m m m m m m m m m n n m n m m m m m m m m m m m m n m m m m m n x l x x l l x x x x l x x x x x l l l l l l l l l l l l l l l l k k l k k l l l k k l k l k k k k k k k k k k k k k k k k y ' KXJXJXJXJXJXJXJXJXJXJXJXJXJXJXJXJXJXJXJXJXJXJXJXJXJXJXJXJXKXKXJXJXJXJXJXJXJXJXKXKXJXKXJXJXKXKXKXJXJXJXJXJXJXJXJXJXJXJXJXKXLX% X # # # # # # # # # # # # # # # # # # # # # # # # # # # # # # # # # # # # # # X % JXKXJXJXJXJXJXJXJXJXJXJXJXJXJXJXJXKXKXKXKXJXKXKXKXKXJXKXKXKXKXKXKXKXKXKXKXKXKXKXKXKXKXKXKXKXKXKXKXKXKXKXKXKXKXKXKXKXKXKXKXJXKXCX..............X.......X.X.X.X.......X.X.X.O.O.O.+.+.O.O.O.O.+.+.+.+.+.O.+.+.+.+.+.+.+.+.+.+.+.Q P W Y W U U U W W W U U U U U U U W W U U U U U U U U I K m k x x x x x a q y y y y y t y y y u w r VXKXJXJXJXJXJXJXJXJXJXJXGXGXGXGXJXJXGXJXJXJXJXJXJXJXJXJXJXJXJXJXJXJXJXJXJXJXJXJXJXJXJXJXJXJXJXJXJXJXJXJXJXJXJXJXJXJXJXJXJXJXJXJXJXKXxXS.{.        ",
"          k.k.k.k.k.h.h.h.h.h.h.h.h.h.h.h.h.h.h.g.g.h.h.h.h.h.h.h.h.g.e.e.e.r.r.e.e.e.t.e.e.e.t.e.e.e.e.e.0.0.2.2.0.2.>.8.pX1X0X4X4X4X>X4X>X1X<XV c n m m m m m m m m m m m m m n n m m m m m m m m m m m m m n n n m m n x x x x x x x x x l x x x x x x x l l l l l l l l l l l l l l l l l l k k l l l l k k l l l k k k k k k k k k k k k k k k k y ' KXKXJXJXJXJXJXJXJXJXJXJXJXJXJXJXJXJXJXJXJXJXJXJXJXJXJXJXJXKXKXJXJXJXJXJXJXJXJXKXKXJXJXJXJXKXKXKXJXJXJXJXJXJXJXJXJXJXJXJXKXmXX @ # # # # # # # # # # # # # # # # # # # # # # # # # # # # # # # # # # # # # # @ X mXKXJXJXJXJXJXJXJXJXJXJXJXJXJXJXJXKXKXKXKXKXKXKXKXKXKXKXKXKXKXKXKXKXKXKXKXKXKXKXKXKXKXKXKXKXKXKXKXKXKXKXKXKXKXKXKXKXKXKXKXKXKXCX..{ ......X.....X.X.X.X.X.X.X...X.X.X.X.X.O.+.+.+.+.O.+.O.O.+.+.+.O.O.+.+.+.+.+.+.+.+.+.+.<X+.Q P U Y W U U U W W W U W U U U U U W W U U U U U U U U P L N k x x x x c a q y y y t y y t y y y w i VXKXJXJXJXJXJXJXJXJXJXGXGXGXGXGXGXGXGXJXJXJXJXJXJXJXJXJXJXJXJXJXJXJXJXJXJXJXJXJXJXJXJXJXJXJXJXJXJXJXJXJXJXJXJXJXJXJXJXJXJXJXJXJXJXKXlXS.{.        ",
"          k.k.k.k.k.h.h.h.h.h.k.h.h.h.h.h.h.h.h.h.h.h.h.h.h.h.h.h.h.g.e.e.r.r.r.e.e.e.t.t.t.e.e.e.e.e.0.e.e.0.0.2.0.2.>.8.sX7X4X4X7X4X4X4X>X7X<XG c n n m m m m m m m m m n n m n n m m m m m m m m m m m m m n n m m n x l x x x x x x x l l x l l l x x x x l l l l l l l l l l l l l l l l k k k k k k k k l l l k k k k k k k k k k k k k k k k k q ' KXJXJXJXJXJXJXJXJXJXJXJXJXJXJXJXJXJXJXJXJXJXJXJXJXJXJXJXJXJXJXJXKXKXKXKXKXJXJXJXJXJXJXJXJXKXKXJXJXJXJXJXJXJXJXJXJXJXJXJXKX-X. # # # # # # # # # # # # # # # # # # # # # # # # # # # # # # # # # # # # # # # # . =XKXJXJXJXJXJXJXJXJXJXJXJXJXJXJXKXKXJXJXJXKXKXKXKXKXKXKXKXKXKXKXKXKXKXKXKXKXKXKXKXKXKXKXKXKXKXKXKXKXKXKXKXKXKXKXKXKXKXKXKXKXKXCX......{ { ......X.X.X.X...X.X.X.X.X.X.X.X.O.+.+.+.+.+.O.O.O.O.+.+.+.+.+.O.O.O.+.+.+.+.+.+.+.O.Q P U U W U U U U U W U W U U U U U U U U U U U U U U U U L B k x x x x x k y y y y y y y y y y y w s CXKXJXJXJXJXJXJXJXJXJXGXGXGXGXGXGXGXJXJXJXJXJXJXJXJXJXJXJXJXJXJXJXJXJXJXJXJXJXJXJXJXJXJXJXJXJXJXJXJXJXJXJXJXJXJXJXJXJXJXJXJXJXJXJXKXlXS.{.        ",
"          l.k.k.k.k.h.h.h.h.h.h.h.h.h.h.h.h.h.h.h.h.h.h.h.h.h.h.h.k.g.e.e.r.r.r.e.e.e.e.t.t.e.e.e.e.e.0.0.e.0.0.2.2.0.>.-.sX9X4X7X7X4X4X4X>X>X2XG x n n m m m m m m m m n n n m n m m m m m m m m m m m m m n n m m n x x x x x x x x x l l x x l l x l x x x l l l l l l l l l l l l l l l k k l l k k k k k k l l k k k k k k k k k k k k k k k k k q ' KXJXJXJXJXJXJXJXJXJXJXJXJXJXJXJXJXJXJXJXJXJXJXJXJXJXJXKXJXJXJXKXJXJXKXKXKXJXJXJXJXJXJXJXJXKXKXKXJXJXJXJXJXJXJXJXJXJXJXJXKX$.. # # # # # # # # # # # # # # # # # # # # # # # # # # # # # # # # # # # # # # # # . $.KXKXJXJXJXJXJXJXJXJXJXJXJXJXJXJXJXJXJXJXJXKXKXKXKXKXKXKXKXKXKXKXKXKXKXKXKXKXKXKXKXKXKXKXKXKXKXKXKXKXKXKXKXKXKXKXKXKXKXKXKXKXCX....X.{ { ..X.X.....X.....X.X.X.X.X.X.X.X.O.+.+.+.+.+.+.+.O.O.+.+.+.+.+.O.+.+.+.+.+.+.+.+.+.X.Q P W U W W W U U U W U U U U U U U U U U U U U U U U P U L D k x x x l x k t y y y y y y y y y u 5 d FXKXJXJXJXJXJXJXJXJXJXGXGXGXGXGXJXGXJXJXJXJXJXJXJXJXJXJXJXJXJXJXJXJXJXJXJXJXJXJXJXJXJXJXJXJXJXJXJXJXJXJXJXJXJXJXJXJXJXJXJXJXJXJXJXKXlXS.{.        ",
"          l.k.k.k.k.h.h.h.h.k.k.h.h.h.h.h.h.h.h.h.h.h.h.h.h.h.h.h.k.g.e.e.e.r.r.e.e.e.e.t.e.e.e.e.e.e.0.0.e.0.0.2.2.e.<.-.pX8X4X7X4X5X4X>X>X>X8XE x m m m m m m m m m m m m m m m m m m m m m m m m m m m n n m m n x x x x x x x x x x l l x x x x l l x x x x l l l l l l l l l l l l l l k k l l k k l l l k l l k k k k k k k k k k k k k k k k k q ' KXKXJXJXJXJXJXJXJXJXJXJXJXJXJXJXJXJXJXJXJXJXJXJXJXJXJXKXKXJXJXJXKXKXKXKXKXKXJXJXJXJXJXKXKXKXKXKXJXJXJXJXJXJXJXJXJXJXJXJXKX-X. # # # # # # # # # # # # # # # # # # # # # # # # # # # # # # # # # # # # # # # # . $.KXJXJXJXJXJXJXJXJXJXJXJXJXJXJXJXJXKXJXJXJXKXKXKXKXKXKXKXKXKXKXKXKXKXKXKXKXKXKXKXKXKXKXKXKXKXKXKXKXKXKXKXKXKXKXKXKXKXKXKXKXKXCX{ ..X.{ { { ..X.....X.X...X...X.X.X.X.X.X.O.O.+.+.+.+.+.+.+.+.+.+.+.+.+.+.+.+.+.+.+.+.+.+.+.X.Q P W W W W W U U U U U U W W W U U U U W U U U U U U U U L D a l x x x x k y y y y y y y y y y u 5 d GXKXJXJXJXJXJXJXJXJXJXGXGXGXGXGXJXJXJXJXJXJXJXJXJXJXJXJXJXJXJXJXJXJXJXJXJXJXJXJXJXJXJXJXJXJXJXJXJXJXJXJXJXJXJXJXJXJXJXJXJXJXJXJXJXKXxXS.{.        ",
"          l.k.k.l.k.h.h.h.h.k.k.h.h.h.h.h.h.h.h.h.h.h.h.h.h.g.h.h.k.g.e.e.r.y.y.e.e.e.e.e.e.t.t.e.e.e.0.0.e.0.0.2.2.2.<.-.aX8X0X5X4X5X4X7X>X>X8XE c m m m m m m m m m m m m m m m m m m m m m m m m m m n m m m n x x x x x x x x x x x l l x x x x l l x x x x l l l l l l l l l l l l l l l l l l l k l l l k l l k k k k k k k k k k k k k k k k a y ' KXJXJXJXJXJXJXJXJXJXJXJXJXJXJXJXJXJXJXJXJXJXJXJXJXJXJXKXKXJXJXJXKXJXJXKXKXKXKXKXJXJXJXKXKXKXKXKXKXJXJXJXJXJXJXJXJXJXJXJXKX$.. # # # # # # # # # # # # # # # # # # # # # # # # # # # # # # # # # # # # # # # # . $.KXJXJXJXJXJXJXJXJXJXJXJXJXJXJXJXJXJXJXJXJXKXKXKXKXJXKXKXKXKXKXKXKXKXKXKXKXKXKXKXKXKXKXKXKXKXKXKXKXKXKXKXKXKXKXKXKXKXKXKXKXKXCX....X.{ ..{ { X.X.X.......X...X.X.X.X.X.X.O.O.+.+.+.+.+.+.+.+.+.+.+.+.+.+.+.+.+.+.+.+.+.+.+.X.W U W W U W W U U W U U U W W W U U W W W U U U U U U U U R D k x x x l x k y y y y y y y y y y u 5 Z JXKXJXJXJXJXJXJXJXJXJXGXFXGXGXGXJXJXJXJXJXJXJXJXJXJXJXJXJXJXJXJXJXJXJXJXJXJXJXJXJXJXJXJXJXJXJXJXJXJXJXJXJXJXJXJXJXJXJXJXJXJXJXJXJXKXlXS.{.        ",
"          k.k.k.k.k.h.h.h.h.h.h.h.h.k.k.h.h.h.h.h.h.h.h.h.h.h.h.h.k.g.e.e.r.t.y.e.e.e.e.e.e.t.t.e.e.e.0.0.e.0.0.0.2.2.,.=.gX9X7X0X7X7X7X4X4X>X9XE c m m m m m m m m m m m m m m m m m m m m m m m m m m n m m n x x x x x x x x x x x x l l l x x x l l l l l l l l l l l l l l l l l l l l l l l l k l l l l k k l k k k k k k k k k k k k k k k k k y ' KXJXJXJXJXJXJXJXJXJXJXJXJXJXJXJXJXJXJXJXJXJXJXJXJXJXJXKXKXJXJXJXJXKXKXKXKXKXJXKXJXJXJXJXJXKXKXKXJXJXJXJXJXJXJXJXJXJXJXKXKXg . # # # # # # # # # # # # # # # # # # # # # # # # # # # # # # # # # # # # # # # # . $.KXJXJXJXJXJXJXJXJXJXJXJXJXJXJXJXJXKXKXKXJXKXKXKXKXKXKXKXKXKXKXKXKXKXKXKXKXKXKXKXKXKXKXKXKXKXKXKXKXKXKXKXKXKXKXKXKXKXKXKXKXKXZX..X.X.....{ { ..X.X.......X.X.X.X...X.X.X.O.O.O.+.+.+.+.+.+.+.+.+.+.+.+.+.+.+.+.+.+.+.+.+.+.X.Y P W U U U W W W W W U U U W W W W W W U U U U U U U U P R F l x x x l x k y y y y y y y y y y u 5 Z KXJXJXJXJXJXJXJXJXJXJXGXFXGXGXGXJXGXJXJXJXJXJXJXJXJXJXJXJXJXJXJXJXJXJXJXJXJXJXJXJXJXJXJXJXJXJXJXJXJXJXJXJXJXJXJXJXJXJXJXJXJXJXJXJXKX@XS.{.        ",
"          k.k.k.k.k.h.h.h.h.h.h.k.k.h.h.h.h.h.h.h.h.h.h.h.h.h.h.h.k.g.e.e.e.r.e.e.e.e.e.e.t.e.e.e.e.e.e.e.e.0.0.0.2.2.,.=.qX9X4X4X7X7X7X4X4X>X9XE c m m m m m m m m m m m m m m m m m m m m m m m m m m n m n x x x x x x x x x x x x x l l x x x x l l l l x x l l l l l l l l l l l l l l l l k l l l l k k l l k k k k k k k k k l k k k k k k k k t ' KXJXJXJXJXJXJXJXJXJXJXJXJXJXJXJXJXJXJXJXJXJXJXJXJXJXJXKXKXJXJXJXJXKXKXJXKXJXJXJXJXKXJXJXJXJXKXJXJXJXJXJXJXJXJXJXJXJXJXJXKXg . # # # # # # # # # # # # # # # # # # # # # # # # # # # # # # # # # # # # # # # # . g KXKXJXJXJXJXJXJXJXJXJXJXJXJXJXJXJXKXKXKXJXKXKXKXKXKXKXKXKXKXKXKXKXKXKXKXKXKXKXKXKXKXKXKXKXKXKXKXKXKXKXKXKXKXKXKXKXKXKXKXKXKXCX....X...........X.X.X.X.X.X.X.X.X.X.X.X.O.O.O.O.+.+.+.+.+.+.+.+.+.+.+.+.+.+.+.+.O.+.+.O.O.O...Y P W U W W U W W U U U U U W W U U U W U U U U U U U U P R F l l x x x x l y y y y y y y y y y u 5 _ KXJXJXJXJXJXJXJXJXJXJXGXFXGXGXGXGXJXJXJXJXJXJXJXJXJXJXJXJXJXJXJXJXJXJXJXJXJXJXJXJXJXJXJXJXJXJXJXJXJXJXJXJXJXJXJXJXJXJXJXJXJXJXJXJXKXlXS.{.        ",
"          k.k.k.k.k.h.h.h.h.h.h.k.k.h.h.h.h.h.h.h.h.h.h.h.h.h.h.h.l.s.e.e.e.r.r.e.e.e.e.t.e.e.e.e.e.e.e.e.e.0.0.2.2.2.3.&.%X9X4X4X5X7X4X4X4X>X9X( n m m m m m m m m m m m m m m m m m m m m m m m m m m m n x x x x x x x x x x x x x x l l x x x x x x x x x x l l l l l l l l l l l l l l l l k l l k l k k l l l k k k k k k k k k k k k k k k k k t ' KXJXJXJXJXJXJXJXJXJXJXJXJXJXJXJXJXJXJXJXJXJXJXJXJXKXKXJXKXKXKXJXJXJXKXJXJXJXJXKXKXKXKXJXKXKXKXJXKXJXJXJXKXJXJXJXJXJXJXJXKX-X. # # # # # # # # # # # # # # # # # # # # # # # # # # # # # # # # # # # # # # # # . &XKXJXJXJXJXJXJXJXJXJXJXJXJXJXJXJXKXKXJXJXJXJXKXKXKXKXKXKXKXKXKXKXKXKXKXKXKXKXKXKXKXKXKXKXKXKXKXKXKXKXKXKXKXKXKXKXKXKXKXKXJXKXZXo.X.X...........X.X.X.X.X.X.....X.X.X.X.O.+.+.+.+.+.+.+.+.+.+.+.+.+.+.+.+.+.+.+.+.+.+.O.O.O...Y U W U U U U U W W U U U U W U U U U U U U U U W U U U P I J x l x x x x l y y y y y y y y y y u 5 ` KXJXJXJXJXJXJXJXJXJXGXGXFXFXGXGXGXJXJXJXJXJXJXJXJXJXJXJXJXJXJXJXJXJXJXJXJXJXJXJXJXJXJXJXJXJXJXJXJXJXJXJXJXJXJXJXJXJXJXJXJXJXJXJXJXKXxXS.{.        ",
"          k.k.k.k.k.h.h.h.h.h.h.k.k.h.h.h.h.h.h.h.h.h.h.h.h.h.h.h.k.s.e.e.e.r.r.e.e.e.e.t.e.e.e.e.e.e.e.e.e.0.0.2.2.2.w.&.%XiX5X0X0X5X4X4X>X>X9X| n n m m m m m m m m m m m m m m m m m m m m m m m n m n x x x x x x x x x x x x x x x x x x x x x x x x x x x x l l l l l l l l l l l l l l l l l k l l l l k k l k k k k k k k k k k k k k k k k a y ' KXJXJXJXJXJXJXJXJXJXJXJXJXJXJXJXJXJXJXJXJXJXJXJXKXKXKXJXKXKXKXJXJXJXJXJXJXJXJXKXKXKXKXKXJXKXKXKXJXJXKXJXJXJXJXJXJXJXJXKXKX=X. # # # # # # # # # # # # # # # # # # # # # # # # # # # # # # # # # # # # # # # # X mXKXJXJXJXJXJXJXJXJXJXJXJXJXJXJXKXKXKXJXKXJXJXKXKXKXKXKXKXKXKXKXKXKXKXKXKXKXKXKXKXKXKXKXKXKXKXKXKXKXKXKXKXKXKXKXKXKXKXKXKXJXKXZXX.X.X...........X.X.X.X.X.X.X.X.X...X.X.O.+.+.+.+.+.+.+.+.+.+.+.+.+.+.+.+.+.+.+.+.+.+.+.O.+.{ P U U U U U U W W W U U U U U U U U U U U U U U U U U U P I J x l x x l x k y y y y y y y y y y y 5 ` KXJXJXJXJXJXJXJXJXJXGXFXFXFXGXGXJXGXGXJXJXJXJXJXJXJXJXJXJXJXJXJXJXJXJXJXJXJXJXJXJXJXJXJXJXJXJXJXJXJXJXJXJXJXJXJXJXJXJXJXJXJXJXJXJXKXxXS.{.        ",
"          k.k.k.k.k.h.h.h.h.h.h.k.k.h.h.h.h.h.h.h.h.h.h.h.h.h.h.h.l.s.e.e.e.r.r.e.e.e.e.e.e.e.e.e.e.e.e.e.e.0.0.2.2.2.0.&.&XiX5X5X5X5X7X4X4X>X0Xo.n n m m m m m m m m m m m m m m m m m m m m m m m m n x x x x x x x x x x x x x x x x x x x x x x x x x l x l x l l l l l l l l l l l l l l l l l l l l l l k l k k k k k k k k k k k k k k k k k a q ' KXJXJXJXJXJXJXJXJXJXJXJXJXJXJXJXJXJXJXJXJXJXJXJXKXKXKXJXJXJXKXKXKXKXKXJXJXJXKXKXJXJXKXKXKXKXKXKXKXKXKXKXJXJXJXJXJXJXJXKXKXPX# X # # # # # # # # # # # # # # # # # # # # # # # # # # # # # # # # # # # # # # X $ LXKXJXJXJXJXJXJXJXJXJXJXJXJXJXJXJXJXJXJXJXKXKXKXKXKXKXKXKXKXKXKXKXKXKXKXKXKXKXKXKXKXKXKXKXKXKXKXKXKXKXKXKXKXKXKXKXKXKXKXKXKXKXCXX.X.X.....{ ....X.X.X.X.X.X.X.......X.X.O.O.+.+.+.+.+.+.+.+.+.+.+.+.+.+.+.+.+.+.+.+.+.+.O.+.} P U W U U U U W U W U U U U U U U U U U U U U U U U U U P I K c l x l l x l y q y y y y y y u u y 5 ' KXJXJXJXJXJXJXJXJXJXGXGXFXFXGXGXGXGXGXJXJXJXJXJXJXJXJXJXJXJXJXJXJXJXJXJXJXJXJXJXJXJXJXJXJXJXJXJXJXJXJXJXJXJXJXJXJXJXJXJXJXJXJXJXJXKXlXS.{.        ",
"          k.k.k.k.h.h.h.h.h.h.h.k.k.h.h.k.h.h.h.h.h.h.h.h.h.h.h.h.k.s.e.r.e.r.r.e.e.e.e.e.e.e.e.e.e.e.e.0.e.0.0.2.2.2.2.&.&XpX5X0X5X4X7X7X4X>X0X@.m n m m m m m m m m m m m m m m m m m m m m m m m m c x x x x x x x x x x x x x x x x x x x x x x x x x x l l x l l l l l l l l l l l l l l l l l l k k k l l k l k k k k k k k k k k k k k k k k a q ' KXJXJXJXJXJXJXJXJXJXJXJXJXJXJXJXJXJXJXJXJXJXJXJXJXJXJXJXJXJXJXJXKXKXKXKXJXKXKXJXJXJXJXKXJXKXJXKXKXKXKXKXKXJXJXJXJXKXJXJXKXKXj . $ # # # # # # # # # # # # # # # # # # # # # # # # # # # # # # # # # # # # # . j KXKXJXJXJXJXJXJXJXJXJXJXJXJXJXJXJXJXJXJXJXKXJXKXKXJXKXKXKXKXKXKXKXKXKXKXKXKXKXKXKXKXKXKXKXKXKXKXKXKXKXKXKXKXKXKXKXKXKXKXKXKXKXCX....X.....{ ....X.X.X.X.X.X.X.X...X.X.X.O.O.O.+.+.+.+.+.+.+.+.+.+.+.+.+.+.+.+.+.+.+.O.+.O.+.} P W W U U U U U W W U U U U U U U U W U U U U U U U U U P K K c l x l x x l y q y y y y y y y u y 5 ;XKXJXJXJXJXJXJXJXJXJXGXGXFXFXFXGXGXGXGXJXJXJXJXJXJXJXJXJXJXJXJXJXJXJXJXJXJXJXJXJXJXJXJXJXJXJXJXJXJXJXJXJXJXJXJXJXJXJXJXJXJXJXJXJXJXKXxXS.{.        ",
"          l.k.k.k.h.h.h.h.h.k.k.h.k.k.k.h.h.h.h.h.h.h.h.h.h.h.h.h.k.s.e.e.e.r.r.e.e.e.t.t.e.e.e.t.e.e.e.e.0.0.0.2.2.0.2.;.7.pX7X5X0X4X7X4X4X>X0X@.N n m m m m m m m m m m m m m m m m m m m n m m m c x x x x x x x x x x x x x x x x x l x x x x l x x x l l l x x l l l l l l l l l l l l l l l l k k k k l k k k l l k l l k l k k k k k k k k k a q ' KXJXJXJXJXJXJXJXJXJXJXJXJXJXJXJXJXJXJXJXJXJXJXKXKXJXJXJXJXJXJXKXKXJXJXKXKXKXKXJXJXJXJXKXJXJXJXJXKXJXJXKXJXKXKXJXJXJXKXJXJXKX-X. # # # # # # # # # # # # # # # # # # # # # # # # # # # # # # # # # # # # # $ . -XKXJXJXKXJXJXJXJXJXJXJXJXJXJXJXJXJXJXJXJXKXKXKXKXKXKXKXKXKXKXKXKXKXKXKXKXKXKXKXKXKXKXKXKXKXKXKXKXKXKXKXKXKXKXKXKXKXKXKXJXJXKXKXCX....X...{ ......X.X.X.X.X.X.X.X.X.X.X.X.O.O.+.+.+.+.+.+.+.+.+.+.+.+.+.+.+.+.+.+.+.+.+.O.O.+.} P U U U U W W W U U U U U U U W W W W W U U U U U U U U P I L c l x l l l l y q y y y y y y y y q 5 eXKXJXJXJXJXJXJXJXJXJXGXFXFXFXFXGXGXGXGXGXJXGXJXJXJXJXJXJXJXJXJXJXJXJXJXJXJXJXJXJXJXJXJXJXJXJXJXJXJXJXJXJXJXJXJXJXJXJXJXJXJXJXJXJXJXKXlXS.{.        ",
"          l.l.l.k.h.h.h.h.h.k.k.h.k.k.k.h.h.h.h.h.h.h.h.h.h.h.h.h.k.f.e.e.e.r.r.e.e.e.e.e.e.t.t.e.e.e.e.e.0.0.0.2.2.0.0.;.8.sX7X5X7X4X4X4X>X>X7X<XC c m m m m m m m m m m m m m m m m m n n m m m c c c c x x x x x x x x x x x x x x x l x x x l l x x x l l l x l l l l l l l l l l l l l l l l l l l k l k l l l l l l l k k l k k l k k k k k k a y ' KXJXJXJXJXJXJXJXJXJXJXJXJXJXJXJXJXJXJXJXJXJXJXKXJXJXJXJXJXJXJXKXKXJXJXJXKXKXKXJXJXKXJXKXKXJXJXJXJXJXJXKXKXKXKXJXJXJXKXJXJXKXLX@ X # # # # # # # # # # # # # # # # # # # # # # # # # # # # # # # # # # # # @ X MXKXJXJXJXJXJXJXJXJXJXJXJXJXJXJXJXKXKXKXKXJXKXKXKXKXKXKXKXKXKXKXKXKXKXKXKXKXKXKXKXKXKXKXKXKXKXKXKXKXKXKXKXKXKXKXKXKXKXKXJXKXJXKXZXX...X...{ ..X.X.X.X.X.X.X.X.X.X.X.X.X.X.O.O.+.+.+.+.+.+.+.+.+.+.+.+.+.+.+.+.+.+.+.+.+.O.O.+.| P U U U U U U U U U U U W W W W W W W W U U U U U U U P P J L n k x x l l l y q y y y y y y y y q w yXKXJXJXJXJXJXJXJXJXJXGXFXFXFXFXFXFXGXGXGXGXGXJXJXJXJXJXJXJXJXJXJXJXJXJXJXJXJXJXJXJXJXJXJXJXJXJXJXJXJXJXJXJXJXJXJXJXJXJXJXJXJXJXJXJXKX@XS.{.        ",
"          l.l.l.k.h.h.h.h.h.k.k.k.k.k.k.h.h.h.h.h.h.h.h.h.h.h.h.h.l.f.e.e.r.r.r.e.e.e.e.e.t.t.t.t.t.e.e.0.0.0.e.0.0.0.0.>.8.dX0X5X4X4X7X4X>X>X>X8XG c m m m m m m m m m m m m m m m m n n n m m n x x x c c x x x x x x x x x x x x x x x x x x l l x x x l l l x l l l l l l l l l l l l l l l l k l k k k k l l l l l l l l l l k k k l k k k k k k y ' KXJXJXJXJXJXJXJXJXJXJXJXJXJXJXJXJXJXJXJXJXJXJXKXKXJXJXJXJXJXJXJXJXJXJXJXJXJXJXJXJXKXJXKXKXKXJXKXKXKXKXJXKXKXKXJXJXJXKXJXKXKXKXg . $ # # # # # # # # # # # # # # # # # # # # # # # # # # # # # # # # # # $ . j KXKXKXJXJXJXJXJXJXJXJXJXJXJXJXJXJXKXKXKXJXJXJXJXKXKXKXKXKXKXKXKXKXKXKXKXKXKXKXKXKXKXKXKXKXKXKXKXKXKXKXKXKXKXKXKXKXKXKXKXKXKXJXKXFXX...X.........X.X.X.X.X.X...X.X.X.X.X.X.O.O.O.+.+.O.+.+.+.<X+.+.+.+.+.+.+.+.+.+.+.+.+.+.O.+.| J U U U U U U U U U W W W W W W W W U U U U U U U U U U P P K m k x x l l l y q y y y y y y y y q q SXKXJXJXJXJXJXJXJXJXJXFXFXZXFXFXFXFXGXGXGXGXJXJXJXJXJXJXJXJXJXJXJXJXJXJXJXJXJXJXJXJXJXJXJXJXJXJXJXJXJXJXJXJXJXJXJXJXJXJXJXJXJXJXJXJXKX@XS.{.        ",
"          l.k.k.k.h.h.h.h.h.k.k.k.k.k.k.h.h.h.h.h.h.h.h.h.h.h.h.h.k.s.e.r.r.r.r.e.e.e.t.t.t.e.t.t.t.e.e.e.e.e.e.e.0.2.0.>.-.dX9X4X4X5X7X4X>X>X>X8XG c m m m m m m m m m m m m m m m m n n m m n c x x c c c x x x x x x x x x x x x x x x x x x x l x x x x l l x x l l l l l l l l l l l l l l l l k k k k k k k k k k l l l l l k k k k l l k k k k y ' KXJXJXJXJXJXJXJXJXJXJXJXJXJXJXJXJXJXJXJXJXJXJXKXKXKXKXKXKXJXJXJXJXJXJXJXJXJXJXJXKXJXJXJXJXJXKXKXKXKXKXKXJXJXKXJXJXJXJXJXKXKXKXHXX X $ # # # # # # # # # # # # # # # # # # # # # # # # # # # # # # # # # # . qXKXJXJXJXJXJXJXJXJXJXJXJXJXJXJXJXJXKXKXKXJXJXJXJXKXKXKXKXKXKXKXKXKXKXKXKXKXKXKXKXKXKXKXKXKXKXKXKXKXKXKXKXKXKXKXKXKXKXKXKXKXKXKXKXFXX...X.X.........X.X.X.X.X...X.X.X.X.X.O.+.+.O.+.+.+.+.+.+.<X+.+.<X<X+.+.+.+.+.+.+.+.+.O.+.+.| J U U U W W U U U U W W W W W W W W W U U U U U U U U U P P L N k x x x x l u y y y y y y u u y w i AXKXJXJXJXJXJXJXJXJXGXFXFXZXFXFXFXFXGXGXGXGXGXJXJXJXGXGXJXJXJXJXJXJXJXJXJXJXJXJXJXJXJXJXJXJXJXJXJXJXJXJXJXJXJXJXJXJXJXJXJXJXJXJXKXKXKX@XS.{.        ",
"          l.k.l.k.h.h.h.h.h.k.k.k.k.k.k.k.h.h.h.h.h.h.h.h.h.h.h.h.k.s.e.r.y.y.y.e.e.e.e.e.t.t.t.e.t.e.e.e.e.0.e.0.2.2.0.,.-.dXiX4X4X0X4X4X4X4X,X9XE c m m m m m m m m m m m m m m m n n m m n c c c x x c x x x x x x x x x x x x x x x x x x x x x x x x x l l l l l l l l l l l l l l l l l l l l k k k k l k k k k k k k k k l k k k k k k k k k k t ` KXJXJXJXJXJXJXJXJXJXJXJXJXJXJXJXJXJXJXJXJXJXJXJXKXJXJXJXJXKXJXKXJXKXKXJXJXKXKXKXKXJXJXJXJXJXJXJXJXKXKXKXJXKXJXKXKXJXJXJXJXKXKXKX-X. # # # # # # # # # # # # # # # # # # # # # # # # # # # # # # # # # $ . j KXKXJXJXJXJXJXJXJXJXJXJXJXJXJXJXJXJXKXKXKXKXKXJXJXKXKXKXKXKXKXKXKXKXKXKXKXKXKXKXKXKXKXKXKXKXKXKXKXKXKXKXKXKXKXKXKXKXKXKXKXKXKXKXKXZXo.X.X.X.X...X.X.X.X.X.X.X.....X.X.X.X.O.+.O.O.+.+.+.+.+.+.+.<X<X<X<X+.+.+.+.+.+.<X+.+.+.+.+.( J U U U U U U U U W W W W W W W W W W W W W U U U U U U U P K N k x x x x l y y y y y y y u y y 5 s ZXKXJXJXJXJXJXJXJXJXGXFXFXFXFXFXFXFXFXFXGXGXGXGXGXGXGXGXJXJXJXJXJXJXJXJXJXJXJXJXJXJXJXJXJXJXJXJXJXJXJXJXJXJXJXJXJXJXJXJXJXJXJXJXJXKXKX@XS.{.        ",
"          k.k.k.k.h.h.h.h.h.k.k.h.k.k.k.k.h.h.h.h.h.h.h.h.h.h.h.h.k.f.e.r.y.y.y.e.e.e.e.e.t.e.t.t.t.e.e.e.e.e.e.e.0.2.e.,.=.uXpX4X4X4X4X4X4X>X,X9X| n m m m m m m m m m m m m m m m m m m n c x c c x x c c x x x x x x x x x x x x x x x x x x x x x x x l l l l l x l l l l l l l l l l l l l l l k k k k l l k l k k k l k k k k k k k k k k k k k t ` KXJXJXJXJXJXJXJXJXJXJXJXJXJXJXJXJXJXJXJXKXKXJXJXJXJXJXKXJXJXJXKXJXKXKXJXJXKXKXKXKXJXJXJXJXJXJXJXJXJXJXJXJXKXJXJXJXJXJXJXJXKXJXKXKXj . $ # # # # # # # # # # # # # # # # # # # # # # # # # # # # # # $ X X MXKXKXKXJXJXJXJXJXJXJXJXJXJXJXJXJXJXJXKXKXJXKXKXJXJXJXJXKXKXKXKXKXKXKXKXKXKXKXKXKXKXKXKXKXKXKXKXKXKXKXKXKXKXKXKXKXKXKXKXKXKXKXKXKXKXFXX.X.X...X...X.X.X.X...X.X.X.X.X.X.X.X.O.O.O.+.+.+.+.+.+.+.+.+.+.+.<X+.+.+.+.+.+.+.+.+.+.+.O.! P U W U U U U U U W U U W W W W W W W W W W U U U U U U U P K N k x x x x l y y y y y y y y y y 5 Z JXKXJXJXJXJXJXJXJXJXGXFXFXFXFXFXFXGXFXFXGXGXGXGXGXGXGXJXJXJXJXJXJXJXJXJXJXJXJXJXJXJXJXJXJXJXJXJXJXJXJXJXJXJXJXJXJXJXJXJXJXJXJXJXJXKXKX@XS.{.        ",
"          k.k.l.k.h.h.h.h.h.k.k.h.k.k.k.h.h.h.h.h.h.h.h.h.h.h.h.h.k.s.e.e.y.y.t.e.e.e.e.t.t.e.t.t.t.e.e.e.e.e.0.e.0.0.0.w.o qXsX>X4X4X4X4X>X>X,X8X| n n m m m m m m m m m m m m m m m m m c x c c c x x x x x x x x x x x x x x x x x x x x x x x x x x x x x x x x x x l l l l l l l l l l l l l l k k k k l l k k l k k l k k k k k k k k k k k k k y ' KXJXJXJXJXJXJXJXJXJXJXJXJXJXJXJXJXJXJXJXJXKXJXKXKXJXJXKXJXJXKXJXJXKXKXJXKXKXKXKXKXKXJXJXJXJXJXJXJXJXJXKXKXJXJXJXJXJXJXJXJXJXJXKXKXLXX . $ # # # # # # # # # # # # # # # # # # # # # # # # # # # # # # . -XKXJXKXJXJXKXJXJXJXJXJXJXJXJXJXJXJXJXJXKXKXJXKXKXKXKXJXJXKXKXKXKXKXKXKXKXKXKXKXKXKXKXKXKXKXKXKXKXKXKXKXKXKXKXKXKXKXKXKXKXKXKXKXKXKXKXZXX...X...X.X.X...X.X.X.X.X.X.X.X.X.X.X.O.+.+.+.+.+.+.+.+.<X+.+.+.+.+.+.<X<X+.+.+.+.+.+.+.+.X.W P W W U W W W W W W W U U W W W W W W W W W U U U U U U P P R B k x x x x k y y u y y y y y y y > ` KXJXJXJXJXJXJXJXJXJXGXFXFXFXFXFXFXFXGXGXGXGXGXGXGXGXGXGXJXJXJXJXJXJXJXJXJXJXJXJXJXJXJXJXJXJXJXJXJXJXJXJXJXJXJXJXJXJXJXJXJXJXJXJXJXKXKX~.D.{.        ",
"          k.k.k.k.h.h.h.h.h.k.k.k.k.k.k.h.h.h.h.h.h.h.h.h.h.h.h.h.k.s.e.e.r.y.y.t.e.e.e.t.t.e.e.t.t.e.e.e.e.e.e.e.e.0.e.0.o %XsX>X4X4X7X4X4X>X>X0Xo.m n m m m m m m m m m m m m m m m m c x c c c c c x x x x x x x x x x x x x x x x x x x x x x x x x x x l x x x x l l l l l l l l l l l l l l l l k k k l l k k k k l l k k k k k k k k k l k k k t ' KXJXJXJXJXJXJXJXJXJXJXJXJXJXJXJXJXJXJXJXJXKXJXKXKXKXJXKXJXJXJXJXJXJXKXJXKXKXKXKXKXKXJXJXJXJXJXJXJXKXJXKXKXJXJXJXKXJXJXJXJXJXJXKXJXKXMXX X $ # # # # # # # # # # # # # # # # # # # # # # # # # # # $ . g KXKXJXJXKXJXJXJXJXJXJXJXJXJXJXJXJXJXJXJXJXJXKXKXKXKXJXJXJXKXKXKXKXKXKXKXKXKXKXKXKXKXKXKXKXKXKXKXKXKXKXKXKXKXKXKXKXKXKXKXKXKXKXKXKXKXKXZX....X.X.....X.X.X.X.X.X.X.X.X.X.X.X.O.+.+.+.+.+.+.+.+.+.<X+.+.+.+.+.+.<X<X+.+.+.+.+.+.+.<X..P U W W U W W W W U U U U W U W W W W W U U W U U W U U U P P R B l x l x x k y y u u y y y y y y 5 ' KXJXJXJXJXJXJXJXJXJXGXFXFXFXFXFXFXFXGXGXGXGXGXGXGXGXGXGXGXJXGXJXJXJXJXJXJXJXJXJXJXJXJXJXJXJXJXJXJXJXJXJXJXJXJXJXJXJXJXJXJXJXJXJXJXKXKXC.J.{.        ",
"          k.k.k.h.h.k.h.h.h.k.k.k.k.h.k.k.h.h.h.h.h.h.h.h.h.h.h.h.k.g.e.r.r.y.y.t.e.e.e.t.t.t.t.t.t.e.e.e.e.e.e.e.e.0.e.e.*.$XNX7X4X4X7X4X4X>X>X7X+.B c m N m m m m m m m m m m m m m n c c c c c c c c c x x x x x x x x x x x x x x x x x x x x x x x x x x x x x x l l l l l l l l l l l l l l l l k k l l l k z k l l l k k k k k k k k k k k k k q ' KXJXJXJXJXJXJXJXJXJXJXJXJXJXJXJXJXJXJXJXJXKXJXKXJXJXJXKXJXJXKXJXJXJXKXJXKXKXKXKXKXKXJXJXJXJXJXKXKXKXKXKXKXKXJXJXJXKXJXKXKXKXKXJXJXKXKX=X. X $ # # # # # # # # # # # # # # # # # # # # # # # # # # . j KXKXJXKXJXKXKXJXJXJXJXJXJXJXJXJXJXJXJXJXJXKXJXKXJXJXJXKXJXJXKXKXKXKXKXKXKXKXKXKXKXKXKXKXKXKXKXKXKXKXKXKXKXKXKXKXKXKXKXKXKXKXKXKXKXKXJXKXZX....X.........X.X.X.X.X.X.X.X.X.X.X.O.+.+.+.+.+.+.<X<X+.+.+.+.+.+.+.+.+.<X+.+.+.+.+.+.+.<X} J U W U U U U U U U W W W W U U W W W W U U W U U W U U U P P R B l x l x x k y y y y u u u y y y 4 :XKXJXJXJXJXJXJXJXJXJXGXFXFXFXFXFXFXFXGXGXGXGXGXGXGXGXGXGXGXGXGXJXJXJXJXJXJXJXJXJXJXJXJXJXJXJXJXJXJXJXJXJXJXJXJXJXJXJXJXJXJXJXJXJXJXKXHXV.G.^.        ",
"          k.k.l.k.h.k.h.h.k.k.k.k.k.h.k.k.h.h.h.h.h.h.h.h.h.h.h.h.k.s.e.r.y.y.y.y.e.e.t.t.t.t.t.t.t.e.e.e.e.e.e.e.0.0.e.e.&.7.NX7X4X4X4X7X4X4X>X1X2XG c m m m m m m m m m m m m m m n c c c c c c c c c x x x x x x x x x x x x x x x x x x x x x x x x x x x x x x l l l l l l l l l l l l l l l l l k l l l l l l k l l l k k k k k k k k k k k k k 0 ' KXJXJXJXJXJXJXJXJXJXJXJXJXJXJXJXJXJXJXJXJXJXJXKXKXJXJXKXKXKXKXJXJXJXJXJXKXKXKXJXKXKXKXJXJXKXKXKXKXKXKXKXKXKXJXJXKXKXJXKXKXKXKXJXJXKXKXKX=XX . $ # # # # # # # # # # # # # # # # # # # # # # $ @ . j KXKXJXJXJXJXJXJXJXJXJXJXJXJXJXJXJXJXJXJXJXJXKXJXJXKXJXJXJXKXKXKXKXKXKXKXKXKXKXKXKXKXKXKXKXKXKXKXKXKXKXKXKXKXKXKXKXKXKXKXKXKXKXKXKXKXKXJXKXZX........{ ....X.X.X.X.X.X...X.X.X.O.O.+.+.+.+.+.+.+.+.+.+.+.+.+.+.+.+.+.+.+.+.+.+.+.+.+.2X| J U W U U U U U W W W W W U U U U W W U U U U U U U U U U P P R V l x x x x k y y u y u u u y y q 7 gXKXJXJXJXJXJXJXJXJXJXGXFXFXFXFXFXFXFXGXGXGXGXGXGXGXGXGXGXGXGXGXGXJXJXJXJXJXJXJXJXJXJXJXJXJXJXJXJXJXJXJXJXJXJXJXJXJXJXJXJXJXJXJXJXJXKXDXV.{.^.        ",
"          k.k.l.k.h.k.h.h.k.h.k.k.h.k.k.k.h.h.h.h.h.h.h.h.h.h.h.h.k.d.e.r.y.r.y.y.e.e.e.e.e.e.t.t.t.e.e.e.e.e.e.e.0.0.e.0.>.8.NX7X7X4X4X7X4X4X>X3X9XE c m m m m m m m m m m m m m n c c c c c c c c c c x x x x x x x x x x x x x x x x x x x x x x x x x x x x x x l l l l l l l l l l l l l l l l l k k l l l k k k k l k k k k k k k k k k k k k k q ' KXJXJXJXJXJXJXJXJXJXJXJXJXJXJXJXJXJXJXJXJXJXJXJXJXKXKXKXKXKXJXJXJXKXKXJXJXJXJXJXJXJXKXKXKXJXJXJXJXJXJXKXKXKXKXKXJXJXJXKXKXKXKXKXJXJXJXKXKXmXX . # $ # # # # # # # # # # # # # # # # # # # $ X . &XKXKXKXKXJXJXKXKXJXJXJXJXJXJXJXJXJXJXJXJXJXJXJXJXJXKXJXJXJXJXKXKXKXKXKXKXKXKXKXKXKXKXKXKXKXKXKXKXKXKXKXKXKXKXKXKXKXKXKXKXKXKXKXKXKXKXKXKXJXKXZXX...X.........X.X.X.X.X.X.X.X.X.X.O.+.+.+.+.+.+.+.+.+.+.+.+.+.+.+.+.+.+.+.+.+.+.+.+.+.+.<X) J W U U U U U U U W W W W U U U W W U W W U U U U U U U U U P I V l x x x x k q y y y y u u y y w 0 AXKXJXJXJXJXJXJXJXJXJXGXFXFXFXFXFXFXFXGXGXGXGXGXGXGXGXGXGXGXJXGXGXJXJXJXJXJXJXJXJXJXJXJXJXJXJXJXJXJXJXJXJXJXJXJXJXJXJXJXJXJXJXKXJXKXKXxXV.{.(.        ",
"          k.k.k.h.h.k.h.h.h.h.k.k.h.k.k.k.h.h.h.h.h.h.k.h.h.h.h.h.k.g.e.r.y.r.y.y.e.e.e.e.e.t.t.t.t.t.e.e.e.e.e.0.0.e.0.0.<.-.NX8X7X4X4X4X4X4X>X3XiX[ c m m m m m m m m m m m m n n c c c c c c c c c c c x x x x x x x x x x x x x x x x x x x x x x x x x x x x x x x l x x l l l l l l l l l l l l l l l l l l l k k l k k k k k k k k k k k k k k q ' KXJXJXJXJXJXJXJXJXJXJXJXJXJXJXJXJXKXJXJXJXJXJXJXJXJXKXKXKXJXJXJXJXJXKXJXJXJXJXJXJXJXJXKXKXJXJXJXJXJXJXKXKXKXKXJXJXJXJXKXKXJXKXKXKXJXJXJXJXKXHXg . X $ # # # # # # # # # # # # # # # # $ @ . % mXKXKXKXKXKXJXJXJXJXJXJXJXJXJXJXJXJXJXJXJXJXJXJXJXJXJXKXKXKXJXJXKXKXKXKXKXKXKXKXKXKXKXKXKXKXKXKXKXKXKXKXKXKXKXKXKXKXKXKXKXKXKXKXKXKXKXKXKXKXJXKXZXX.X.X.X...X.X.X.X.X.X.X.X.X.X.X.X.O.+.+.+.+.+.+.+.+.+.+.+.+.+.+.+.+.+.+.+.+.+.+.+.+.+.+.<X! P W U U U U U U U U U W W W W U U W U W W W W U U U U U U P U I V l x x x x a q y y y y u u y y w d JXKXJXJXJXJXJXJXJXJXJXGXFXGXGXGXGXGXJXJXJXJXJXJXJXJXJXJXJXJXJXJXJXJXJXKXKXKXJXKXKXKXKXKXKXKXKXKXKXKXKXJXJXJXJXJXJXJXJXJXJXJXJXJXJXKXJX~.D.(.(.        ",
"          k.k.k.k.h.k.h.h.k.k.k.k.k.k.k.k.h.h.h.h.h.h.h.k.h.h.h.h.k.g.e.r.y.y.y.y.t.e.e.t.t.t.t.t.t.t.e.e.e.e.e.e.0.0.0.0.,.=.gX9X>X4X7X4X4X4X>X3XiX#.c m m m m m m m m m m m n n c c c c c c c c c c c c x x x x x x x x x x x x x x x x x x x x x x x x x x x x x l x l x x l l l l l l l l l k l l l l l l l l l l l l l k k k k k k k k k k k k k q ` KXJXJXJXJXJXJXJXJXJXJXJXJXJXJXJXJXJXJXJXJXJXJXKXKXKXKXKXKXJXJXJXJXKXKXKXKXJXJXJXJXJXJXKXKXKXJXJXJXJXKXKXKXJXJXJXKXJXJXJXJXKXKXKXKXKXKXJXJXJXKXKX=X& @ # # # # # # # # # # # # # # # # @ @ g HXKXKXJXKXJXJXJXJXJXJXJXJXJXJXJXJXJXJXJXJXJXJXJXJXJXKXKXKXJXKXJXJXKXKXKXKXKXKXKXKXKXKXKXKXKXKXKXKXKXKXKXKXKXKXKXKXKXKXKXKXKXKXKXKXKXKXKXKXKXKXJXKXZX..X.X.....X.X.X.X.X.X.X.X.X.X.X.X.O.+.+.+.+.+.+.+.+.+.+.+.+.+.+.+.+.<X<X<X<X<X+.+.+.+.<XO.Y U W U U U U U U W W U U U W W U U U U W U W W W U U U U U P P I V l x x x x a q y y y y u u y y 5 S KXJXJXJXJXJXJXJXJXJXGXyXgXyXyXyXyXyXyXMXMXyXyXyXyXyXyXyXyXMXMXMXMXMXMXMXMXMXMXMXMXMXMXMXSXMXSXSXSXAXHXFXFXGXGXGXGXJXJXJXJXJXJXJXKXKXLXV.G.^.(.        ",
"          k.k.l.k.h.k.h.h.k.k.k.k.k.k.k.k.h.h.h.h.h.h.h.k.k.h.h.h.k.g.e.r.y.y.y.y.e.e.t.t.t.t.t.t.t.e.e.e.e.e.e.e.0.0.0.0.0.o qXpX>X7X7X7X4X4X>X>X8X@.m n m m m m m m m m m m n c c c c c c c c c c c c c c x x x x x x x x x x x x x x x x x x x x x x x x x x x x l l l l l l l l l l l l l l l l l l l l l l l l l l l l l l l k k k k k k k k k k q ` KXJXJXJXJXJXJXJXJXJXJXJXJXJXJXJXJXJXJXJXJXJXJXJXKXKXKXKXKXJXJXJXJXJXJXKXJXJXJXJXJXJXKXKXKXKXKXKXJXKXKXKXJXJXJXJXKXJXJXJXJXJXKXKXKXKXKXKXKXJXJXKXKXPX@ @ # # # # # # # # # # # # # # # X =XKXKXJXJXKXJXJXJXJXJXJXJXJXJXJXJXJXJXJXJXJXJXJXJXJXJXJXKXKXKXJXKXKXJXKXKXKXKXKXKXKXKXKXKXKXKXKXKXKXKXKXKXKXKXKXKXKXKXKXKXKXKXKXKXKXKXKXKXKXKXKXKXJXKXCXX.X.X...X.....X.X.X.X.X.X.X.X.X.X.O.O.+.+.+.+.+.+.<X<X+.+.+.+.+.+.+.<X<X<X<X<X+.<X+.+.<XX.I U U U U U U U U U W U U U W U U U U W W W W W W W W U U U U P I V l x x x x a q y y y y u u y y 5 ` KXJXJXJXJXJXJXJXJXKXAX*X*X*X*X*X*X*X*XwX*X*X*X*X*X*X*X*X*X*X*X*X*X*X*X*X*X*X*X*X*X*X*X*X*X*X*XwX*XwXwXwXwXuXgXNXBXFXJXJXJXJXJXJXJXKXxXV.{.G.G.        ",
"          k.k.k.k.k.k.k.k.k.k.k.k.k.k.k.k.h.h.h.h.h.h.h.h.h.h.h.h.k.g.r.e.y.y.y.y.e.e.t.t.t.t.t.t.t.t.e.e.e.e.e.0.0.0.0.0.t.o &XdX>X7X4X4X4X4X4X,X0X<XB n m m m m m m m m m n c c c c c c c c c c c c c c c x x x x x x x x x x x x x x x x x x x x x x x x x x x l x l l l l l x l l l l l l l l l l l l l l l l l l l l l l l k k k k k k k k k a a y ` KXJXJXJXJXJXJXJXJXJXJXJXJXJXJXJXJXJXJXJXJXKXJXJXJXJXKXJXJXJXJXJXKXKXKXKXJXJXJXJXJXKXKXKXKXKXJXKXKXKXKXJXJXJXJXKXKXJXJXJXJXKXKXJXKXJXKXKXKXKXKXJXKXPX# @ # # # # # # # # # # # # # # # . =XKXKXKXKXKXJXJXJXJXJXJXJXJXJXJXJXJXJXJXJXJXJXJXJXJXJXJXJXJXJXKXJXJXKXKXKXKXKXKXKXKXKXKXKXKXKXKXKXKXKXKXKXKXKXKXKXKXKXKXKXKXKXKXKXKXKXKXKXKXKXKXKXJXKXZXX...{ { ..{ X.X.X.X.X.X.X.X.X.X.X.O.+.+.+.+.+.<X<X<X<X+.+.+.+.+.+.+.+.+.+.+.+.+.+.+.+.2X} J W U U W U W W U U U U U U W U U U U W W W W W W W Q U U U U P R V k x x l x a q y y y y u u u y 5 *XKXJXJXJXJXJXJXJXJXKXSX*XwXwXrXrXrXrXrXrXwXrXrXrXrXrXrXrXrXrXrXrXrXrXrXrXrXrXrXrXtXtXrXrXrXrXrXrXrXrXrXwXwXwXwXuXfXfXGXJXJXJXJXJXJXJXC.J.(.(.G.        ",
"          k.k.k.k.k.k.k.k.k.k.k.k.k.k.k.k.h.h.h.h.h.h.h.h.h.h.h.h.k.h.r.r.y.y.y.y.e.e.t.t.t.t.t.t.t.t.e.e.e.e.e.e.0.0.0.0.y.*.7.NX1X4X7X4X>X>X4X>X1X9XG c m m m m m m m m n n c c c c c c c c c c c c c c x x x x x x x x x x x x x x x x x x x x x x x x x x x x x l l x x x x l l l l l l l l l l l l l l l l l l l l l l k l l l l l k k k k k k k y ' KXKXJXJXJXJXJXJXJXJXJXJXJXJXJXJXJXJXJXJXJXKXJXJXJXKXJXJXKXJXJXJXJXKXKXKXJXJXJXJXJXKXKXJXKXKXJXKXKXJXJXJXJXJXJXJXJXJXJXJXJXKXKXJXJXJXKXKXKXJXKXJXKXPX# @ # # # # # # # # # # # # # # # . -XKXJXKXKXKXKXJXJXJXJXJXJXJXJXJXJXJXJXJXJXJXJXJXJXJXJXKXJXJXJXKXKXJXKXKXKXKXKXKXKXKXKXKXKXKXKXKXKXKXKXKXKXKXKXKXKXKXKXKXKXKXKXKXKXKXKXKXKXKXKXKXKXJXKXZXX.....{ ....X.X.X.X.X.X.X.X.X.X.X.+.+.+.+.+.+.+.+.<X<X+.+.+.+.+.+.<X+.+.+.+.+.+.+.+.+.2X| P W U W U U W W U U U W U W W W U U U U W W W W W W W U U U U P R V k x x l x p q y y y y u u y y w eXKXJXJXJXJXJXJXJXJXKXMX*XwXwXrXwXwXwXrXrXtXwXrXrXrXwXrXwXrXrXrXrXrXrXrXrXrXrXrXrXrXrXrXrXrXrXtXrXrXrXrXrXrXrXrXwXuXfXFXJXJXJXJXJXKXnXV.^.G.(.G.        ",
"          k.k.k.k.k.k.k.k.k.k.k.k.k.k.k.k.k.h.h.h.h.h.l.h.h.h.h.h.h.h.r.r.y.y.y.y.y.e.t.t.t.t.t.t.t.t.e.e.e.e.e.e.e.0.0.e.i.&.8.NX1X4X7X7X4X>X>X>X>XiXE c m m m m m m m n n c c c c c c c c c c c c c c c c c c x x x x x x x x x x x x x x x x x x x x x x x x x x x l x x x x l x x l l l l l l l l l l l l l l l l l l l k l l l l l k k k k k k k t ' KXJXJXJXJXJXJXJXJXJXJXJXJXJXJXJXJXJXJXJXJXJXJXJXJXJXJXJXJXJXJXJXJXJXJXKXKXJXJXKXKXKXKXKXKXJXJXJXJXJXJXKXJXKXKXJXKXJXJXJXJXJXKXKXJXJXJXJXJXJXJXJXKX=X. # # # # # # # # # # # # # # # # . g KXKXKXKXJXJXJXJXJXJXJXJXJXJXJXJXJXJXJXJXJXJXJXJXJXKXJXKXJXJXKXKXJXKXKXKXKXKXKXKXKXKXKXKXKXKXKXKXKXKXKXKXKXKXKXKXKXKXKXKXKXKXKXKXKXKXKXKXKXKXKXKXJXKXZXo...........X.X.X.X.X.X.X.X.X.X.O.+.+.+.+.+.+.+.+.+.+.+.+.+.+.+.+.+.+.+.+.+.+.+.+.+.+.<X/ U Y U W U U U U U U W W W W U U W U U U W W W W W W W U U U U U R V k x x x x p y y y y u u u y q i AXKXJXJXJXJXJXJXJXJXKXuXwXwXwXwXwXrXrXrXrXtXtXtXtXtXrXrXtXtXrXrXrXrXrXrXrXrXrXrXrXrXrXrXtXrXrXtXtXrXrXrXrXrXrXtXrXwXeXZXJXJXJXJXKXLXV.G.(.(.(.G.        ",
"          k.k.k.h.k.k.k.k.k.k.k.k.k.k.k.k.h.h.h.h.h.k.h.h.h.h.h.h.h.g.r.e.y.y.y.y.y.e.t.t.t.t.t.t.t.t.e.e.e.e.e.e.e.0.e.e.e.<.-.NX8X4X7X4X4X>X1X>X>XiX| n m m m m m m n c c c n c c c c c c c c c c c c c c c c c x x x x x x x x x x x x x x x x x x x x x x x l x x x x x x x l x x l l l l l l l l l l l l l l l l l l l l l l l l k k k k k k k k 0 ' KXJXJXJXJXJXJXJXJXJXJXJXJXJXJXJXJXJXJXJXJXJXJXJXJXJXJXJXJXJXJXJXJXJXJXKXKXJXJXKXKXKXKXKXJXJXJXJXJXKXKXKXKXKXKXKXKXJXJXJXJXKXKXJXJXJXJXJXJXJXJXJXKX-X. # # # # # # # # # # # # # # # $ . g KXKXJXKXJXJXJXJXJXJXJXJXJXJXJXJXJXJXJXJXJXJXJXJXJXKXKXJXJXJXJXJXJXKXKXKXKXKXKXKXKXKXKXKXKXKXKXKXKXKXKXKXKXKXKXKXKXKXKXKXKXKXKXKXKXKXKXKXKXKXKXKXJXKXZXo...........X.X.X.X.X.X.X.X.X.X.O.+.+.+.+.+.+.+.+.+.+.<X<X+.+.+.+.+.+.+.<X+.+.+.+.+.<X+.W U U U U U U U U W W U U U W U U W W W W W W W W W W W W W U P P R V k x x x x p y y y y u u y y 5 Z KXKXJXJXJXJXJXJXJXKXJXwXwXwXwXtXrXrXrXrXrXrXrXrXrXrXrXrXtXtXtXtXrXrXrXrXrXrXrXrXrXrXrXrXrXrXrXtXrXrXrXrXrXrXrXwXtXwXwXVXGXKXJXJXKX~.D.}.G.(.(.G.        ",
"          k.k.k.k.k.h.k.k.k.h.k.k.k.k.k.k.h.h.h.h.h.h.h.h.h.h.h.h.k.h.r.e.y.y.y.y.y.e.e.t.t.t.t.t.t.t.t.e.e.e.e.e.e.0.e.0.0.w.O gXpX4X4X4X4X4X1X>X>X9Xo.M n m m m m n c c c n n n c c c c c c c c c c c c c x x c c x x x x x x x x x x x x x x x x x x x x x x l l x x x x x x x l x l x l l l l l l l l l l l l l l k l l l l l l l l k k k k k k k t ' KXJXJXJXJXJXJXJXJXJXJXJXJXJXJXJXJXJXJXJXJXJXJXJXJXJXJXJXJXJXJXKXKXJXJXJXKXKXKXJXKXKXJXJXJXKXKXKXKXKXKXKXJXJXJXKXJXJXJXKXKXKXKXKXJXJXJXJXJXKXJXKXKXg . # # # # # # # # # # # # # # # # X j KXKXJXJXJXJXJXJXJXJXJXJXJXJXJXJXJXJXJXJXJXJXJXJXJXJXKXJXJXJXJXJXJXKXJXKXKXKXKXKXKXKXKXKXKXKXKXKXKXKXKXKXKXKXKXKXKXKXKXKXKXKXKXKXKXKXKXKXKXKXKXKXJXKXCXX.X.X.....X.X...X.X.X...X.X.X.X.O.+.+.+.+.+.+.+.+.+.+.+.<X+.+.+.+.+.+.+.+.+.<X<X+.+.<Xo.Y Y Y W U U U U U U U U U U U W W W W W W W W W W W W W W U U P P K B k x x x x p y y y y u u u y 5 ` KXJXJXJXJXJXJXJXJXKXHXwXwXwXwXwXrXrXrXrXrXrXrXrXrXrXrXrXrXrXrXrXrXrXrXrXrXrXrXrXrXrXrXrXrXrXrXrXrXrXrXrXtXwXrXuXwXwXwXVXJXJXJXKXxXB._.^.J.).).G.        ",
"          k.k.k.k.h.k.k.k.k.h.k.k.k.k.k.k.k.h.k.h.h.h.h.h.h.h.h.h.h.k.r.e.y.r.y.y.y.e.t.t.t.t.t.t.t.t.t.e.e.e.e.e.e.0.0.0.0.e.o %XdX>X4X4X4X4X>X>X>X0X+.N c m m m n c c n n c n n c c c c c c c c c c c c c c x x c x x x x x x x x x x x x x x x x x x x x x x x x x x x x x x x l l x l l l l l l l l l l l l l l k k l l l l l l l l l l k k k k k t ' KXKXKXJXJXJXJXJXJXJXJXJXJXJXJXJXJXJXJXJXJXJXJXJXKXKXJXJXJXJXJXKXKXJXJXJXJXJXKXJXJXJXJXJXKXKXJXKXKXKXKXJXJXKXJXKXKXKXKXKXKXKXKXJXJXJXJXJXJXKXJXKXKXg . $ # # # # # # # # # # # # # # # X $ LXKXJXJXJXJXJXJXJXJXJXJXJXJXJXJXJXJXJXJXJXJXJXJXJXJXKXKXKXKXJXJXJXKXKXKXKXKXKXKXKXKXKXKXKXKXKXKXKXKXKXKXKXKXKXKXKXKXKXKXKXKXKXKXKXKXKXKXKXKXKXKXJXKXBX..X.X.....X.X...X.X.X.X.X.X.X.O.O.O.+.+.+.+.+.+.+.+.+.+.+.<X<X+.+.+.+.+.+.<X<X<X+.+.2X} T Y Y Q U U U U U U U U U U U W U W W W U W W W W W W U U U U U P L N k x x x l u y y y y u u u y 5 ;XKXJXJXJXJXJXJXJXJXKXAX*XwXwXwXrXrXrXrXrXrXrXtXrXtXrXrXrXrXrXrXrXrXrXrXrXrXrXrXrXrXrXrXrXrXrXrXrXrXrXrXrXtXwXtXwXwXwXwXSXJXKXKXcXB.(.^.^.(.(.).G.        ",
"          k.k.k.k.h.k.k.k.k.k.h.k.k.k.k.k.h.k.k.h.h.h.h.h.h.h.h.h.h.k.r.e.y.r.y.y.y.t.e.t.t.t.t.t.t.t.t.t.e.e.e.e.e.0.0.0.2.e.%.&XBX,X4X4X7X4X>X>X>X>X2XG c m m n c c n n n c c c c c c c c c c c c c c c c c x x x x c c x x x x x x x x x x x x x x x x x x x x x x x x x x x x l l x l l l l l l l l l l l l l l l l l l l l l l l l l l l l k k k t ' KXKXKXJXJXJXJXJXJXJXJXJXJXJXJXJXJXJXJXJXJXJXJXJXKXKXJXJXJXKXKXKXKXKXKXKXJXJXKXJXJXJXJXJXJXJXJXJXJXKXJXJXJXKXKXKXKXKXKXJXJXJXJXJXJXJXJXJXJXKXJXKXKXj X # # # # # # # # # # # # # # # # X % LXKXJXJXJXJXJXJXJXJXJXJXJXJXJXJXJXJXJXJXJXJXJXJXJXJXJXKXKXKXJXJXJXKXKXKXKXKXKXKXKXKXKXKXKXKXKXKXKXKXKXKXKXKXKXKXKXKXKXKXKXKXKXKXKXKXKXKXKXKXKXKXKXKXCX..X.X.....X.X.X.X.X.X.X.X.X.X.O.+.+.+.+.+.+.+.+.+.+.+.+.+.<X<X+.<X+.+.+.+.+.+.+.+.<X<X) J U Y Y Y U U U U U U U U U U W U W W W W W U W W W W U U U U P P K m k x x x l u y y y y u y y y q gXKXJXJXJXJXJXJXJXJXKXSX*XwXwXrXrXrXrXtXtXrXrXrXrXrXrXrXrXrXrXrXrXrXrXrXrXrXrXrXrXrXrXrXrXrXrXtXrXtXrXrXrXrXrXrXwXrXwX:XAXKXKXnXB.G.^.{.^.).).).).        ",
"          k.k.k.k.h.k.k.k.k.k.h.k.k.k.k.k.h.k.k.h.h.h.h.h.h.h.h.h.h.k.r.e.y.r.y.y.y.t.e.t.t.t.t.t.t.t.t.t.e.e.e.e.e.0.e.e.0.e.&.8.BX3X4X4X7X4X>X>X>X>X9XE x n n n c c c n n c c c c c c c c c c c c c c c c c c x x c c x x x x x x x x x x x x x x x x x x x x x x x x x x x x x l x x l l l l l l l l l l l l l l l l l l k l l l l l l l l l l k k y ' KXKXKXJXJXJXJXJXJXJXJXJXJXJXJXJXJXJXJXJXJXJXJXJXKXKXJXJXJXJXJXJXKXKXKXJXKXKXJXJXJXKXKXJXJXJXJXJXJXJXKXJXJXKXJXJXJXJXJXJXJXJXJXJXJXJXJXJXJXJXJXKXLX% X # # # # # # # # # # # # # # # # # X mXKXJXJXJXJXJXJXJXJXJXJXJXJXJXJXJXJXJXJXJXJXJXJXJXJXJXKXJXKXJXJXJXKXKXKXKXKXJXKXKXKXKXKXKXKXKXKXKXKXKXKXKXKXKXKXKXKXKXKXKXKXKXKXKXKXKXKXKXKXKXKXKXKXCXX.o.X.X...X.X.X.X.X.X...X.X.X.O.+.+.+.+.+.+.+.+.+.+.+.+.+.<X<X<X+.+.+.+.+.+.+.+.+.<XO.Y P U Y Y U U Y U U W W W W U U W U W U U W W W W W W W U U U U P I K m k x x x k y y u y y y y y w d FXKXJXJXJXJXJXJXJXJXKXyX*XuXrXrXrXrXrXtXtXrXrXrXrXrXrXrXrXtXrXrXrXrXrXrXrXrXrXrXrXrXrXrXrXrXrXrXrXtXrXrXrXrXtXrXtXrX*XeXGXKXhXB.}.(.^.R.(.^.).G.^.        ",
"          k.k.k.k.h.k.k.k.k.k.k.k.k.k.k.k.k.h.k.k.h.h.h.h.h.h.h.h.h.k.r.e.y.y.y.y.y.t.e.t.t.t.t.t.t.t.t.t.e.e.e.e.e.e.e.0.0.4.>.-.NX2X1X0X7X4X4X4X>X,X9X| x n c c c c n n n c c c c c c c c c c c c c c c c c c x x c c x x x x x x x x x x x x x x x x x x x x x x x x x x x x l l l l l l l l l l l l l l l l l l l l l l l l l l l k k k l l l k k y ' KXJXJXJXJXJXJXJXJXJXJXJXJXJXJXJXJXJXJXJXKXJXJXJXKXKXJXJXKXJXJXJXJXJXJXJXJXJXJXKXKXKXJXJXJXKXKXJXJXJXJXKXKXKXKXKXJXJXJXJXJXJXJXJXJXJXJXJXJXJXJXKX=XX # # # # # # # # # # # # # # # # # # . -XKXJXJXJXJXJXJXJXJXJXJXJXJXJXJXJXJXJXJXJXJXJXJXJXJXKXJXJXJXJXJXKXKXKXKXKXKXKXKXKXKXKXKXKXKXKXKXKXKXKXKXKXKXKXKXKXKXKXKXKXKXKXKXKXKXKXKXKXKXKXKXKXKXCXX.X.O.X.X.X.X.X.X.X.X.X.X.X.O.+.O.+.+.+.+.+.+.+.+.<X+.+.+.<X<X<X<X<X+.+.<X+.+.<X+.<X..K U U Y U U U U U W W W U U W W U U U U W W W W W Q W U U U U P P I K M k x l x z y y u u u y y u 5 _ KXJXJXJXJXJXJXJXJXKXKXuXwXwXrXrXrXrXrXrXrXrXrXrXrXtXtXrXtXtXrXtXrXrXrXrXrXrXrXrXrXrXrXrXrXrXrXrXrXrXrXrXrXrXtXtXwXwXyXGXPX~.V.{.(.).).^.(.).^.^.^.        ",
"          k.k.k.h.h.k.k.k.k.k.k.k.k.k.k.k.k.k.k.k.h.h.h.h.h.h.h.h.g.k.s.e.y.y.r.y.y.y.t.t.t.t.t.t.t.t.t.e.e.e.e.e.e.0.e.0.0.2.,.O qXiX1X4X0X4X4X4X>X>X8Xo.c c c c c c n n n c c c c c c c c c c c c c c c c c c c x c c x x x x x x x x x x x x x x x x x x x x x x x x x x x x x x x l l l l l l l l l l l l l l l l l l l l l l l l l l k k k k k k t ` KXJXJXJXJXJXJXJXJXJXJXJXJXJXJXJXJXJXJXJXJXKXJXJXJXJXJXJXKXKXKXJXJXKXKXJXJXKXJXJXKXJXKXJXJXJXKXJXJXJXJXJXKXJXJXJXJXJXJXJXJXJXJXJXJXJXJXJXJXJXJXKXmX. # # # # # # # # # # # # # # # # # # . g KXJXJXJXJXJXJXJXJXJXJXJXJXJXJXJXJXJXJXJXJXJXJXJXJXKXJXJXJXJXJXKXKXKXKXKXKXKXKXKXKXKXKXKXKXKXKXKXKXKXKXKXKXKXKXKXKXKXKXKXKXKXKXKXKXKXKXKXKXKXKXKXKXCX..X.X...X.X.X.X.X.X.X.X.X.X.O.+.O.+.+.+.+.+.+.+.<X<X+.+.+.+.+.<X<X+.<X<X+.+.+.+.+.<X| J U U Y U U U U U W W W W W W W W W U U W W W W W W W U U U U U P I K c k l l x a t y u u u u u y 5 ' KXJXJXJXJXJXJXJXJXKXLXwXwXwXwXrXwXwXwXrXrXrXrXrXrXrXrXrXrXrXrXrXrXrXwXwXwXrXrXrXrXrXrXrXrXrXwXrXtXrXrXwXrXtXrXuXyXVXPXlXV.D.{.(.(.^.).).(.).^.^.^.        ",
"          k.k.l.k.h.k.k.k.k.k.k.k.k.k.k.k.k.k.k.k.k.h.h.h.h.h.h.h.h.k.s.e.r.y.y.y.y.y.t.t.t.t.t.t.t.t.t.e.e.e.e.e.e.0.0.0.0.0.0.o %XpX>X4X7X4X4X>X>X>X1X<XM l c c c c n n c c c c c c c c c c c c c c c c c c c c c x c x x x x x x x x x x x x x x x x x x x x x x x x x x x x x x x l l l l l l l l l l l l l l l l l l l l l l l l l l k k l k k k q ' KXJXJXJXJXJXJXJXJXJXJXJXJXJXJXJXJXJXJXJXJXKXJXJXJXJXJXJXKXJXJXJXKXKXKXJXJXKXJXJXKXKXJXJXKXJXJXKXKXJXJXJXJXJXJXJXJXJXJXJXJXJXJXJXJXJXJXJXJXJXJXKX-X. # # # # # # # # # # # # # # # # # # . $.KXKXJXJXJXJXJXJXJXJXJXJXJXJXJXJXJXJXJXJXJXJXJXKXKXJXJXJXJXKXJXKXKXKXKXKXKXKXKXKXKXKXKXKXKXKXKXKXKXKXKXKXKXKXKXKXKXKXKXKXKXKXKXKXKXKXKXKXKXKXKXKXKXCX..X.X.....X.X.X.X.X.X.X.X.O.+.+.+.+.+.+.+.+.+.+.<X+.+.+.+.+.+.<X<X+.<X<X+.+.<X+.+.<X/ J W U U U U U U U W U U W W W W W W U U W U Y W W W W U U U U U P I K c k x l x p t u u u y u u y w yXKXJXJXJXJXJXJXJXJXKXAX;XyXyXyXyXyXeXyXyXyXeXyXyXyXyXyXuXuXuXuXuXuXeXeXeXyXyXyXyXyXyXyXyXuXuXyXyXyXyXyXyXyXyXyXyXmX@XV.D.(._.^.).).).).).).^.^.^.^.        ",
"          l.k.k.k.h.h.k.k.k.k.k.k.k.k.k.k.k.k.k.k.h.h.h.h.h.h.h.h.h.k.s.4.r.y.y.y.y.y.t.t.t.t.t.t.t.t.t.t.e.e.e.e.e.e.0.e.0.0.e.&.$XsX>X4X4X7X4X4X>X>X,X8XG l c c c c n c c c c c c c c c c c c c c c c c c c c c c c c c x x x x x x x x x x x x x x x x x x x x x x x x x x x x x l l l l l l l l l l l l l l l l l l l l k l l l l l l l l l l l k q ' KXJXJXJXJXJXJXJXJXJXJXJXJXJXJXJXJXJXJXJXJXKXKXKXJXJXJXKXJXJXJXJXJXKXJXJXKXKXKXJXJXJXJXJXJXKXKXKXKXJXJXKXJXJXJXJXJXJXJXJXJXJXJXJXJXJXJXJXJXJXKXKX$.. # # # # # # # # # # # # # # # # # # . g KXKXJXJXJXJXJXJXJXJXJXJXJXJXJXJXJXJXJXJXJXJXJXJXKXKXJXJXJXKXJXJXKXKXKXKXKXKXKXKXKXKXKXKXKXKXKXKXKXKXKXKXKXKXKXKXKXKXKXKXKXKXKXKXKXKXKXKXKXKXKXJXKXZX....X.....X.X.X.X.X.X.X.X.O.+.+.+.+.+.+.+.+.+.+.<X+.+.+.+.<X<X+.<X<X<X<X+.+.+.+.<XO.I P U U U U U U U U U U U U W U U U W U U W W U W W W W U U U U U P I K x k x l l p y u u u u u u q i ZXKXJXJXJXJXJXJXJXJXKXSXyXSXMXMXMXMXMXMXMXMXMXMXyXMXMXMXMXMXMXMXMXMXMXMXMXyXMXMXMXyXyXyXyXMXMXMXMXuXMXmXUX=XnX@XC.D.D.(._.(.(.(.).(.(.).^.^.^.^.^.^.        ",
"          k.k.k.k.k.k.k.k.k.k.k.k.k.k.k.k.k.h.h.k.h.h.h.h.h.h.h.h.h.k.s.r.r.r.y.y.y.y.e.t.t.t.t.t.t.t.t.t.e.e.e.e.e.0.e.e.0.2.0.>.8.dX8X4X4X5X4X4X4X>X,X8XE l c c c c c c c c c c c c c c c c c c c c c c c c c x c c c x x x x x x x x x x x x x x x x x x x x x x x x x x x x x x l l x l l l l l l l l l l l l l l l l l l l l l l l l l l l l l k 0 ' KXJXJXJXJXJXJXJXJXJXJXJXJXJXJXJXJXJXJXJXJXJXKXJXKXKXKXKXKXJXJXJXKXJXKXKXJXJXKXKXKXJXJXJXJXJXJXKXKXJXJXJXJXJXJXJXJXJXJXJXJXJXJXJXJXJXJXJXJXJXKXKXg . # # # # # # # # # # # # # # # # # # X & KXKXJXJXJXJXJXJXJXJXJXJXJXJXJXJXJXJXJXJXJXJXJXJXJXJXJXJXJXKXKXJXKXKXKXKXKXKXKXKXKXKXKXKXKXKXKXKXKXKXKXKXKXKXKXKXKXKXKXKXKXKXKXKXKXKXKXKXKXKXKXKXKXZXX.X.X.X.X.X.X.X.X.X.X.X.X.+.+.+.<X+.+.+.+.+.+.+.+.<X+.+.+.<X+.+.+.<X+.+.+.+.+.+.2X} J U U Y U U U U U U U U U W U U U U W U U W W W W Y W W U U U U P P K H l k l l l p y u u u u u u 5 Z KXJXJXJXJXJXJXJXJXKXJX8.5.b.b.b.b.b.b.b.b.b.b.b.b.b.b.b.b.b.b.b.b.b.b.b.b.b.b.b.b.b.b.6.6.b.b.5.5.u.u.3.=.N.G.J.G.(.^.^./.).^.(.^.^.^.^.^.^.^.^.^.^.        ",
"          k.k.k.k.k.k.k.k.k.k.k.k.k.k.k.k.k.h.h.k.h.h.h.h.h.h.h.h.h.h.d.r.r.r.y.y.y.y.t.e.t.t.t.t.t.t.t.e.e.e.e.e.e.e.e.0.0.2.0.,.=.gXiX7X4X5X4X4X4X4X>X7X| c x c c c c c c c n c c c c c c c c c c c c c c c c c c c c c x x x x x x x x x x x x x x x x x x x x x x x x x x x x x l l x x l l l l l l l l l l l l l l l l l l l l l l k l l l l l k q ' KXJXJXJXKXJXJXJXJXJXJXJXJXJXJXJXJXJXJXJXJXKXJXKXJXKXKXJXJXJXJXKXKXKXKXJXJXJXKXKXKXJXJXJXJXKXJXKXKXJXJXJXJXJXJXJXJXJXJXJXJXJXJXJXJXJXJXJXJXJXKXKXj . $ # # # # # # # # # # # # # # # # # @ @ MXKXJXJXJXJXJXJXJXJXJXJXJXJXJXJXJXJXJXJXJXJXJXJXJXJXJXJXJXKXJXJXKXKXKXKXKXKXKXKXKXKXKXKXKXKXKXKXKXKXKXKXKXKXKXKXKXKXKXKXKXKXKXKXKXKXKXKXKXKXKXKXKXZXo.X.X.X.X.X.X.X.X.X.X.X.O.+.+.<X+.+.+.+.+.+.+.+.<X+.+.+.+.+.+.+.+.<X+.+.+.+.+.+.<X| P U U U U U U U U U U U U U U U U U W U U W W W W U U W Y U U P P P L F k k l l l u y u u u u y y 5 ' KXGXJXJXJXJXJXJXJXKXHX,.w.i.y.i.i.i.p.p.i.i.i.i.i.i.p.p.p.i.i.i.p.p.i.p.i.i.i.i.i.i.i.p.p.p.t.p.p.i.3.,.D.|.^.G.^.^.^.).).).^.(.^.^.).).^.^.^.^.^.^.        ",
"          k.k.l.k.k.k.k.k.k.k.k.k.k.k.k.k.k.h.h.k.h.h.h.h.h.h.h.h.h.h.d.e.e.r.y.y.y.y.y.e.t.t.t.t.t.t.t.t.e.e.e.e.e.e.e.e.0.0.2.0.o %XsX4X5X5X4X4X4X>X>X3XO.V l c c c c c c n c c n c c c c c c c c c c c c c c c c c c c x x x x x x x x x x x x x x x x x x x x x x x x x x x x x x x x x l l l l l l l l l l l l l k k k k k l l l k k l l k l l k q ' KXJXJXJXKXJXJXJXJXJXJXJXJXJXJXJXJXJXJXKXKXKXKXJXJXJXJXJXJXJXJXJXKXKXJXJXJXJXJXKXJXJXJXJXJXKXJXJXJXJXJXJXJXJXJXJXJXJXJXJXJXJXJXJXJXJXJXJXJXJXKXLX& X # # # # # # # # # # # # # # # # # # @ @ MXKXJXJXJXJXJXJXJXJXJXJXJXJXJXJXJXJXJXKXKXJXKXKXKXJXJXJXKXKXJXKXKXKXKXKXKXKXKXKXKXKXKXKXKXKXKXKXKXKXKXKXKXKXKXKXKXKXKXKXKXKXKXKXKXKXKXKXKXKXKXJXKXCXX.X.X.X.X.X.X.X.X.X.X.X.O.+.+.<X<X+.+.+.<X<X+.+.<X+.<X+.+.<X<X<X<X+.+.+.+.+.+.+.O.! P W Y U U U U U U W U U U U U U U U W U U Y Y U W W W U W U U P P P L F z l x x k u y u u u u y y 5 yXKXGXJXJXJXJXJXJXJXKXUX,.h.h.g.g.g.g.g.h.h.h.h.h.h.g.g.g.g.h.h.h.h.h.g.h.g.g.g.g.g.h.g.g.g.g.g.j.g.y.3.).oX^.G.^./.^.^.).).^.^.^.^.).).).).).).^.^.^.        ",
"          k.k.l.k.k.h.k.k.k.k.k.k.k.k.k.k.k.k.h.h.h.h.h.h.h.h.h.h.h.h.d.r.r.r.y.y.y.y.y.t.t.t.t.t.t.t.t.t.t.e.e.e.e.e.e.e.0.0.0.e.%.7.NX4X5X5X4X4X4X>X1X@.9XE k c c c c c c n c n c c c c c c c c c c c c c c c c c c c c c x x x x x x x x x x x x x x x x x x x x x x x x x x x x x x x l l l l l l l l l l l l l l l l l k l l l k k k k l l l l k q ' KXJXJXJXJXJXJXJXJXJXJXJXJXJXJXJXJXJXJXKXKXKXKXJXKXJXJXKXJXJXJXJXJXJXKXJXJXJXJXKXKXJXJXKXKXJXJXJXJXJXJXJXJXJXJXJXJXJXJXJXJXJXJXJXJXJXJXJXJXJXKXMX@ @ # # # # # # # # # # # # # # # # # # @ X mXKXJXJXJXJXJXJXJXJXJXJXJXJXJXJXJXJXJXKXKXJXKXKXJXJXJXJXKXKXKXKXKXKXKXKXKXKXKXKXKXKXKXKXKXKXKXKXKXKXKXKXKXKXKXKXKXKXKXKXKXKXKXKXKXKXKXKXKXKXKXJXKXCXX.X.O.X...X.X.X.X.X.X.X.O.+.+.+.<X+.+.+.<X<X<X<X<X<X<X<X+.<X<X+.+.+.+.+.+.+.+.<X..I U W W W U U U U U U U U U U U U U W W W W W W Y W W W W W U U P P P L D k l x x k u u u u u u u w t FXKXJXJXJXJXJXJXJXJXKX#X,.k.h.g.g.g.h.h.h.h.h.h.h.h.h.h.g.g.g.h.h.h.h.g.g.g.g.g.g.g.g.g.g.g.g.g.g.i.3.F.oXJ.^.^./.^.).^.^.^.^.^.^.^.).).).).).^.).).).        ",
"          k.k.l.k.k.h.h.k.k.k.k.k.k.k.k.k.h.k.k.h.h.h.h.h.h.h.h.h.h.h.g.r.e.y.y.y.y.y.y.t.t.t.t.t.t.t.t.t.t.e.e.e.e.e.e.0.0.0.0.t.;.-.BX8X5X5X4X4X4X1X3X,XiX#.l c c c c c c c n n c c c c c c c c c c c c c c c c c c c c c x x x x x x x x x x x x x x x x x x x x x x x x x x x x x x l l l l l l l l l l l l l l l l l k k l l l l k k k l l l l k q ' KXJXJXJXJXJXJXJXJXJXJXJXJXJXJXJXJXJXJXJXJXJXKXKXKXJXJXJXJXJXJXJXJXJXKXKXJXJXJXJXJXJXJXKXKXJXJXJXJXJXJXJXJXJXJXJXJXJXJXJXJXJXJXJXJXJXJXJXJXJXKX=XX # # # # # # # # # # # # # # # # # # # # . -XKXJXJXJXJXJXJXJXJXJXJXJXJXJXJXJXJXJXJXJXKXKXJXJXJXJXKXKXKXJXKXKXKXKXKXKXKXKXKXKXKXKXKXKXKXKXKXKXKXKXKXKXKXKXKXKXKXKXKXKXKXKXKXKXKXKXKXKXKXKXKXKXCXX.X.O.X.X.X...X.X.X.X.O.+.+.+.+.+.+.+.+.+.+.<X<X<X<X<X+.+.+.<X<X<X+.+.<X+.+.+.2X| J Q U U U U U U U U U U U U U U U U U U W W W W W W W W W W Y Y U P P L D k l l x a u u u u u u u 5 Z KXKXJXJXJXJXJXJXJXKXKX6.0.h.h.h.h.h.h.h.h.h.h.h.h.h.h.h.h.h.h.h.h.h.h.h.h.h.h.g.g.g.g.g.h.g.g.h.i.,.S.oX).).^.^.^.^.^.^.^.^.^.^.^.^.).).).).^.^.).)./.        ",
"          k.l.l.k.k.h.h.k.k.k.k.k.k.k.k.k.h.h.k.h.h.h.h.h.h.h.h.h.h.h.g.r.e.r.y.y.y.y.y.e.t.t.t.t.t.t.t.t.t.e.e.e.e.e.e.0.0.4.0.e.,.O gXpX4X4X4X5X4X>X>X,X9X3Xc x c c c c c c c c c c c c c c c c c c c c c c c c c c c c c c x x x x x x x x x x x x x x x x x x x x x x x x x x x x x l l l l l l l l l l l l l l l l l k l l l l l k k l l l k k k t ' KXJXJXJXJXJXJXJXJXJXJXJXJXJXJXJXJXJXJXJXJXJXJXKXKXJXJXJXJXJXJXJXJXJXJXKXJXJXKXJXJXJXJXKXKXJXJXJXJXJXJXJXJXJXJXJXJXJXJXJXJXJXJXJXJXJXJXJXJXJXKX-X. # # # # # # # # # # # # # # # # # # # # . &XKXJXJXJXJXJXJXJXJXJXJXJXJXJXJXJXJXJXKXJXJXKXJXJXKXJXJXKXKXJXJXKXKXKXKXKXKXKXKXKXKXKXKXKXKXKXKXKXKXKXKXKXKXKXKXKXKXKXKXKXKXKXKXKXKXKXKXKXKXKXKXKXCXX.X.X.X.X.X.X.X.X.X.X.O.+.+.+.+.+.+.+.+.+.+.<X<X<X<X<X<X+.+.<X<X<X+.<X<X+.+.+.<X/ P W U U U U U U U Y W U U U U U U W W U U U Y W W W W U U W Y U P P I L B a l x x a y u u u u u u > ' KXJXJXJXJXJXJXJXJXKXPX3.j.h.h.h.h.h.h.h.h.h.h.h.h.h.h.h.h.h.h.h.h.h.h.h.h.h.h.g.g.h.g.g.h.g.k.j.3.V.oX^.^.).).).).).^.^.^.).^.^.^.^.).^.^.).).).).).).        ",
"          k.l.l.k.k.h.h.k.k.k.k.k.k.k.k.k.k.k.h.h.h.h.h.h.h.h.h.h.h.h.h.r.e.r.y.y.y.y.y.t.t.t.t.t.t.t.t.t.t.e.e.e.e.e.0.0.e.e.0.0.q.%.%XdX4X5X5X5X4X4X4X,X>X8XC l c c c c c c c c c c c c c c c c c c c c c c c c c c c c x c c x x x x x x x x x x x x x x x x x x x x x x x x x x x x x l l l l l l l l l l l l l l l l l l l l l l l l l k k k k k t ' KXJXJXJXJXJXJXJXJXJXJXJXJXJXJXJXJXJXJXJXJXJXJXKXKXKXKXJXJXKXJXKXKXJXJXKXKXKXJXJXKXJXJXKXJXJXJXKXKXKXJXJXJXJXJXJXJXJXJXKXJXJXJXJXJXJXJXJXJXJXKX$.. # # # # # # # # # # # # # # # # # # # # . j KXKXJXJXJXJXJXJXJXKXJXJXJXJXJXJXJXJXJXJXKXJXJXJXJXKXJXKXKXJXJXKXKXKXKXKXKXKXKXKXKXKXKXKXKXKXKXKXKXKXKXKXKXKXKXKXKXKXKXKXKXKXKXKXKXKXKXKXKXKXKXKXCX..X.X.X.X.X.X.X.X.X.O.+.+.+.+.+.+.+.+.+.+.+.+.<X<X<X<X<X+.+.<X<X<X<X<X<X<X+.<XO.U U U U W W U U W W W W U U U W W U W W U U U U W W W W W Y U Y Y P P I L N k l x l p y u u u u u y w yXKXJXJXJXJXJXJXJXJXKXkX,.k.g.h.h.h.h.h.h.h.h.h.h.h.h.h.h.h.h.k.h.h.h.h.h.h.h.h.g.g.h.h.g.g.h.j.,.B.oX^.F.^.).).).).).).).).^.).^.^.^.^.^.).).).).).).).        ",
"          k.k.k.k.k.h.k.k.k.h.k.k.k.k.k.k.k.k.k.h.h.h.h.h.h.h.h.h.h.h.h.y.e.y.y.y.y.y.y.t.t.t.t.t.t.t.t.t.t.t.e.e.e.e.0.0.e.e.0.0.t.*.7.BX,X5X5X5X5X4X>X>X,XpX[ l c c c c c c c c c c c c c c c c c c c c c c c c c c c c c c c x x x x x x x x x x x x x x x x x x x x x x x x x x x l x x l l l l l l l l l l l l l l l l l l l l l l l k l l k k k t ' KXJXJXJXJXJXJXJXJXJXJXJXJXJXJXJXJXJXJXJXKXJXJXKXKXJXKXJXJXKXKXKXKXKXKXKXKXKXJXJXJXKXKXJXJXKXKXKXKXJXJXJXJXJXJXJXJXJXJXKXJXJXJXJXJXJXJXJXJXKXKXg . $ # # # # # # # # # # # # # # # # # # # . g KXKXJXJXJXJXJXJXJXJXJXJXJXJXJXJXJXJXJXJXKXJXJXJXKXKXKXKXJXJXJXKXKXJXJXKXKXKXKXKXKXKXKXKXKXKXKXKXKXKXKXKXKXKXKXKXKXKXKXKXKXKXKXKXKXKXKXKXKXKXKXKXCX..X.X.X.X.X.X.X.X.O.+.+.+.+.+.+.+.+.+.+.+.+.+.+.+.+.+.+.+.+.+.<X<X<X+.+.<X+.2X} J W U Y W W W U W U W W W W W W W W W W W U U U U Y W U U Y U U Y I P I L m k l l l p y u u u u u w d JXKXJXJXJXJXJXJXJXJXKXn.0.k.h.k.h.h.k.k.k.h.k.k.h.h.h.h.h.h.h.h.h.h.h.h.h.h.h.h.h.h.h.h.g.h.j.3.B.oX(.F.).).).).F.^.^.).).).).).).).).).).).).).).).)./.        ",
"          k.k.k.k.k.k.k.k.k.k.k.k.k.k.k.k.k.k.k.h.h.h.h.h.h.h.h.h.h.h.k.s.e.y.y.y.y.y.y.t.t.t.t.t.t.t.t.t.t.t.e.e.e.e.e.e.0.e.0.0.e.>.-.BX2X4X7X4X4X4X1X>X,XiX@.x c c c c c c c c c c c c c c c c c c c c c c c c c c c c c c c c x x x x x x x x x x x x x x x x x x x x x x x x x x x x x l l l l l l l l x l l l l l l l l l l l l l l l l l l k k y ' KXJXJXJXJXJXJXJXJXJXJXJXJXJXJXJXJXJXJXJXKXKXKXJXJXJXJXJXKXJXKXJXJXJXJXJXJXJXJXJXJXJXKXKXKXJXJXKXJXKXKXJXJXJXJXKXJXJXKXKXJXJXJXJXJXJXJXJXJXKXLX& X # # # # # # # # # # # # # # # # # # # # X j KXKXJXJXJXJXJXJXJXJXJXJXJXJXJXJXJXJXKXKXJXJXJXJXKXKXJXJXJXJXJXJXKXKXJXKXKXKXKXKXKXKXKXKXKXKXKXKXKXKXKXKXKXKXKXKXKXKXKXKXKXKXKXKXKXKXKXKXKXKXKXKXZXX.X.O.X.X.X.X.X.X.O.+.+.+.+.+.+.+.+.+.+.+.+.+.<X+.+.+.<X<X+.+.+.+.+.+.+.<X+.2X/ J U U Y Y W W W W U W W W W W U U W W W W W U U U U W U U U U U U U P I K c k l x l u u u u u u u 5 ` KXJXJXJXJXJXJXJXJXKXLXu.j.k.k.g.h.k.k.h.k.k.k.k.k.k.k.k.h.h.k.k.k.h.h.h.h.h.h.h.k.h.h.h.k.j.,.B.oX).G.).)./.).)./.)././.).).).).).).).H.)././.'./././.`.        ",
"          k.k.k.k.k.h.k.k.k.k.k.k.k.k.k.k.k.k.h.h.h.h.h.h.h.h.h.h.h.g.k.s.e.y.y.y.y.y.y.y.e.t.t.t.t.t.t.t.t.t.e.e.e.e.e.e.0.0.0.e.e.w.O uXiX>X7X4X4X>X4X>X>X7X8XM l c c c c c c c c c c c c c c c c c c c c c x x c c x c c c c c x x x x x x x x x x x x x x x x x x x x x x x x x x x x l x l l l l l l l l l l l l l l l l l l l l l l k k l l k k y ' KXJXJXJXJXJXJXJXJXJXJXJXJXJXJXJXJXJXJXKXKXKXJXJXJXKXKXKXKXJXJXJXJXJXJXJXJXJXJXJXJXJXKXKXKXKXJXJXJXKXKXKXJXJXJXKXKXKXKXKXJXJXJXJXJXJXJXJXJXKXJX% X # # # # # # # # # # # # # # # # # # # # X $ LXKXJXJXJXJXJXJXJXJXJXJXKXJXJXJXJXJXKXKXJXJXJXJXKXJXJXJXJXJXKXKXKXKXKXKXKXKXKXKXKXKXKXKXKXKXKXKXKXKXKXKXKXKXKXKXKXKXKXKXKXKXKXKXKXKXKXKXKXKXJXKXZXX.X.X.X.X.X.X.X.X.O.+.+.<X+.+.+.+.+.+.<X<X+.<X+.+.+.+.+.<X+.+.+.+.+.+.+.+.<X..P U Y W Q W Y U W Q U U W W W W U U W W W U W W U U W W U U U U U U U P I J x l l x k u u u u u u y w eXKXJXJXJXJXJXJXJXJXKXnX,.k.k.k.h.k.k.h.k.k.k.k.k.k.k.k.k.k.k.k.k.k.k.k.h.h.h.h.h.k.g.g.k.j.,.B.oX).F.).).)./.)./.).).)./.'.'.).).'.`.`.)./././././././.`.        ",
"          k.k.k.k.k.h.k.k.k.k.l.k.k.k.k.k.k.k.h.h.h.h.h.h.h.h.h.h.h.g.k.g.e.y.y.y.y.y.y.y.t.t.t.t.t.t.t.t.t.t.e.e.e.e.e.e.0.0.0.e.0.e.o &XNX>X4X4X4X4X4X1X>X>XiXE l c c c c c c c c c c c c c c c c c c c c c c x x x x x x c c c x x x x x x x x x x x x x x x x x x x x x x x x x x x x l l l l l l l l l l l l l l l l l l l l l l l l k k l l k k y ' KXJXJXJXJXJXJXJXJXJXJXJXJXJXJXJXJXJXJXKXKXJXKXJXJXKXKXKXKXKXKXKXKXJXJXJXJXKXKXKXKXKXKXJXJXJXJXJXJXKXKXKXKXJXJXKXJXKXJXJXJXJXJXJXJXJXJXJXJXKXSX# @ # # # # # # # # # # # # # # # # # # # # @ % PXKXJXJXJXJXJXJXJXJXJXJXJXJXJXJXJXJXJXKXJXJXJXJXKXKXJXJXJXKXKXKXKXJXJXKXKXKXKXKXKXKXKXKXKXKXKXKXKXKXKXKXKXKXKXKXKXKXKXKXKXKXKXKXKXKXKXKXKXKXJXKXFXX.X.X...X.X.X.X.O.+.+.+.+.+.+.+.+.+.<X<X+.+.+.+.+.<X<X+.+.+.+.+.+.+.+.+.+.2X) J U W Q W W U U W Q U U W U W W U U W W W W W W W W W W U W U U U U P P R F k l x l a u u u u u u w d FXKXJXJXJXJXJXJXJXJXKX#X3.k.k.h.h.k.k.h.k.k.k.k.k.k.k.k.k.k.k.k.k.k.h.k.h.h.h.h.h.h.h.k.g.,.B.oX^.F././.).)./././.).`.`.`.K.`././.K././././././.`.)./.`.`.        ",
"          k.k.k.l.k.h.k.k.k.k.k.k.k.k.k.k.k.k.k.k.h.h.h.h.h.h.h.h.h.h.h.g.e.t.y.y.y.y.y.y.t.e.t.t.t.t.t.t.t.t.t.e.e.e.e.e.e.0.0.0.2.t.*.8.CX8X4X4X4X4X4X4X4X>XiX} x x c c c c c c c c c c c c c c c c c c c c c c c c c x x c c c x x x x x x x x x x x x x x x x x x x x x x x x x x x x l l x x l l l l l l l l l l l l l l l l l l l l l l l k k k y ` KXJXJXJXJXJXJXJXJXJXJXJXJXJXJXJXJXJXJXKXKXJXJXJXJXKXKXKXKXKXJXJXJXJXKXKXKXKXKXKXKXKXKXKXJXJXJXJXJXKXJXKXKXJXJXJXJXKXJXJXKXJXJXJXJXJXJXJXJXKX=X. # # # # # # # # # # # # # # # # # # # # # # . =XKXJXJXJXJXJXJXJXJXJXJXJXJXJXJXJXJXJXJXJXJXJXKXKXKXJXJXJXKXJXJXKXKXKXKXKXKXKXKXKXKXKXKXKXKXKXKXKXKXKXKXKXKXKXKXKXKXKXKXKXKXKXKXKXKXKXKXKXKXKXKXFX....X...X.X.X.O.+.+.+.+.+.+.+.<X+.+.<X<X+.<X+.<X<X<X+.+.+.+.+.+.+.+.+.+.+.+.! P Y W W W W W W U W W W U W W U U U U W W W W Q Q W W U W U U U U U P U L D a l l l p u u u u u u 5 _ KXJXJXJXJXJXJXJXJXKXJX6.y.k.k.h.h.k.k.k.k.k.k.k.k.k.k.k.k.k.k.k.k.k.h.h.k.k.k.h.h.g.k.g.,.B.XX^.F.)./.).)./././.`.I.K.K.K.'.'./././././././././.`./.F./.`.        ",
"          k.k.k.l.k.h.k.k.k.k.k.k.k.k.k.k.k.k.k.k.h.h.h.k.k.k.h.h.h.h.h.k.e.y.y.y.y.y.y.y.t.e.t.t.t.t.t.t.t.t.t.e.e.e.e.e.e.e.0.0.2.0.,.O VX9X>X4X7X4X4X>X4X>X7X2Xm l c c c c c c c c c c c c c c c c c c c c c c c c c c c c c c x x x x x x x x x x x x x x x x x x x x x x x x x x x x l l x x x l l l l l l l l l l l l l l l l l l l l l l k l k t ' KXKXJXJXJXJXJXJXJXJXJXJXJXJXJXJXJXJXJXJXJXJXJXJXKXKXKXKXKXKXJXKXJXJXKXKXKXKXKXJXKXKXKXKXKXJXJXJXJXJXJXKXKXKXJXJXJXJXKXKXJXKXJXJXJXJXJXJXJXKX=X. # # # # # # # # # # # # # # # # # # # # # # . =XKXJXJXJXJXJXJXJXJXJXJXJXJXJXJXJXJXJXJXKXKXKXKXKXJXJXJXJXJXJXJXKXKXKXKXKXKXKXKXKXKXKXKXKXKXKXKXKXKXKXKXKXKXKXKXKXKXKXKXKXKXKXKXKXKXKXKXKXKXKXKXFX{ { X.X.X.X.O.O.+.+.+.+.+.+.+.+.+.+.<X<X<X<X<X<X+.+.+.<X+.+.<X+.+.+.+.+.<Xo.J U Y U Y W Y W W W W W W W U U W U W W U W U U W Q Q W U W U U U Y U P U R N k l l l p u u u u u y w eXKXJXJXJXJXJXJXJXJXKXPX3.h.k.k.k.k.k.k.k.k.k.k.k.k.k.k.k.k.k.k.k.k.k.k.k.k.k.k.k.g.k.h.,.B.OX_.F.)./././.).)././.I.P.K.`.`.`././././././.F././././.`.F./.'.        ",
"          k.k.k.l.k.h.k.k.k.k.k.k.k.k.k.k.k.k.k.k.h.h.h.h.h.h.h.h.h.h.h.k.y.t.y.y.y.y.y.y.t.e.t.t.t.t.t.t.t.t.t.t.e.e.e.e.e.0.e.0.0.0.q.o =XsX>X4X7X4X4X>X4X>X,XiXE k c c c c c c c c c c c c c c c c c c c c c c c c c c c c c c x x x x x x x x x x x x x x x x x x x x x x x x x x x l l l x x x x x l l l l l l l l l l l l l l l l l l l l l k k t ' KXKXJXJXJXJXJXJXJXJXJXJXJXJXJXJXJXJXJXJXJXKXJXJXJXJXJXKXKXKXKXKXKXKXKXKXJXJXJXJXKXKXJXJXKXJXJXJXJXJXJXKXKXKXKXJXJXJXJXKXJXKXKXJXJXJXJXJXJXKX=X. # # # # # # # # # # # # # # # # # # # # # # . =XKXJXJXJXJXJXJXJXJXJXJXJXJXJXJXJXKXKXKXJXKXKXKXJXKXJXJXJXJXJXJXKXKXKXKXKXKXKXJXKXKXKXKXKXKXKXKXKXKXKXKXKXKXKXKXKXKXKXKXKXKXKXKXKXKXKXKXKXKXKXKXFX{ ..X...X.X.O.+.+.+.+.+.+.+.+.+.+.+.<X<X<X<X<X<X<X<X<X<X<X<X<X+.+.+.+.+.<X( J W W W W W Y U W W W W U W W W W W W W W W U U W W Q W W W U U U U P P U I c k x x k u p u u u p w s GXKXJXJXJXJXJXJXJXJXKXkX,.l.k.k.k.k.k.k.k.k.k.k.k.k.k.k.k.k.k.k.h.k.k.k.k.k.k.k.h.h.h.3.B.OX_.F.)./././././././.`.`.`.K./././././././.`./.F.`./././.'.`.K.K.        ",
"          l.l.l.k.k.k.k.h.k.k.l.k.k.k.k.k.k.k.k.k.h.h.h.h.h.h.h.h.h.h.k.k.y.e.y.y.y.y.y.y.y.t.t.y.t.t.t.t.t.t.t.t.t.e.e.e.e.e.e.0.0.0.e.*.7.NX1X4X7X4X4X4X4X>X,X9Xo.x x c c c c c c c c c c c c c c c c c c c c c c c c c c c c x x x x x x x c x x x x x c x x x x x x x x x x x x x x l l x l x l l l l l l l l l l l l l l l l l l l l l l l l l k y ' KXJXJXKXJXJXJXJXJXJXJXJXJXJXJXJXJXJXJXJXJXJXKXJXJXJXJXKXKXJXKXJXJXJXJXJXJXJXJXJXKXKXJXJXKXJXJXJXKXKXKXJXJXJXJXJXJXJXJXKXKXJXKXJXJXJXJXJXKXKX=X. # # # # # # # # # # # # # # # # # # # # # $ . -XKXJXJXJXJXJXJXJXJXJXKXJXJXJXJXJXJXJXJXJXJXKXJXJXKXKXJXJXJXJXJXKXKXKXKXKXKXKXKXKXKXKXKXKXKXKXKXKXKXKXKXKXKXKXKXKXKXKXKXKXKXKXKXKXKXKXKXKXKXKXKXZX..X.X...X.X.O.+.<X+.+.+.<X<X+.+.+.+.<X<X<X<X<X<X<X<X<X<X<X+.+.+.+.+.+.<Xo.P Y U W U W W U W W W W U U U W W W W W W W W W W W W Q W W U U U U U P P I J x k x x k u p u u u u 5 ` KXJXJXJXJXJXJXJXJXKXKXn.q.k.k.k.k.k.k.k.k.k.k.k.k.k.k.k.k.k.k.k.k.k.k.k.k.k.k.g.g.h.3.N.XX_.F.).`./.'././././.K./.`.[.`.`.`./.`././.`.K.F.K.`.`./.`.'.`.K.K.        ",
"          k.l.l.k.k.h.k.k.k.k.k.k.k.k.k.k.k.k.k.k.k.h.h.h.h.h.h.h.h.h.k.l.s.e.y.y.y.y.y.y.y.t.t.t.t.t.t.t.t.t.t.t.t.e.e.e.e.e.e.0.0.2.0.>.-.NX2X4X4X4X4X4X4X4X1X>X2XV l c c c c c c c n c c c c c c c c c c c c c c c c c c c c c x x x x x x c c x x x c c x x x x x x x x x x x x x l x x l l x l l l l l l l l l l l l l l l l l l l l l l l l l k t ' KXJXJXJXJXJXJXJXJXJXJXJXJXJXJXJXJXJXJXKXKXJXJXKXJXJXJXKXKXJXJXJXJXJXJXJXJXJXJXJXKXKXJXJXKXJXJXJXJXJXKXJXKXJXJXJXJXJXJXJXKXJXKXJXJXJXJXJXJXKXLX& . $ # # # # # # # # # # # # # # # # # # $ X X PXKXJXJXJXJXJXJXJXJXJXJXJXJXJXJXJXJXJXJXJXJXJXJXKXKXKXKXKXJXJXKXKXKXKXKXKXKXKXKXKXKXKXKXKXKXKXKXKXKXKXKXKXKXKXKXKXKXKXKXKXKXKXKXKXKXKXKXKXKXKXKXZXX.X.X.X.X.X.O.+.+.+.+.<X<X<X<X+.<X+.<X<X+.<X<X<X<X+.<X<X<X+.+.+.+.+.O.8X| J W U U Y Y W W W W W W U W U W W U U W U W W W W W W W U W W U U U U U P R F k k x x a u p p u u y 5 eXKXJXJXJXJXJXJXJXJXKXPX5.g.k.k.k.k.k.k.k.k.k.k.k.k.k.k.k.k.k.k.k.h.k.k.k.k.k.g.k.g.,.N.XX_./.)././.'.)././././.`./.`.`./.`.)./.`./.`.K.K.K.K.K.K./.`.`.`.K.I.        ",
"          k.k.k.k.k.k.k.k.k.k.k.k.k.k.k.k.k.k.k.k.k.h.h.h.h.h.h.h.h.k.k.k.s.e.y.y.y.y.y.y.y.t.t.t.t.t.t.t.t.t.t.t.t.e.e.e.e.0.e.e.0.0.0.0.%.qXiX4X4X4X4X4X4X4X>X@.9XE k c c c c c c c c c c c c c c c c c c c c c c c c c c c c c c x x x x x x x x c c c x x x x x x x x x x x x x x x x x x l x l l x l l l l l l l l l l l l l l l l l l l l l k k t ' KXJXJXJXJXJXJXJXJXJXJXJXJXJXJXJXJXJXJXKXKXJXJXJXJXKXKXJXKXJXJXJXJXJXJXJXKXKXJXKXKXKXJXJXJXKXJXJXJXKXKXKXJXKXKXJXKXJXJXKXKXKXJXJXJXJXJXJXKXJXKXMXX . @ # # # # # # # # # # # # # # # # # X . -XKXKXJXJXJXJXJXJXJXJXJXJXJXJXJXJXJXJXJXKXJXJXKXKXKXJXJXKXKXJXJXKXKXKXKXKXKXKXKXKXKXKXJXJXKXKXKXKXKXKXKXKXKXKXKXKXKXKXKXKXKXKXKXKXKXKXKXKXKXKXKXKXZXX.X.X.X.O.O.+.+.+.+.+.+.+.+.+.<X<X+.+.<X<X+.<X<X<X<X<X+.<X<X+.+.+.+.<X<XY I W U Y Y W W W W W W W U W W W U U W U U W W W W W W U W U U W U U U U P R D a l x l p p p u u p w d JXKXJXJXJXJXJXJXJXJXKXkX,.z.k.k.k.k.k.k.k.k.k.k.k.k.k.k.k.k.k.k.k.k.h.h.h.k.h.g.k.3.B.OX_.F.)././.`.`././././.`.'././././././.`././.'.F.`.'./.K.`.).K.`.`.K.I.        ",
"          k.k.k.k.k.k.k.k.k.k.k.k.k.l.k.k.k.k.k.k.k.h.h.h.h.h.h.h.k.k.h.k.g.y.y.y.y.y.y.y.i.y.t.t.t.t.t.t.t.t.t.t.t.e.e.e.e.e.0.e.e.0.0.e.*.7.sX7X4X4X4X4X4X4X>X,X7X@.x x c c c c n c c c c c c c c c c c c c c c c c c c c c c c c c x x x x x x x c c x x x x x x x x x x x x x x x x x x x l l l l l l l l l l l l l l l l l l l l l l l l l l k k t ' KXJXJXJXJXJXJXJXJXJXJXJXJXJXJXJXJXJXKXKXJXJXJXJXKXKXKXKXJXJXJXKXKXJXJXJXJXKXJXJXKXJXJXJXJXJXJXJXJXKXJXJXJXKXJXJXJXJXJXKXKXKXJXJXJXJXJXKXJXJXKXKXMXg X . . . . . . . . . . . . . . . . X & -XKXKXJXJXJXJXJXJXJXJXJXJXJXJXJXJXJXKXKXJXJXJXJXKXKXKXJXJXKXKXJXJXKXKXKXKXKXKXKXKXKXKXKXKXKXKXKXKXKXKXKXKXKXKXKXKXKXKXKXKXKXKXKXKXKXKXKXKXKXKXKXJXKXFXX.X.X.X.O.+.+.<X+.<X<X+.+.+.<X<X<X<X<X<X<X<X<X<X<X<X<X<X+.<X+.<X<X+.8X| J W U W Y U U Y W U U W W W W W U U U U U U W W W W W W U W U U U U U U P U R B a l x l p p p p u u 5 ' KXJXJXJXJXJXJXJXJXJXKXn.q.l.k.k.k.k.k.k.k.k.k.k.k.k.k.k.k.k.k.k.k.h.k.h.h.h.k.h.3.B.OX X/.).).).).'.`././.`.`.`.`./././././.'././.`.'.`././.`.K.`.`.`.`.`.K.K.        ",
"          k.k.l.l.k.k.k.k.k.k.k.k.k.k.k.k.k.k.k.k.k.h.h.h.h.h.h.h.k.k.h.k.h.y.y.y.y.y.y.y.y.y.t.t.t.t.t.y.y.t.t.t.t.t.t.e.e.e.0.0.0.0.2.0.,.=.aX9X5X5X4X4X4X4X>X,X,X8XC l c c c n c c n c c c c c c c c c c c c c c c c c c c c c x x c c x x c c x x x x x x x x x x x x x x x x x x x x x l x x l l l x l l l l l l l l l l l l l l l l l l l l k k y ' KXJXJXKXJXJXJXJXJXJXJXJXJXJXJXJXJXJXJXJXJXJXJXKXKXKXJXJXJXKXKXKXKXKXJXJXJXKXKXJXJXJXJXJXJXKXKXJXJXKXJXJXKXKXKXJXJXJXJXJXJXKXJXJXJXJXJXKXJXJXKXKXKXKXPX=X$.-X-X-X-X-X-X-X-X-X-X-X-X-X-XmXJXKXKXJXJXJXJXJXJXJXJXJXJXJXJXJXJXJXKXKXKXKXJXJXKXKXKXJXJXJXKXKXJXJXKXKXKXKXKXKXKXKXKXKXKXKXKXKXKXKXKXKXKXKXKXKXKXKXKXKXKXKXKXKXKXKXKXKXKXKXKXKXKXJXKXFXO.X.+.O.O.O.+.+.<X<X<X<X<X<X<X<X<X<X<X<X<X<X<X<X<X<X<X<X<X<X<X<X+.<X+.Y I W W W U U U U U U U W W W W W W W W W W W W W W W U W W U U U U U U U P U R n a l x k p p p p u y w SXKXJXJXJXJXJXJXJXJXKXPX3.g.k.k.k.k.k.k.k.k.k.k.k.k.k.k.k.k.k.k.k.k.k.k.h.h.h.h.,.B.oX XF.).).).).).'.`././.`.`.`.`./././././.'./.`.`.K.'.`.K.K.K.K.K.`.`.K.I.'.        ",
"          k.k.k.k.k.k.k.k.k.k.k.k.k.k.k.k.k.k.k.k.k.k.h.h.h.h.h.h.k.k.h.k.k.y.y.y.y.y.y.y.y.y.t.t.t.t.t.t.y.t.t.t.t.t.t.t.e.e.e.0.0.0.2.0.0.%.-XsX4X5X4X4X4X4X>X,X,XiXE k c c c n c c c c c c c c c c c c c c c c c c c c c c c c c x x c x x x x x x x x x x x x x x x x x x x x x x x x l x x x x x x x l l l l l l l l l l l l l l l l l l l k k k y ' KXJXJXJXJXJXJXJXJXJXJXJXJXJXJXJXJXJXJXJXKXKXKXJXKXKXKXKXJXJXKXKXKXJXKXJXJXKXKXJXJXJXJXJXJXKXKXKXJXKXKXJXJXKXKXKXJXJXJXKXKXKXJXJXJXJXJXJXKXKXJXKXKXKXKXKXKXKXKXKXKXKXKXKXKXKXKXKXKXKXKXKXKXJXKXJXJXJXJXJXJXJXJXJXJXJXKXJXJXJXKXKXKXJXJXJXJXKXKXJXJXJXKXKXJXJXKXKXKXKXKXKXKXKXKXKXKXKXKXKXKXKXKXKXKXKXKXKXKXKXKXKXKXKXKXKXKXKXKXKXKXKXKXKXKXKXKXFXO.X.+.+.O.O.O.+.+.+.<X<X<X<X<X<X<X<X<X<X<X<X<X<X+.+.<X+.+.+.+.+.+.2X| J W W W W U U U U U W W W W W W W W W W Q W U W W W W W W W U U U U U U U U Y K c k l x a p p p p p 5 d KXKXJXJXJXJXJXJXJXJXKXkX,.z.k.k.k.k.k.k.k.k.k.k.k.k.k.k.k.k.k.k.k.k.h.k.h.h.g.,.B.oX).F.).).).)././././.)./././././././././.`.'.F.K.'.`.F.K.K.K.F.K.I.`./.K.`.`.        ",
"          k.k.k.l.l.k.k.h.k.k.k.k.k.k.k.k.k.k.k.k.k.k.h.h.h.h.h.h.k.k.k.k.l.y.y.i.y.y.y.y.y.y.y.t.t.t.t.t.t.t.t.t.t.t.t.e.e.e.e.0.0.e.0.0.e.&.8.sX7X4X4X5X5X4X4X>X,X0X+.c x n c n c c c c c n c c c c c c c c c c c c c c c c c c c x x x x x x x x x x x x x x x x x x x x x x x x x x l l x x x x x x l l l l l l l l l l l l l l x l l l l l k k k u ' KXKXJXJXJXJXJXJXJXJXJXJXJXJXJXJXKXJXJXJXKXKXKXJXJXKXJXJXKXKXKXKXKXJXKXJXJXJXJXJXJXKXKXJXKXKXKXJXKXKXKXKXKXJXJXKXJXKXKXJXJXJXJXKXKXKXJXKXJXKXKXJXJXJXJXKXKXKXKXKXKXKXKXKXKXKXKXKXJXJXJXKXJXJXJXKXKXJXJXJXJXJXJXJXKXJXJXKXKXKXKXJXKXJXJXJXJXJXJXKXKXKXKXJXJXJXKXKXKXKXKXKXKXKXKXKXKXKXKXKXKXKXKXKXKXKXJXKXKXKXKXKXKXKXKXKXKXKXKXKXKXKXKXKXJXKXKXFXO.O.+.O.O.O.O.O.+.+.<X<X<X<X<X<X<X<X<X<X<X<X<X<X<X<X+.+.+.+.<X<X<X<XQ I W W W W W U U W W W W W W W W W W W W W W W W W W W W W U U U U U U U U U I F l l x l a p p p p p 5 *XKXJXJXJXJXJXJXJXJXKXKX6.t.l.k.k.k.k.k.k.k.k.k.k.k.k.k.k.k.k.k.k.k.h.k.h.h.h.3.N.oX_.K.).^.).).^./././././././././.)./.).)./././././././.K.K.K.I././.I.K.K.K.K.`.        ",
"          k.k.k.l.l.k.k.k.k.k.k.k.k.k.k.k.k.k.k.k.k.k.h.h.h.h.h.h.k.k.k.k.l.s.r.i.y.y.y.y.y.y.y.t.t.t.t.t.t.t.t.t.t.t.t.e.e.t.e.0.0.e.0.0.0.,.=.aXiX4X4X5X4X4X4X>X>X>XiXG l c c c c c c c n n n n c n c c c c c c c c c c c c c c c x x x x x x x x x x x x x x x x x x x x x x x x x x x x x x x x x x l l l l l l l l l l l l l l l l l l l l l k k y ' KXKXJXJXJXJXJXJXJXJXJXJXJXJXJXJXKXJXJXJXKXJXJXJXKXJXJXJXJXKXKXKXJXJXKXJXJXJXJXKXJXJXKXKXKXKXKXJXKXKXKXJXJXJXKXKXKXKXKXJXJXJXJXKXKXKXJXKXJXJXKXJXJXJXJXJXJXKXKXKXKXKXKXKXKXKXKXJXJXKXKXKXKXKXKXJXJXJXJXJXJXJXJXKXKXKXJXKXKXKXKXJXKXKXKXJXJXJXJXKXKXKXKXKXKXKXKXKXKXKXKXKXKXKXKXKXKXKXKXKXKXKXKXKXKXKXKXKXKXKXKXKXKXKXKXKXKXKXKXKXKXKXKXKXJXJXKXGX+.O.+.O.+.O.O.+.+.+.<X<X<X<X<X<X<X<X<X<X<X<X<X<X<X<X<X+.<X+.+.+.2X| J W W W W U W W W W W W W W W W W W W W W W W W W W W W U W U U U U U U U U U Y D a l x k p p p u u y q HXKXJXJXJXJXJXJXJXJXKXmX,.l.k.k.k.k.k.k.k.k.k.k.k.k.k.k.k.k.k.k.g.k.h.g.h.h.3.N.OX_.F.).).)./.^.)./././.`./././.).'././.).).)./././.`.K.F.K.K.K.K.K.`.K.`.`.`.`.`.        ",
"          k.k.k.l.l.l.k.k.k.k.k.k.k.k.k.k.k.k.k.k.k.k.k.h.h.h.h.h.h.h.h.h.l.f.e.y.y.y.y.y.y.y.y.t.e.t.t.t.t.t.t.t.t.t.t.e.t.t.e.e.0.e.0.0.0.e.%.&XsX4X5X4X4X4X4X4X>X>XiXo.l c c n c c c c n n n c c n c c c c c c c c c c c c c c c x x x x x x x x x x x x x x x x x x x x x x x x x x x x l x x x x l l l l l l l l l l l l l l l l l l l l l l l k y ' KXKXJXJXJXJXJXJXJXJXJXJXJXJXJXJXKXJXKXKXJXKXKXKXKXKXJXKXKXJXJXJXJXKXJXJXKXJXJXKXJXJXKXJXJXJXJXJXJXKXKXKXKXJXKXJXJXKXKXJXJXJXJXJXKXKXJXKXJXJXJXJXJXJXJXJXJXJXJXKXKXKXKXKXKXKXKXJXJXKXJXKXKXKXJXJXJXJXJXJXJXJXJXJXKXKXKXJXJXJXJXJXJXKXKXJXKXJXJXKXKXKXKXKXKXKXKXKXKXKXKXKXKXKXKXKXKXKXKXKXKXKXKXKXKXKXKXKXKXKXKXKXKXKXKXKXKXKXKXKXKXKXKXKXJXJXKXJX<XX.+.O.+.+.+.+.+.<X<X+.+.<X<X<X<X<X<X<X<X<X<X<X<X<X<X<X<X<X+.<X<XY P W W W W U U W W W W W W W W U W W W W W Q W W W W W U U W U U U U U U U U P R B a x l a p p p u p 5 ` KXKXJXJXJXJXJXJXJXJXKX#Xw.l.k.k.k.k.k.k.k.k.k.k.k.k.k.k.k.k.k.h.h.k.k.h.h.2.c.OX XF.).).).).).).).'././././.`./.'.).).)./.)./.).'.I.K.K.K.K.K.K.K.K.`././.`.`.`.`.        ",
"          l.k.k.l.l.l.k.k.k.k.k.k.k.k.k.k.k.l.l.k.k.k.k.h.h.h.h.h.h.h.h.h.k.g.r.y.y.y.y.y.y.y.i.t.e.t.t.t.t.t.t.t.t.t.t.e.t.t.e.e.e.e.e.0.0.e.&.-.NX7X4X4X4X4X4X4X>X>X1X8XM x n c c c c c c c n c n n n c c c c c c c c c c c c c c c x x x x x x x x x x x x x x x x x x x x x x x x x x x x l x x x l l l l l l l l l l l l l l l l l l x l l l l k y ' KXKXJXJXJXJXJXJXJXJXJXJXJXJXJXJXKXJXKXKXJXKXKXKXJXJXJXKXJXJXJXJXJXKXKXKXKXJXJXKXKXKXKXJXJXJXJXJXJXKXKXKXJXJXJXJXJXJXKXKXKXJXKXKXJXJXJXJXKXKXKXJXJXJXJXJXJXJXJXJXJXKXKXJXKXKXKXKXJXJXJXKXKXJXJXJXJXJXJXJXJXJXJXJXKXKXKXJXJXJXJXJXJXKXKXKXKXJXJXKXKXKXKXKXKXKXKXKXKXKXKXKXKXKXKXKXKXJXKXKXKXKXKXKXKXKXKXKXKXKXKXKXKXKXKXKXKXKXKXKXKXKXKXKXKXKXKXJX<XO.+.O.+.+.+.+.<X<X<X<X<X<X<X<X<X<X<X<X<X<X<X<X<X<X<X+.+.<X+.2X} H Y Y Y W W U W W W W W W W W W W W W W W W W W W W W U U U U W U U U U U W U P K n k l l a p p p p u w gXKXJXJXJXJXJXJXJXJXKXLX5.j.k.k.k.k.k.k.k.k.k.k.k.k.k.k.k.k.k.k.g.h.k.k.k.3.c.OX|.F.).).).).).).).'.'././.).)././.).).)./.'.'.K.`.K.`.K.K.K.I.K.`.`.I./././.K.'.).`.        ",
"          l.k.k.k.l.k.l.k.k.k.k.k.k.k.k.k.k.k.k.k.k.k.k.h.h.h.h.h.h.h.h.h.k.h.r.y.y.y.y.y.y.y.y.y.e.t.t.t.t.t.t.t.t.t.t.e.t.e.e.e.e.e.e.0.0.q.9.o qXpX>X>X7X7X4X4X4X>X,XiXE l c c c c c c c c c c c n n c c c c c c c c c c c c c c c x x x x x x x x x x x x x x x x x x x x x x x x x x x x x x x l l l l l l l l l x l l l l l l l l l l l l l k k y ' KXKXJXJXJXJXJXJXJXJXJXJXJXJXJXJXKXJXJXKXJXJXKXKXKXJXJXJXJXJXJXJXJXJXKXKXKXKXKXJXJXJXJXJXKXKXKXJXJXJXJXKXJXJXKXJXJXKXKXKXKXKXKXJXJXJXJXJXJXKXJXJXJXJXJXJXKXKXKXJXJXJXKXKXKXJXJXJXJXJXJXJXJXJXJXJXJXJXJXJXJXKXKXJXKXJXJXJXKXKXKXJXJXJXKXKXKXKXKXKXKXKXKXKXKXKXKXKXKXKXKXKXKXKXKXKXKXKXKXKXJXJXKXKXKXKXKXKXKXKXKXKXKXKXKXKXKXKXKXKXKXKXKXKXKXKXKXGX<XO.+.O.+.+.+.+.<X<X<X<X<X<X<X<X<X<X<X<X<X<X<X<X<X<X<X+.+.+.<X<XW P Y Y Y U U Y U W W W W W W W W W W U W U U W W W W W W U U U W W U U U U U P Y J l k l k a p p p p w b JXKXJXJXJXJXJXJXJXJXKXkX,.l.k.k.k.k.k.k.k.k.k.k.k.k.k.k.k.k.k.g.g.g.k.h.3.c.OX XF.'.).).).).).).)././././.).).^./././././.'.].].K.`.[.K.K.K.'.`.`.`.'.'.).`.K.].`.K.        ",
"          k.k.k.k.k.k.l.k.k.k.k.k.k.k.k.k.k.k.k.k.k.k.k.k.h.h.h.h.h.h.h.h.h.k.r.y.y.y.y.y.y.y.y.y.e.t.t.t.t.t.t.t.t.t.t.e.t.t.e.e.e.0.e.e.0.0.t.%.$XBX1X>X1X0X7X4X4X>X>X8X@.x x c c c n c c c c c c c c n c c c c c c c c c c c c c c x x x x x x x x x x x x x x x x x x x x x x x x x x x l l x x l l l l l l l x l l l l l l l l l l l l l l l k k i ' KXKXJXJXJXJXJXJXJXJXJXJXJXJXJXJXJXJXJXJXKXJXKXKXKXJXJXKXJXJXJXJXKXJXJXKXKXKXKXJXJXJXJXJXJXKXKXJXJXKXKXJXJXJXKXJXJXKXKXKXKXKXKXJXKXJXKXJXJXJXJXJXJXJXKXJXJXJXJXJXJXJXJXJXJXJXJXJXJXJXJXJXJXJXJXJXJXJXJXKXKXKXKXJXKXJXJXKXKXJXJXJXJXJXKXKXKXKXKXKXJXJXJXJXJXJXJXJXKXKXKXJXKXKXKXKXKXKXKXKXJXJXKXKXKXKXKXKXKXKXKXKXKXKXKXKXKXKXKXKXKXKXKXKXKXKXKXGXO.O.+.O.+.+.+.+.+.<X<X<X<X<X<X<X<X<X<X<X<X<X<X<X<X<X<X+.+.+.2X| J W Q W W W Y Y W W W W U U U W W W W W W U W W W W W W U U W W W U U U U U P P R F k k k k a p p p u 5 :XKXJXJXJXJXJXJXJXJXKXKXn.0.l.k.k.k.k.k.k.k.k.k.k.k.k.k.k.k.g.k.h.h.g.k.3.c.OX XJ.).).).).).).).).'.'./././././././.`.`.`.'.I.[.`.`.`.[.[.`.`.`.`.`.`.`././.`.K.[.`.`.        ",
"          k.k.k.l.k.k.k.k.k.k.k.k.k.k.k.k.k.k.k.l.k.k.k.k.k.h.h.h.h.h.h.h.h.l.s.y.y.y.y.y.y.y.y.y.t.e.t.t.y.t.t.t.t.t.t.t.t.t.e.e.e.e.e.e.0.0.t.>.O BX8X>X4X7X4X4X4X1X>X3X9XA k c c n n c n c c c c c c c c c c c c c n c c c c c c c c x x x x x x x x x x x x x x x x x x x x x x x x x x x x x x x l x l l l l x l l l l l l l l l l l l l l l k k u ' KXKXJXJXJXJXJXJXJXJXJXJXJXJXJXJXKXJXJXJXKXJXKXKXJXKXKXKXKXKXKXJXKXJXJXJXJXKXJXJXJXKXKXKXKXKXKXJXJXJXKXJXJXJXJXJXJXJXJXJXKXKXJXJXKXJXKXKXKXJXJXJXJXKXKXJXJXJXJXJXJXJXJXJXJXJXJXJXJXJXJXJXJXJXJXJXJXJXJXJXKXKXKXJXJXKXKXJXKXJXKXJXJXJXJXJXJXKXJXKXKXJXKXJXJXJXJXKXKXKXKXKXKXKXKXKXKXKXKXKXKXKXKXKXKXKXKXKXKXKXKXKXKXKXKXKXKXKXKXKXKXKXKXKXKXKXKXGX+.O.+.O.+.+.+.+.<X<X<X<X<X<X<X<X<X<X<X<X<X<X<X<X<X<X<X<X+.2X+.I I W W W W W Q W W W W W W U W W W W W W W U W W Q Q W W W W W W W W U U U U U P L D a k k k a p p p q s JXKXJXJXJXJXJXJXJXJXKXPX3.h.l.k.k.k.k.k.k.k.k.k.k.k.k.k.k.k.g.k.g.k.g.3.B.OX_.^.).).).).).)././.'.`.`./././././././.`.`.[.K.].[.K.`.`.[.[.`.`.`.`.`.`.`.`.`.`.`.`.`.'.        ",
"          l.l.l.l.k.k.k.l.k.k.k.k.k.k.k.k.k.k.k.k.k.k.k.k.k.h.h.h.h.h.h.h.h.l.s.t.y.y.y.y.y.y.y.y.t.e.t.t.t.t.t.t.t.t.t.t.e.e.e.e.e.e.e.e.0.0.e.w.%.=XpX,X7X0X4X4X4X4X>X,X9Xo.l c c n n n n c c c c c c c c c c c n n c n c c c c c c c x x x x x x x x x x x x x x x x x x x x x x x x x x x x x x x x x l l x l l l l l l l l l l l l l l l l l l k u ` KXKXJXKXJXJXJXJXJXJXJXJXJXJXJXJXKXKXKXKXKXKXKXJXKXKXKXKXKXKXKXJXJXKXJXJXJXJXJXJXKXKXKXJXKXKXKXJXJXJXJXJXJXKXKXJXJXJXJXJXKXJXKXKXKXKXKXKXKXJXJXJXJXKXKXKXKXKXKXKXKXKXJXJXJXJXJXJXJXJXJXJXJXJXJXJXJXJXKXJXKXKXKXJXJXJXKXJXKXJXKXKXJXJXKXJXJXJXJXJXKXKXKXJXJXJXJXJXJXKXKXKXKXKXKXKXKXKXKXKXKXKXKXKXKXKXKXKXKXKXKXKXKXKXKXKXKXKXKXKXKXKXKXKXKXKXKXGX+.O.+.O.O.+.+.+.<X<X<X<X<X<X<X<X<X<X<X<X<X<X<X<X<X<X<X<X<X2X| K Y W W W W Q Q Q W W W W W W W W W W W W W W W W Q Q W W W W U U U W U U U U U U L M a k k a a a p p 5 ' KXJXJXJXJXJXJXJXJXJXKXkX3.v.k.k.k.k.k.k.k.k.k.k.k.k.k.k.k.k.g.g.g.h.3.c.OX XG.).).'.'.).).).'.).).`.`././.`.`.'.`./.`.[.[.[.[.].K.K.[.[.`.`.`.`.`.`.`.`.`.`.`.`.`.'.K.        ",
"          l.k.k.k.k.k.x.k.k.k.k.k.l.k.k.k.k.k.k.k.k.k.k.k.k.h.h.h.h.h.h.h.k.k.g.t.y.y.y.y.y.y.y.y.y.t.t.t.t.t.t.t.t.t.t.t.e.e.e.e.e.e.e.e.0.e.2.0.&.8.NX1X7X0X4X7X4X4X4X>X1X8XC l c c n c n n c c c c c c n n c c c c c c c c c c c c c x x x c c x c x x x x x x x x x x x x x x x x x x x x x x x x x x l l x l l x l l l l l l l l l l l l l l l l i ` KXKXJXKXJXJXJXJXJXJXJXJXJXJXJXJXKXKXKXKXJXKXKXKXJXKXKXKXKXKXJXJXJXKXKXKXJXKXJXJXJXKXKXKXJXJXKXKXKXJXJXKXKXKXJXJXJXJXJXJXKXKXKXJXJXJXKXKXKXKXJXJXJXJXJXKXKXKXKXJXJXJXJXJXKXKXJXJXJXKXKXJXJXJXJXJXKXJXKXKXJXKXJXJXJXKXJXKXKXJXJXJXJXJXKXKXKXKXKXJXJXJXKXJXKXJXJXJXKXKXKXKXKXKXKXKXKXKXKXKXKXKXKXKXKXKXKXKXKXKXKXKXKXKXKXKXKXKXKXKXKXKXKXKXJXKXKXFX+.X.O.O.+.+.+.+.<X<X<X<X<X<X<X<X<X<X<X<X<X<X<X<X<X<X<X<X2XO.I Y W W Y U W W W Q W W W U U W W U W W W W W W Q W W W W U U U W W U U W U U U P I L l a k k a a a a u t AXKXGXJXJXJXJXJXJXJXKXKXb.j.l.k.k.k.k.k.k.k.k.k.k.k.k.k.k.k.k.k.k.h.3.c.OX X^.).'.).).).).)./.).).).'.'./.`.`././.`.`./.`.`.`.`.`.'.`.[.[.`./.`.[.`.`.`.`.`.[.`.`.'.K.`.        ",
"          k.k.k.k.k.k.k.x.l.k.k.l.k.k.k.k.k.k.k.k.k.k.k.k.k.h.h.h.h.h.h.h.k.k.h.r.y.y.y.y.y.y.y.y.y.t.e.t.t.t.t.t.t.t.t.t.t.t.e.e.e.e.e.0.0.e.2.e.9.=.gX9X4X4X5X7X4X4X4X>X>XiX[ l c n n n n n c c c n c c n c n c c c n c c c c c c c c c c x x x x x c x x x x x x x x x x x x x x x x x x x x x x x x l x x x x x x l x x l l l l l l l l l l l l l i ` KXKXJXJXJXJXJXJXJXJXJXJXJXJXKXJXKXJXJXKXJXJXKXKXJXJXJXKXKXJXJXKXJXKXKXJXJXKXKXJXJXKXKXJXJXKXKXJXKXKXKXKXKXKXJXKXKXKXKXJXKXKXKXJXKXJXKXKXKXKXJXKXKXKXJXKXKXJXJXJXJXKXJXJXJXJXJXJXJXKXJXJXJXJXJXKXKXKXKXKXJXJXJXJXJXKXKXJXJXJXJXJXJXKXKXKXKXKXKXJXJXJXJXKXKXJXKXJXKXKXKXJXJXKXKXKXKXKXKXKXKXKXKXKXKXKXKXKXKXKXKXKXKXKXKXKXKXKXKXKXKXKXKXKXJXKXKXFX+.X.O.O.+.+.+.<X<X<X<X<X<X<X<X<X<X<X<X<X<X<X<X<X<X<X+.<X2X| K W W Y Y U W W W W W W W U U W W W W W W W Q W W W W W U U U W W W W U U U U P P R F a k k k a a a a w _ KXJXJXJXJXJXJXJXJXJXKXUX,.v.k.k.l.k.k.k.k.k.k.k.k.k.k.k.k.k.h.k.k.3.c.OX X).).).).).).).).).).).).`.'.`.`./.`.`.`.`.`.K.`.`.`.`.`.`.`.[.[.`./.`.[.`.`.`.`.`.K.K.K.`.K.K.        ",
"          k.k.k.k.k.k.k.k.k.k.k.k.k.k.k.k.k.k.k.k.k.k.k.k.k.h.h.h.k.h.h.h.k.h.k.y.e.y.y.y.y.y.y.y.y.y.e.t.t.t.t.t.t.t.t.t.t.t.t.e.e.e.e.0.0.0.2.0.t.*.&XsX>X7X5X7X4X4X4X>X,X7X<XM x n c n n n n n n c c c c c c c c c c c c c c c c c c x c x x x x x c x x x x x x x x x x x x x x x x x x l x x l x x x l l x l x x x x x l l l l l l l l l l l l l u Z KXKXJXJXJXJXJXJXJXJXJXJXJXJXKXJXKXKXJXKXKXKXJXJXKXJXJXKXJXJXJXJXKXKXKXKXJXKXKXJXJXJXJXJXJXKXKXJXJXKXKXKXKXKXKXKXKXKXKXKXKXJXKXKXKXJXJXKXKXKXKXJXKXJXJXKXJXKXJXJXJXJXKXKXKXJXJXJXJXJXJXJXJXJXJXJXKXKXKXJXJXJXJXJXKXKXKXJXJXKXKXKXKXKXKXJXJXKXKXKXJXJXJXKXKXKXKXKXJXJXJXJXJXJXJXKXKXKXKXKXKXKXKXKXKXKXKXKXKXKXKXKXKXKXKXKXKXKXKXKXKXKXKXJXJXJXKXZXO.O.+.+.+.+.+.<X<X<X<X<X<X<X<X<X<X<X<X<X<X<X<X<X<X+.+.8XX.P Y W W W Y Y W W W Q W W W U U W W W W W Q Q Q W W Q W W U U U W W U U U U U U P P L B p k k k a a a a q yXKXGXJXJXJXJXJXJXJXJXKXn.q.k.k.k.k.k.k.k.k.k.k.k.k.k.k.k.k.k.x.k.,.c.OX XF.'.).).).).).).).).'.'.'./.`.].`./.'.].[.[.P.K.K.L.L.K.[.[.K.[.[.K.`.'.'.K.[.[.[.`.K.K.K.`.K.K.        ",
"          l.l.l.l.l.k.k.k.l.k.k.k.k.k.k.k.k.k.k.l.k.k.k.k.k.k.h.h.h.h.h.h.k.h.k.s.e.y.y.y.y.y.y.y.y.y.t.t.t.t.t.t.t.t.t.y.t.t.e.e.e.e.e.0.0.0.0.0.q.<.-.dXiX4X7X4X7X7X4X>X>X,XiX[ l n n n c c n n n c c c c n n n c c c c c c c c c c c x x x x x x x x x x x x x x x x x x x x x x x x x x l l l l x x x l l l x x x x l l l l l l l l l l l l l l l p b GXKXKXJXKXJXJXJXJXJXJXJXJXJXKXKXKXJXJXJXJXKXKXKXJXJXJXKXKXJXKXJXKXKXKXKXJXKXKXJXKXKXJXJXKXKXJXJXKXKXKXKXKXKXKXKXKXKXKXJXJXKXKXJXJXJXKXKXKXKXKXKXJXKXKXKXKXKXKXJXJXJXKXKXKXKXKXJXJXKXKXKXKXKXKXJXKXJXKXKXKXJXKXJXKXKXKXJXKXJXJXKXJXKXKXJXJXKXKXJXJXJXJXKXKXKXKXKXJXJXJXJXJXJXJXKXKXKXKXKXKXKXKXKXKXKXKXKXKXKXKXKXKXKXKXKXKXKXKXKXKXKXKXJXKXJXKXBXX.+.+.+.+.+.+.+.<X<X<X<X<X<X<X<X2X<X<X<X2X<X<X<X<X+.<X2X! K Y Y W W W W W U U W U U U U U W W W W W W W W W W W W W W W W U U U U U U U U P I L c p k k k a a k q Z KXJXJXJXJXJXJXJXJXJXKXIX3.l.k.k.k.l.k.k.k.k.k.k.k.k.k.k.k.k.k.l.3.c.XX XJ.).).).).).).).'.'.'.'.'.'.'.].].`.`.`.'.].K.L.[.L.L.L.K.[.[.K.[.[.L.[.`.[.[.`.'.`.`.[.P.`.`.K.`.        ",
"          l.l.l.l.l.k.k.k.l.k.k.k.k.k.k.k.k.k.k.k.k.k.k.k.k.h.h.k.h.h.h.h.k.h.k.d.e.y.y.y.y.y.y.y.y.y.t.t.t.y.y.t.y.t.t.t.t.t.e.e.e.e.e.0.0.e.0.0.0.q.%.%XsX4X4X5X0X4X4X>X>X,X0X3Xn x n c c c c c c n n n n n c n c c c c c c c c c c c c x x x x x x c x x x x x x x x x x x x x x x x x l l l x l x l x l l x x x x x l l l l l l l l l l l l l l l a s VXKXJXJXJXJXJXJXJXJXJXJXJXJXKXJXKXKXKXKXJXKXJXKXKXKXJXJXKXKXKXKXKXJXKXKXJXJXJXJXKXKXKXJXKXJXJXJXKXKXJXKXJXKXKXKXKXJXKXKXJXJXJXKXKXJXKXKXJXJXJXKXKXJXKXKXKXKXKXJXJXJXJXKXKXKXKXKXKXKXJXKXKXKXKXKXJXJXKXKXJXJXKXKXJXKXKXKXKXJXJXJXJXKXKXJXJXJXKXKXJXJXKXKXJXJXJXKXKXJXJXJXJXJXJXKXKXKXKXKXKXKXKXKXKXKXKXKXKXKXKXKXKXKXKXKXKXKXKXKXKXKXKXKXKXKXKXsXX.+.+.+.+.<X+.+.<X<X<X<X<X<X<X2X2X<X2X<X<X<X<X<X<X+.8X} K Y W W W Y W W U W Y U U U U U W W W W W W W W W W Q W W U W W W U U U U U U U U P R H a a k k k k a p q eXKXGXJXJXJXJXJXJXJXJXKX#Xw.l.k.k.k.k.k.k.k.k.k.k.k.k.k.k.k.k.k.2.c.oX|.^.).).).).).).).).).'.'.'.'.].].].P.K.K.P.P.L.L.].[.K.[.K.K.[.[.[.K.[.[.[.K.K.[.K.[.[.].].].].].K.I.        ",
"          z.l.l.k.l.k.k.k.l.k.k.k.k.k.k.k.k.k.k.k.k.k.k.k.k.k.k.k.h.h.h.h.h.h.k.g.e.y.y.s.y.y.y.y.y.y.y.t.t.t.y.t.t.t.t.t.t.t.e.e.e.e.e.e.0.0.0.0.0.e.;.-.NX8X4X5X4X4X4X4X,X>X>XiXE l n c c c c c n n n n n c c n n c c c c c c c c c c c x x x x x x c x x x x x x x x x x x x x x x x x l l l x l x l l l l x x l l x l l l l l l l l l l l l l l l k t ;XKXJXJXJXJXJXJXJXJXJXJXJXJXKXJXJXJXKXKXJXKXJXJXKXJXJXJXJXKXKXKXKXJXKXKXJXKXJXJXKXJXKXJXKXJXJXJXKXJXJXKXKXKXKXJXKXJXJXKXKXJXJXKXKXKXKXJXKXKXKXJXKXJXKXJXKXKXKXKXJXKXKXJXKXJXJXKXKXJXJXKXKXKXKXKXKXKXKXKXJXJXKXKXJXKXKXKXKXKXJXJXKXKXKXJXJXJXKXKXKXJXJXKXJXJXKXKXKXJXJXJXJXJXJXKXKXKXKXJXJXJXKXKXKXKXKXKXKXKXKXKXKXKXKXKXKXKXKXKXKXKXKXKXKXKXKX9XX.<X<X+.<X<X<X<X<X<X<X<X2X<X<X<X<X2X<X<X<X<X<X<X+.2X+.I I W Y W W Y Y U U W W W W W W W W W W W W W W W Q Q Q W W U U W W U U U U U U U P U L D p k k k k k k q Z KXJXJXGXJXJXJXJXJXJXKXPX3.j.k.k.l.k.k.k.k.k.k.k.k.k.k.k.k.k.k.3.c.XX|.J.).'.'.).).).).).).).`.`.`.[.].].U.P.P.L.P.K.L.[.U.U.L.L.L.L.L.L.K.[.[.[.[.[.[.[.K.K.K.].].].].].[.P.        ",
"          z.l.k.k.k.l.l.l.l.k.k.k.k.k.k.k.k.k.k.k.k.k.l.k.k.k.h.h.k.h.h.h.h.h.h.k.r.e.y.s.y.y.y.y.y.y.y.t.t.t.y.t.t.t.t.t.t.t.t.e.e.e.e.e.0.0.0.0.0.0.q.%.qXsX4X4X5X7X7X4X4X>X,XiX@.c c n n c n n n n n c c c c n n c c c c c c c c c c c x x x x x x x x x x x x x x x x x x x x x x x x x x l l l x x l l l l x l l l l x l l l l l l l l l l l l l l u A KXKXJXJXJXJXJXJXJXJXJXJXKXKXKXJXJXKXKXKXJXKXKXKXKXKXKXJXJXJXKXKXKXKXKXKXJXJXJXKXKXKXJXKXKXKXKXKXJXKXJXJXKXKXJXJXKXJXKXKXKXKXJXJXKXKXJXKXKXKXKXKXKXJXKXJXJXJXJXKXKXKXKXKXKXJXJXKXKXKXKXKXKXJXJXJXJXKXJXJXJXKXKXKXJXJXKXKXJXJXJXJXKXKXJXJXJXJXKXKXJXKXKXJXKXKXJXJXJXJXJXJXKXKXKXKXKXJXJXKXKXJXKXKXKXKXKXKXKXKXKXKXKXKXKXKXKXKXKXKXKXKXKXJXKXGX+.O.<X<X<X<X<X<X<X<X2X<X<X<X<X<X<X<X<X<X<X<X<X<X<X<X8X( H Y Y Y Y Y Y Y Y Y Y Y W Y W W W W W Q W W W W Q Q Q W Q W W U W W U U U U U U U P U L V p k k k k a p t eXKXGXJXJXJXJXJXJXJXJXKX$X,.z.k.l.k.l.k.k.k.k.k.k.k.k.k.k.k.k.3.c.OX|.^.).'.).).).).).).).)./.`.'.].K.K.U.P.K.U.U.L.L.L.L.U.P.[.L.L.[.[.L.K.[.[.K.L.[.K.[.[.[.[.[.`.`.'.'.].].        ",
"          z.l.k.l.k.l.l.l.l.l.k.k.k.k.k.k.k.k.k.k.k.k.k.k.l.k.k.h.h.h.h.h.h.h.h.k.s.e.y.y.y.y.y.y.y.y.i.y.t.t.y.t.t.t.t.t.t.t.t.e.e.e.e.e.e.e.0.0.0.0.t.*.8.BX7X4X7X7X4X4X4X>X>X>XiXE l n n n n n c c c c c c c n n c c c c c c c c c c c x x x x x x x x x x x x x x x x x x x x x x x x x x x l l l x x l l l l l l l l x l l l l l l l l l l l k k l a a VXKXJXJXJXJXJXJXJXJXJXJXJXKXKXJXKXKXKXKXJXKXKXKXJXJXKXKXJXJXKXKXKXKXKXKXJXJXJXKXKXKXJXJXKXKXKXKXJXJXKXJXJXKXKXJXKXKXKXKXKXKXJXJXJXKXKXJXKXKXKXJXKXKXKXKXJXJXJXJXKXKXJXKXKXJXJXJXKXKXJXJXJXJXKXJXJXKXJXJXJXKXKXKXJXJXKXKXJXJXJXJXKXKXJXJXJXKXKXKXJXJXJXJXKXJXJXJXKXKXJXKXKXKXKXKXKXKXJXKXKXJXKXKXKXKXKXKXKXKXKXKXKXKXKXKXKXKXKXKXJXJXJXKXKXdX..<X<X<X<X<X<X<X<X2X2X2X<X<X<X<X<X<X<X<X<X<X<X<X+.8Xo.H I W Y Y Y Y W Y Y Y Y Y Y Y W W Q Q W W W W W Q Q Q Q W W W W U W W U U U U U U U U I K l a k k a k k w Z KXJXGXJXJXJXJXJXJXJXKXJX6.i.l.k.k.k.k.k.k.k.k.k.k.k.k.k.k.k.2.c.oX|.F.'.).).).).^./.).).)./.`.`.K.P.P.P.U.U.U.L.U.U.L.L.U.P.K.K.L.K.K.K.[.K.K.L.L.L.[.K.K.].[.`.[.[.'.'.'.].].        ",
"          l.l.k.l.l.l.l.k.k.l.l.k.k.k.k.k.k.k.k.k.k.k.k.k.k.l.k.h.h.h.h.h.k.k.h.k.g.r.y.y.y.y.y.y.i.y.y.y.t.t.t.t.t.t.t.t.t.t.t.t.e.e.e.e.e.0.0.0.0.0.0.,.o gXpX4X4X4X4X4X4X4X>X>X0X@.x x n n n n c c c c c n n c c c n c c c c c c c c c x x x x x x x x x x x x x x x x x x x x x x x x x x x x x x x l l l l l l l l x l l l l l l l l l l l l k k k z i  .KXJXJXJXJXJXJXJXJXJXJXJXJXJXKXKXKXJXJXJXKXJXJXKXJXKXJXJXJXKXKXJXJXKXKXKXJXJXKXKXKXJXKXKXKXKXKXKXJXKXKXJXJXKXKXKXKXJXKXKXKXJXJXJXKXKXKXJXKXKXKXKXKXJXKXKXKXJXJXKXKXJXJXKXJXKXKXJXKXJXKXKXJXKXJXKXKXJXJXJXKXKXKXKXJXKXJXJXJXJXJXKXKXKXKXKXKXJXKXJXJXJXJXKXJXKXKXKXKXJXKXKXKXJXJXKXKXJXKXKXJXKXKXKXKXKXKXKXKXKXKXKXKXKXKXKXKXKXKXKXJXJXKXKX+.X.<X<X+.+.<X<X<X<X2X2X2X<X<X<X<X<X<X<X<X<X+.<X<X2X<XY K U Y Y Y Y Y W W Y Y W Y Y W W W Q W W W Q Q Q Q Q Q Q W U U W W W U U U U U U U P P R F p k k k a a a q gXKXGXJXJXJXJXJXJXJXJXKXkX,.l.k.k.k.k.k.k.k.k.k.k.k.k.k.k.k.2.c.XX|././.).).).)././.)./.).).'.`.K.P.U.U.U.U.U.U.L.U.U.K.P.P.K.K.K.L.U.U.U.U.L.L.L.L.L.U.P.P.].P.[.[.'.'.].].].].        ",
"          l.l.k.z.l.l.l.l.k.l.l.k.k.k.k.k.k.k.k.k.k.k.k.k.k.l.k.h.k.h.h.k.k.k.h.k.g.r.y.y.y.y.y.i.i.y.y.y.t.t.t.t.t.t.t.t.t.t.t.t.t.t.e.e.e.0.0.0.0.2.2.e.%.$XNX7X4X4X4X4X4X4X>X>X>X9XE k n n n n c c c c c n n c c c c c c c c c c c c c x x x x x x x x x x x x x x x x x x x x x x x x x x x x l l l l l l l l l l l l l l l l l l l l l l l l k k k k p b GXKXJXJXKXJXJXJXJXJXJXJXJXJXKXKXKXKXJXJXJXJXKXKXJXKXJXJXJXKXKXJXJXKXKXJXJXJXJXKXKXJXJXKXKXJXKXKXJXJXKXKXKXKXKXKXJXJXJXKXJXJXKXJXKXKXKXJXJXKXKXKXKXJXKXKXKXKXKXKXKXJXJXJXKXKXKXJXJXKXKXJXJXKXJXKXKXKXJXKXKXKXKXJXJXKXKXJXJXJXJXKXJXKXKXKXKXJXJXJXJXJXJXJXJXJXJXKXKXJXKXKXKXJXJXKXJXJXKXKXJXKXKXKXKXKXKXKXKXKXKXKXKXKXKXKXKXJXKXJXJXKXKXNXX.+.+.<X<X<X<X<X<X<X<X2X2X<X<X<X<X<X<X<X<X<X+.<X<X8X| K Y Y W Y Y Y U W W W U W Y Y W Q W W W W W Q Q Q Q Q Q W W W W W U U U U U U U U U P U R m u k k a k k w Z KXJXJXJXJXJXJXJXJXJXKXJX6.y.k.k.k.k.k.k.k.k.k.k.k.k.k.k.k.2.c.XX|.F.).).).'.`.)././.).'.`.'.].K.K.U.U.U.U.U.U.U.U.U.U.K.P.P.U.L.L.L.L.L.L.L.L.L.L.L.L.U.P.P.P.P.].P.'.'.].].'.'.        ",
"          l.z.l.z.l.k.l.l.l.k.k.k.k.k.k.k.k.l.l.k.k.k.k.k.k.l.k.k.k.k.k.k.k.k.h.k.k.y.e.y.i.s.s.s.y.y.y.y.y.e.t.t.t.t.t.t.t.t.t.t.t.t.e.e.e.e.0.0.0.0.0.e.<.=.fX9X4X4X4X7X4X4X4X>X>X7Xo.c x n c n n c c c c n n c c c c c c c c c c c c x x x x x x x x x x x x x x x x x x x x x x x x x x x x x l l l x x l l l l l l l l l l l l l l l l l l l l l l l k t [ KXKXJXKXJXJXJXJXJXJXJXJXJXKXKXKXKXKXKXJXKXKXKXKXKXJXJXJXJXJXJXJXJXJXJXJXJXJXJXJXKXKXKXKXKXKXKXJXJXJXKXKXKXKXJXKXJXJXJXJXKXKXKXKXJXJXKXKXKXKXJXJXJXJXJXJXJXJXJXKXKXKXJXJXKXKXJXJXKXKXJXJXKXKXKXJXKXKXKXKXKXKXKXKXJXJXJXJXJXJXJXJXJXJXJXKXJXJXKXKXKXJXJXKXJXJXJXJXJXJXKXKXJXJXJXJXJXKXKXKXKXKXKXKXKXKXKXKXKXKXKXKXKXJXJXKXKXJXJXJXKXKX<XX.<X+.<X+.+.<X<X<X<X<X<X<X<X<X<X<X<X<X<X<X<X<X+.8XO.K Y W Y Y W Y Y Y W W Y Y W W Y W Q Q W W W W Q Q Q Q Q Q W W W W U U U U U U U U U U P Y L l p a k a k p q gXKXGXJXJXJXJXJXJXJXJXKXUX,.z.k.k.k.k.k.k.k.k.k.k.k.k.x.k.2.c.XX|.^.^.).).`.`././.)./.`.].].K.L.L.L.U.U.U.U.U.L.U.U.U.L.K.U.U.K.L.L.K.L.L.L.K.L.L.L.L.L.L.U.P.P.].].P.].'.].'.I.'.        ",
"          z.z.z.z.z.l.l.l.l.l.k.l.k.k.k.k.k.k.k.k.k.k.k.k.l.k.k.k.k.k.k.k.k.k.h.h.l.s.e.y.y.y.s.s.y.y.y.y.y.t.t.t.t.y.y.t.t.t.t.t.t.t.e.e.e.e.0.0.0.2.0.0.e.%.m.sX>X4X4X7X4X4X4X>X>X,X9XE l c n n n c c c c n n c c c c c c c c c c c c x x x x x x x x x x x x x x x x x x x x x x x x x x x x x l x x x l l l l l l l l l l l l l l l l l l l l l l l k l k s VXKXJXKXJXJXJXJXJXJXJXJXJXKXKXKXKXKXJXJXKXKXKXKXJXJXJXKXJXJXJXKXJXJXJXJXJXJXJXJXJXJXKXKXKXKXKXJXJXKXJXJXKXKXJXKXJXJXJXJXKXKXKXJXJXJXKXKXJXJXJXJXJXJXJXJXJXJXJXKXKXJXKXJXKXKXKXJXJXJXJXJXJXJXJXJXKXKXKXJXKXKXKXJXJXJXJXJXJXJXJXJXJXJXKXKXKXJXKXKXKXKXKXJXKXKXJXJXJXJXKXKXJXJXJXJXKXKXKXKXKXKXKXKXKXKXKXKXKXKXKXKXKXKXKXKXKXJXKXKXKXpX{ +.+.+.+.+.<X<X<X<X<X<X<X<X<X<X<X<X<X<X<X<X<X<X2X2XW J Y Y Y Y Y Y U W W W W Y W W W W W W Q W W Q W Q Q Q Q Q W W U U U U U U U U U U P U P L F p a k k a k q Z KXJXJXJXJXJXJXJXJXJXJXKXn.e.z.k.k.k.k.k.k.k.k.k.k.k.x.k.2.c.OX|.J./.).)./././.)././.`.`.[.[.K.K.L.U.U.U.U.U.U.U.Y.U.L.K.K.L.U.P.P.U.K.K.L.L.K.K.L.L.L.L.L.L.L.P.K.K.P.].'.'.].I.P.        ",
"          l.l.l.z.l.l.l.k.k.l.l.l.k.k.k.k.k.k.k.l.k.k.k.k.l.k.k.k.k.k.k.k.k.k.h.h.l.h.e.y.y.s.s.s.s.y.y.y.y.y.t.t.t.t.t.t.t.t.t.t.t.t.e.e.e.e.0.0.0.0.0.2.e.,.O aX9X>X4X4X4X4X4X>X>X>X0X@.c x n n n n n c c n c c c c c c c c c c c c c c c x x x x x x x x x x x x x x x x x x x x x x x x x l l x x l l l l l l x x l x x l l l l l l l l l l l l l l l l l p b JXKXJXJXJXJXJXJXJXJXJXJXKXJXJXJXKXJXJXJXKXKXJXKXJXJXJXJXJXKXKXJXJXKXKXJXJXJXJXKXKXKXKXKXKXJXJXJXJXKXKXKXKXKXJXKXJXKXJXKXKXKXJXJXJXKXKXKXKXJXKXJXJXJXJXKXKXJXJXKXKXJXJXKXJXJXJXJXJXKXKXKXKXKXKXJXKXKXJXKXJXJXJXJXJXJXKXKXKXKXKXJXJXJXKXKXKXKXKXJXJXJXKXKXKXJXJXJXJXKXKXKXJXJXJXJXJXJXJXKXKXKXKXKXKXKXKXKXKXKXKXKXKXKXKXKXKXJXKXZX..X.<X+.+.+.<X<X<X<X<X<X<X<X<X<X<X<X<X<X<X<X<X<X2X9X( J W Y Y Y Y Y Y Y U W W Y W W W W W W W W W W Q Q Q Q Q Q Q W W U U U U U U U U U U U P P L N u k k k k p w yXKXGXGXJXJXJXJXJXJXJXKXmX,.l.k.k.k.k.k.k.k.k.k.k.k.k.l.0.c.OX XJ.).'.)./././.).).'.'.].].`.].].K.K.U.U.L.U.U.U.U.U.Y.Y.U.U.U.U.U.L.U.U.L.L.L.L.L.L.U.U.U.L.L.U.U.].[.P.].'.].].].P.        ",
"          l.l.l.z.z.l.l.k.k.l.l.l.k.k.k.k.k.k.k.k.k.k.k.k.k.k.k.k.k.k.k.k.k.k.h.h.l.k.r.y.y.s.s.s.s.y.y.y.y.y.t.t.t.t.t.t.t.t.t.t.t.t.t.e.e.e.e.0.0.0.0.0.0.t.%.m.dX>X5X4X4X4X4X4X>X>X,XsXE l n n n n n n n c c n n c c c c c c c c c c c c c x c x x x x x x x x x x x x x x x x x x x x x l l x x x x l x l l l x x x x x x l l x x l l l l l l l l l l l l l u ` KXKXJXKXJXJXJXJXJXJXJXJXJXJXKXKXJXJXJXJXJXJXJXJXJXKXJXJXJXKXKXJXKXKXJXJXJXJXKXKXKXKXJXKXJXJXJXKXKXKXKXKXJXKXKXKXJXJXJXKXKXJXJXKXKXKXJXJXKXKXJXJXJXJXKXKXJXKXKXKXJXJXJXJXJXKXJXJXKXKXKXKXJXJXKXJXKXKXJXJXKXKXJXJXJXJXKXKXJXJXJXJXJXKXKXJXJXKXJXJXJXKXKXKXJXJXJXJXKXKXKXJXJXJXJXKXJXKXKXKXKXKXJXJXJXJXJXJXJXJXJXKXKXJXJXKXKXGXO.O.<X+.+.+.+.<X<X<X2X<X<X<X<X<X<X<X<X<X<X+.<X<X+.8X} J I Y Y Y Y Y Y Y Y U W W Y W W W W W W W W W W Q Q Q Q Q W W U W U U U U U U U U U U U P I L l p k k k k q Z KXJXGXGXJXJXJXJXJXJXJXKXn.0.x.k.k.k.k.k.k.k.k.k.k.k.k.0.c.XX XF.'.)._.)././.).).).'.P.P.P.K.K.P.P.L.L.U.U.U.U.U.U.L.Y.U.U.U.Y.L.L.U.U.U.L.L.U.U.L.K.L.L.U.U.U.U.U.].'.P.].'.].].P.P.        ",
"          l.l.l.z.z.l.k.k.k.k.z.l.l.k.k.k.k.k.k.k.k.k.k.k.k.l.k.k.k.k.k.k.k.h.h.k.k.z.s.r.s.y.y.s.y.y.y.y.y.f.t.t.y.t.t.t.t.t.t.t.t.t.e.e.e.e.e.0.0.0.0.0.0.0.9.O gXiX>X4X4X4X4X4X4X>X>XiX1Xc x n c n n n n c c n n c c c c c c c c c c c c c x c c x x x x x x x x x x x x x x x x x x x x l l x x l l l l l l l l x x x x l l l x x l l x l l l l l l l l l l k y ' KXKXJXJXJXJXJXKXJXJXKXJXJXKXJXKXKXKXKXJXJXJXKXKXJXKXKXKXKXKXJXJXKXKXJXJXJXJXKXJXJXJXJXJXJXJXJXJXKXKXJXJXJXKXKXJXKXJXJXJXKXKXJXJXKXJXJXJXJXJXJXJXJXJXKXJXKXKXKXKXKXKXKXJXKXJXJXJXJXKXKXJXKXKXJXJXKXKXJXJXJXJXJXJXJXKXJXJXKXJXJXJXKXJXJXJXJXJXJXKXKXJXJXKXJXJXJXJXKXJXJXJXJXKXJXJXJXJXJXKXKXJXJXKXJXJXJXJXJXJXJXJXJXJXKXJX+.X.<X+.+.+.+.<X<X<X<X<X2X<X<X2X2X<X<X<X<X<X<X<X<X8XO.I I Y Y Q Q Y Y Y Y W W W W W W W W W W W W W Q Q Q Q W W W W U U W U U U U U U U U U U P P L F u a k k k u t VXKXGXJXJXJXJXJXJXJXJXKXnX3.l.k.k.k.k.k.k.k.k.k.k.k.k.0.c.XX|./.).).).)././.).).).).'.K.K.K.P.P.K.L.U.L.L.U.U.U.L.L.Y.U.K.L.L.L.K.K.U.U.U.P.U.U.U.K.L.L.L.U.U.U.U.U.P.'.].K.].].P.P.P.        ",
"          l.l.l.z.z.z.k.k.k.k.l.l.l.k.k.k.k.k.k.k.l.k.k.k.l.l.k.k.k.k.k.k.k.h.h.k.k.l.g.e.y.y.y.y.y.y.y.y.y.i.y.t.t.t.y.t.t.t.t.t.t.t.t.e.e.e.e.e.0.0.0.0.0.0.t.%.7.BX1X4X4X4X4X4X4X4X4X>XsX[ l c c c n n n n n n n c c c c c c c c c c c c c x x c x x x x x x x x x x x x x x x x x x x x x x l x l l x x x l l x x x x x x l x x l l l l x l l l l l l l l l l a i ' KXKXJXJXKXJXJXKXKXJXJXJXJXKXKXKXKXKXKXJXKXKXKXKXKXKXKXKXKXKXKXKXJXJXKXJXJXJXJXJXJXJXKXJXJXJXKXKXJXJXJXJXKXKXJXJXJXJXJXJXKXJXJXJXJXJXKXKXKXKXJXJXKXKXJXKXKXKXKXKXJXKXJXJXJXJXJXJXKXJXJXKXKXJXJXJXKXKXJXJXJXJXKXJXJXKXKXKXJXJXJXJXJXJXJXJXJXJXJXJXJXKXKXKXKXKXJXKXJXJXJXJXKXJXJXKXKXKXKXKXJXJXKXKXKXKXKXJXJXJXJXJXKXKX@...<X+.+.+.+.<X<X<X<X<X<X<X<X<X2X2X2X<X<X<X<X<X<X2X<X! I Y W Q Y Y Y Y Y W W W W W W W W W W W W W W Q Q Q Q Q W Y U U U U U U U U U U U U U U P P L m y a k k a w ' KXGXGXJXGXJXJXJXJXJXJXJXb.i.x.k.k.k.k.k.k.k.k.k.k.k.2.c.XX X).).).).)./.`.).).).).`.P.P.K.P.P.P.L.L.U.U.L.U.L.P.P.Y.Y.U.U.Y.Y.Y.L.L.L.K.U.K.U.U.K.K.L.U.U.P.L.L.U.P.K.[.K.P.I.].P.P.P.        ",
"          z.z.z.l.l.l.k.k.l.l.l.l.l.k.k.k.k.l.k.l.l.k.k.k.l.l.k.k.k.k.k.k.k.k.k.k.k.l.k.r.y.y.y.y.s.s.s.y.y.y.y.t.t.t.t.t.t.t.t.t.e.t.t.t.e.e.e.e.e.0.0.0.0.0.e.9.%.gXpX>X5X7X4X4X4X4X>X>X0X9XM l n c n n n n n n n c c c c c c c c c c c c c x c x c x x x x x x x x c x x x x x x x x x x x x x l x l l x x x x x x x x x l l x l l l l l x l l l l l l l l l l k k i ` JXKXKXJXKXKXKXJXJXJXJXJXJXKXJXKXJXJXKXKXKXKXKXKXJXKXJXJXJXJXJXJXKXKXKXJXJXJXJXKXKXKXJXKXKXJXJXJXJXKXKXJXKXJXJXJXJXJXJXJXKXKXKXJXJXKXKXKXKXKXKXKXKXKXKXKXKXKXKXKXKXKXJXKXKXJXJXKXKXKXKXJXJXJXJXKXJXJXJXKXKXKXKXKXKXKXJXJXJXJXKXKXKXKXKXKXKXJXJXJXKXKXKXKXKXJXJXKXKXKXKXJXKXKXKXKXKXKXKXJXKXKXKXKXJXJXKXJXJXKXKXSX| { <X+.<X<X+.<X<X<X<X<X<X<X2X2X2X2X2X<X<X<X<X<X<X<X2X) J W W W W Y Y Y W W Y Y W W Q Q Q Q Q W W W W W Q Q Q Q Q W Y U U U U U U U U U U U U U U P K L k u a k k q d JXKXGXJXJXJXJXJXJXJXJXKXkX3.z.x.x.k.k.k.k.k.k.k.k.x.3.c.XX|.^.'.).).).^./.).).).).).K.P.P.K.P.P.L.L.U.U.U.U.L.K.P.Y.Y.Y.Y.U.U.U.Y.L.L.L.K.K.U.K.U.U.K.L.U.U.U.L.U.U.U.U.K.P.P.P.P.U.P.P.        ",
"          z.z.z.l.l.l.k.x.l.l.l.l.l.k.k.k.k.k.k.k.k.k.k.k.l.k.l.k.k.k.k.k.k.h.k.k.k.k.l.s.r.y.y.y.s.s.s.y.y.y.y.y.t.t.t.t.t.t.t.t.e.e.t.t.e.e.e.e.e.e.0.0.0.0.0.t.*.8.BX2X4X4X4X4X4X>X>X4X,XpXo.l c n n n n n c n n c c c c c c c c c c c c c x x c x c c x x x x x x x x x x x x x x x x x x x x l x l l x x x l l x x x x l l x x l l l l l l l l l l l l l l l l l k t Z fXKXKXKXKXJXJXKXJXJXJXKXJXJXKXJXJXKXJXJXJXJXJXJXJXJXJXKXKXKXKXKXKXKXKXJXJXKXKXKXKXKXKXKXKXJXJXJXKXKXJXJXJXJXKXKXKXKXKXKXKXKXKXKXKXKXKXKXKXKXKXKXKXJXKXKXKXKXKXKXKXKXKXKXKXKXKXKXKXKXJXJXJXJXKXJXJXKXKXKXKXKXKXKXKXJXKXKXJXJXKXKXKXKXKXKXKXKXJXKXKXKXKXKXJXJXKXKXJXKXJXJXKXJXJXJXJXJXKXKXKXKXJXJXKXJXKXKXKX;XD | 8X<X<X<X<X+.<X<X<X<X<X<X<X<X<X<X<X<X<X<X<X<X<X<X9X| K Q W W W W Y W W W W W W W Q Q Q Q Q Q W W W W Q Q Q Q Q W W U U U U U U U U U U U U U P P P L D i a a k p q eXKXGXJXJXJXJXJXJXJXJXJXJXb.y.x.k.x.k.k.k.k.k.k.x.x.2.c.XX X^._.'.).).^./.).'.).).'.'.K.P.K.K.P.P.U.L.U.U.U.U.K.K.Y.Y.Y.Y.U.L.L.L.L.L.L.U.U.U.U.U.K.K.K.K.U.U.Y.U.L.L.U.U.U.I.'.P.U.U.P.P.        ",
"          z.z.z.l.l.z.l.x.z.l.k.l.l.l.k.l.k.k.k.k.l.k.k.k.k.k.l.k.l.k.k.k.k.h.h.k.k.k.z.s.e.y.y.s.y.s.s.y.i.y.y.i.y.t.t.t.t.t.t.t.t.e.e.e.e.e.e.e.e.e.e.0.0.0.0.4.,.o MXsX,X4X>X4X4X4X>X4X>X4XiXC l n n n n n n n n c c c c c c c c c c c c x x x x x c c x x x x x x c x x x x x x x x x x x x x l l l l x l x l l l x x x l l x l l l l l x x l l l l l l l l l l k z k i s ' AXKXKXKXJXJXJXJXJXKXKXJXJXJXJXJXJXJXJXJXJXJXKXKXKXKXJXJXJXJXKXKXKXKXJXKXKXKXKXJXKXKXKXJXJXJXJXKXJXJXJXJXKXKXJXJXJXKXKXKXKXKXKXKXKXKXKXKXKXKXJXJXKXKXKXKXKXJXKXKXJXJXJXKXKXKXKXJXJXJXKXJXJXKXKXKXJXKXKXKXKXKXJXJXKXJXJXJXJXJXKXKXJXJXJXJXKXKXKXJXKXKXJXJXJXJXKXKXJXKXKXJXJXJXJXJXJXJXKXJXJXKXKXKXKXgXf z { 8X<X<X+.+.+.<X<X<X<X<X<X<X<X<X<X<X<X<X<X<X<X<X<X9X..K Y Q W W W W W W W W W W W Q Q Q Q Q Q W W W W Q Q Q Q Q Q W U U U U U U U U U U U U U U P P P L n u a a k w Z KXJXGXJXJXJXJXJXJXJXJXKXkX3.z.x.k.x.k.k.k.k.k.k.x.4.c.XX|.F.'.).).^.).).).).'.'.'.I.P.K.K.P.K.U.U.U.U.L.U.P.L.L.L.U.U.Y.Y.Y.L.L.L.L.L.L.U.K.K.K.K.K.P.K.K.K.U.U.U.P.P.P.P.U.P.P.P.P.P.P.P.        ",
"          z.z.l.l.l.z.z.x.z.l.k.l.l.l.k.l.k.k.k.k.l.k.l.k.k.k.l.l.l.k.k.k.k.h.h.k.k.k.l.g.r.y.y.y.y.y.y.y.i.y.y.i.y.t.t.t.t.t.t.t.t.e.e.t.t.t.e.e.e.e.e.e.0.0.0.0.e.%.8.ZX<X5X4X4X5X5X4X4X>X>XiX@.x x n n n n n n n c c c c c c c c c c c c c x c x x x x x x x x x c c x x x x x x x x x x x x x l x l l x x x x x x l x x l l l l l l l l l x l l l l l l l l l l l k l k p t z  .AXKXKXKXKXKXKXKXJXKXKXKXJXJXKXKXJXKXKXKXJXKXKXKXKXJXKXKXKXJXKXKXKXJXJXKXJXJXKXKXKXKXKXKXKXKXKXKXKXKXKXKXKXKXKXKXKXKXKXKXKXKXKXKXKXKXKXKXKXKXKXKXKXKXJXJXJXJXJXKXKXJXKXJXKXKXKXKXJXKXKXKXKXKXKXKXKXKXKXKXJXJXKXKXKXKXKXKXKXKXKXJXJXJXKXKXKXKXKXKXJXJXKXKXKXKXJXKXKXJXJXKXJXKXKXKXKXKXKXKXJXeX` 7 8 o.9X+.<X+.<X<X<X<X<X<X<X<X<X<X<X<X<X<X<X<X<X<X<X<X9XO.K Y Q Y W W W W W W W W W W Q Q Q Q Q Q W W W W Q Q Q Q Q Q Q W U U U U U U U U U U U U P U P P R I a p a a u t VXKXGXGXJXJXJXJXJXJXJXJXKX5.s.x.k.x.x.k.k.k.k.x.k.2.d.XX X/.).).).).).).).).'.'.'.'.P.P.P.P.P.L.U.U.U.U.L.U.L.L.L.L.U.U.U.Y.L.L.U.U.L.L.L.U.L.U.U.P.U.U.L.L.K.P.L.U.P.P.P.P.P.P.U.P.P.P.P.P.        ",
"          z.z.l.l.z.l.l.k.k.l.l.k.k.z.l.k.k.k.k.k.k.l.l.k.k.k.k.l.l.l.k.k.k.k.k.k.k.k.k.l.y.y.y.y.y.i.i.f.y.y.y.y.i.t.t.t.t.t.t.t.t.t.t.t.t.t.t.e.e.e.e.e.0.e.0.0.e.3.o qXpX>X5X5X4X4X4X4X>X>X,XiXE k n n n n n n n n c c c c c c c c c c c c c x x x x x x x x x x x x x x x x x x x x x x x x x x l l l x x x x x l l x x x l l x x l l l l l l l l l l l l l l l l l l k l l a s z ` :XAXKXKXKXKXKXKXKXKXKXKXKXKXKXKXKXKXKXKXKXKXKXKXKXKXKXKXKXKXKXKXKXKXKXKXKXKXKXKXKXKXKXKXKXKXKXKXKXKXKXKXKXKXKXKXKXKXKXKXKXKXKXKXKXKXKXKXKXKXKXKXKXKXKXKXKXKXKXKXKXKXKXKXKXKXKXKXKXKXKXKXKXKXKXKXKXKXKXKXKXKXKXKXKXKXKXKXKXKXKXKXKXKXKXKXKXKXKXKXKXKXKXKXKXKXKXKXKXKXKXKXKXKXJXVX:X' b a w t } 9X+.+.<X<X<X<X<X<X<X<X<X<X<X<X<X<X<X<X<X<X<X<X<X2X<X! J Q Q W Y Y W W W W W W W Q Q Q Q W W W Q W W W Q Q Q Q Q Q W U U U U U U U U U U U U U U P P P L D y k a a w ` KXJXJXJXJXJXJXGXJXJXJXKXkX,.z.x.k.k.k.k.k.k.x.k.2.d.OX XF.).).).).).).).'.'.'.'.`.P.I.K.U.K.K.U.U.U.U.U.L.L.K.L.L.L.U.L.U.Y.Y.L.L.L.L.L.L.U.U.L.P.U.U.L.L.L.L.P.U.P.P.P.P.P.P.K.P.U.U.P.I.I.        ",
"          z.z.z.z.z.l.l.k.k.l.z.k.l.l.l.l.k.k.k.k.k.l.l.k.k.k.l.l.l.l.k.k.k.k.k.k.k.k.k.l.s.e.y.y.y.y.y.y.y.y.y.i.f.y.t.t.t.t.t.t.t.t.t.t.t.t.t.e.e.e.e.e.0.e.0.2.e.t.;.-.NX2X4X5X4X4X4X>X4X>X,X0X2Xn x n n c n n n n c c c c c c c c c c c c c c x x x x x x x c x x x x x x x x x x x x x x x x l x x l l l x x x x x x x l l l l x l l l l l l l l l l l l l l l l l l l l l l l a u i z Z ` `  .;X;X;X;X;X;X;X;X;X;X;X;X;X;X;X;X;X;X;X;X;X;X;X;X;X;X;X;X;X;X;X;X;X;X;X;X;X;X .;X;X;X . . .;X . . .;X;X;X;X;X;X;X;X;X;X;X;X;X;X:X:X:X;X:X;X;X;X;X;X:X;X;X:X;X;X;X;X;X;X;X;X;X;X;X;X;X;X;X;X;X;X;X;X;X .;X;X;X;X;X;X;X;X;X;X;X;X;X;X;X;X;X;X;X;X;X;X:X:X;X;X' ` Z Z s s u p u t [ 9X<X+.<X<X<X<X<X<X<X<X<X<X<X<X<X<X<X<X<X<X<X<X+.8X+.Y I ! Q W Q Y Y W W Q Q W W Q Q Q Q Q W W W Q W Q Q Q Q Q ! ! Q U U U U U U U U U U U U U U U P P K L x u z k y s GXKXGXGXJXJXJXJXJXJXGXKXPX3.g.z.x.k.k.k.k.k.x.k.0.c.XX|.^.'./.).).).).).).).'.'.'.`.I.I.P.K.K.U.U.U.L.L.U.U.K.L.L.U.L.L.L.Y.Y.Y.U.U.L.L.L.L.U.U.L.L.U.L.L.L.U.U.U.U.P.K.U.U.P.P.P.P.U.U.P.P.P.        ",
"          z.z.z.z.l.l.l.z.z.l.l.k.l.z.z.l.k.k.k.k.k.k.l.l.k.k.l.l.l.l.k.k.k.k.k.k.k.k.k.l.h.y.y.y.y.y.y.y.y.y.y.y.y.y.t.t.t.t.t.t.t.t.t.t.t.t.t.e.e.e.e.e.e.e.e.0.2.2.0.o &XdX1X4X4X4X4X4X4X>X>X>XsX#.l c c n c c n n n c c c c c c c c c c c c c c x x x c c c c c x x x x x x x x x x x x x x x x x x l x x x x x x x x x l l l l x l x l l l l l x x l l l l l l l l l l l l l l l l k a p p p u i i u u u u u u u u u u i u i u u u p u i i i i y y i u u u u u u u u u u u i u u u u u u u u u u u u i u u p u u u u u u i i u u u i u u u u u u u u u u u u u i u u u i u u u u i i y y y i u u u u u i i i i i i u i u u i i y i i i i u u u u u u u i y y u p a k k p p [ 8X+.+.<X<X<X<X<X<X<X<X<X<X<X<X<X<X<X<X<X<X<X<X<X2X2X! K W Q Q Y W W W W W Q Q Q Q Q Q Q Q Q Q Q Q Q Q W Q Q Q ! ! Q W U U U U U Y U U U U U U U Y U P P L F u a a p q eXKXGXJXGXJXJXJXJXJXJXJXKX#X3.z.x.k.k.x.k.k.k.x.0.c.XX X/.`.`.).).).).).).).).).).'.`.P.P.P.K.L.U.U.U.L.L.U.K.L.U.U.U.L.L.L.L.Y.Y.U.U.U.L.L.L.L.U.U.L.U.L.L.U.K.U.U.U.P.K.P.P.U.P.P.P.U.P.P.Y.U.        ",
"          z.z.z.z.l.z.l.z.z.z.l.k.z.z.z.z.k.k.k.k.k.k.l.l.l.l.k.l.l.l.l.k.k.k.k.k.k.l.k.k.l.y.t.y.y.y.y.y.y.y.y.y.y.y.y.e.t.t.y.t.t.t.t.t.t.t.t.e.e.e.e.e.e.e.e.0.0.2.e.<.O VXiX4X4X4X4X4X4X>X>X,X4XsXC l c c c c n n n n c c c c c c c c c c c c c c c c c c c x c c c x x x x x x x x x x x x x x x l l l l x x x x x x x l l l l x x l l l l l l l l x l l l l l l l l l l l l l l l k k l l k k l k k k k k k k k k k k k k k k k k k k k k k k k k k k k k k k k k k k k k k k k k k k k k k k k k k k k k l l k k k k k k k k k k k k k k k k k k l l k k k k k k k k k k k k k k k k k k k k k k k k k k k k k k k k k k k k k k k k k k k k k k k k k k k k z k l a t [ 9X<X+.<X<X<X<X<X<X<X<X<X<X<X<X<X<X<X<X<X<X<X<X<X2X2X) K Q Q Y Q Q W W W Q Q Q Q Q Q Q Q Q Q Q Q Q Q Q W Q Q Q Q Q Q W U U U U U Y Y U U Y U Y Y U Y P P K L M y a a q ` KXJXGXJXJXJXJXJXJXGXJXKXIX,.x.k.x.k.x.x.x.k.k.e.c.XX XF.'.`.).).).).).).).).'.'.'.P.K.P.P.K.K.U.U.U.L.L.L.L.L.U.U.U.L.L.K.K.K.Y.Y.L.L.L.L.L.L.L.L.L.U.L.L.L.U.P.U.U.P.U.L.P.P.U.P.P.U.P.P.P.P.U.        ",
"          z.z.z.z.z.z.z.z.z.z.k.l.l.l.z.z.l.k.k.k.k.k.k.l.l.l.l.l.l.l.l.k.k.k.k.k.k.k.k.k.z.s.e.s.y.y.y.y.y.y.y.y.y.y.y.t.t.t.t.t.t.t.t.t.t.t.t.t.e.e.e.e.e.e.e.0.0.0.2.p.%.m.BX1X4X4X4X4X4X4X>X>X,XiX@.x x c c n c c c n n n n c c c c c c c c c c c c c c x x x x x c c x x x x c x x x x x x x x x x x x x x x x x x x x l l l l x x x x x x l l l l l l l l l l l l l l l l l l l l l l l l l l l l l l l l l l l l l k k l l l k l k l l l k l l l l k k l l l l l l l l l l l l l l l l k l l l l l l l l l l l l l l l l l l l l l l l l l l l l l l l l l l l l l l l l l l l l k l k l l l l l k l l l k k k k k k k k k k k k k k k k k k k k k k k k k z l l k i E 8X<X+.<X<X<X<X<X<X<X<X<X<X<X<X<X<X<X<X<X<X<X<X<X2X8X| J W W Q Q W W Q W W Q Q Q Q Q Q Q Q Q Q Q Q Q Q Q Q Q Q Q Q Q W U U U W U U Y Y U U U U U U U P P J L H u u a q s HXKXGXJXJXJXJXJXJXJXJXKXJX6.t.x.x.x.k.k.x.x.x.e.c.XX X`.`./.).).).'.).).).).'.'.'.].L.P.P.P.P.U.L.L.L.L.U.L.L.U.L.L.L.L.L.L.P.P.Y.Y.Y.Y.Y.U.L.U.U.U.L.L.L.L.K.U.U.U.U.P.U.U.P.P.U.U.P.P.P.U.U.P.P.        ",
"          l.z.z.z.z.l.l.z.z.z.z.l.l.l.l.z.l.k.k.k.k.k.k.k.l.l.l.l.l.l.l.l.k.k.k.k.k.k.k.k.l.h.r.y.y.y.y.y.y.y.y.y.y.y.i.y.t.y.y.t.t.t.t.t.t.t.t.t.t.e.e.e.e.e.e.e.0.2.2.e.,.o SXsX4X4X5X4X4X4X4X>X>X,XiXE a c n c n c c n n n n c c c c c c c c c c c c c c x x x x x x c x x x c x x x x x x x x x x x x x x x x x x x x x x l x x l l x x x x l l l l l l l l l l l l l l l l l l l l l l l l l l l l l l l l l l l l l l l l l l l l l l l l l l l l l l l l l l l l l l l l l l l l l l l l l l l l l l l l l l l l l l l l l l l l l l l l l l l l l l l l l l l l l l l l l l l l l l l l l l l l l l l l l l l l l l l l l l l l k k k k k k l l k l l k k l l a y A 9X<X<X<X<X<X<X<X<X<X<X<X<X<X<X<X<X2X<X<X2X2X<X<X2X2X| J Y ! W W W W W W W W Q Q Q Q Q Q Q Q Q Q Q Q Q Q Q Q Q Q Q Q W U U U U U U U Y Y U U U U U U U P K J L N q a p 5 :XKXJXJXJXJXJXJXJXJXJXJXKXkX3.x.x.x.x.x.x.x.x.e.d.OX X^.`.'././.).).).).).).).'.'.].P.P.P.K.K.U.U.L.L.L.L.L.L.U.U.U.L.L.Y.L.Y.Y.Y.Y.Y.Y.Y.Y.U.Y.Y.L.U.U.U.U.K.K.K.K.U.U.U.U.U.U.P.U.U.Y.P.P.U.Y.U.U.        ",
"          l.z.z.z.z.l.z.l.l.z.l.l.l.l.l.l.l.l.k.k.k.k.k.k.l.l.l.l.l.l.l.l.k.k.k.k.k.k.k.k.l.l.s.y.y.s.y.y.y.y.y.y.y.y.y.i.y.t.y.t.t.t.t.t.t.t.t.t.t.t.e.e.e.e.e.e.0.0.2.2.t.*.8.ZX0X>X4X5X4X4X4X>X>X>X1X8XC k c c n n c c n c c c c c c c c c c c c c c c c x x c x c x x c c x c x x x x x x x x x x x x x x x x x x x x x x x x l l l l x x l l l l l l l l l l l l l l l l l l l l l l l l l l l l l l l l l l l l l l l l l l l l l l l l l l l l l l l l l l l l l l l l l l l l l l l l l l l l l l l l l l l l l l l l l l l l l l l l l l l l l l l l l l l l l l l l l l l l l l l l l l l l l l l l l l l l l l l l l l l l l l l l k l l l l l k k l l l k i A 9X2X<X<X<X<X<X<X<X<X<X<X<X<X<X<X<X<X<X<X<X<X<X<X2X8X) K Y Q Q Q W W W W W W W Q Q Q Q Q Q Q Q Q Q Q Q Q Q Q Q Q Q Q Q W U U U U U U U U U U U U U U U U P J R L k y a w A KXJXGXJXJXJXJXJXJXJXJXKXPX5.g.x.k.x.k.x.x.x.0.d.XX X^.).).`.'.).^.).).^.).).'.'.'.I.P.P.P.K.K.Y.Y.L.U.L.L.L.L.U.L.Y.Y.Y.Y.Y.Y.Y.Y.Y.Y.Y.Y.Y.U.U.K.L.U.U.U.U.K.K.P.P.P.U.U.K.P.P.U.U.U.Y.Y.U.Y.Y.U.U.        ",
"          l.z.z.z.z.l.l.l.l.l.l.l.l.l.l.z.z.l.k.k.k.l.k.k.k.l.l.l.l.l.l.l.k.k.k.k.k.k.k.k.k.l.s.y.i.s.y.y.y.y.y.y.y.y.y.y.y.t.t.t.t.t.t.t.t.t.t.t.t.t.e.e.e.e.e.e.0.0.0.0.2.w.o =XdX4X4X4X4X4X4X4X>X>X,XiXO.x l n n c c c c c c c c c c c c c c c c c c c c c x c x x x x c c x c x x x x x x x x x x x x x x x x x x x x x x x x x l l l x x l x l l l l l l l l l l l l l l l l l l l l l l l l l l l l l l l l l l l l l l l l l l l l l l l l l l l l l l l l l l l l l l l l l l l l l l l l l l l l l l l l l l l l l l l l l l l l l l l l l l l l l l l l l l l l l l l l l l l l l l l l l l l l l l l l l l l l l l l l l l l l l l l l l l l l l l l l k p E 9X8X<X<X<X<X<X<X<X2X2X<X<X<X2X2X2X2X<X<X<X<X<X<X<X2X| K Y ! Y W Q Q W W W W Q Q Q Q Q Q Q Q Q Q Q Q Q Q Q Q Q Q Q Q Q W U U U Y Y Y U U U U U U U U U U P P P L D y a q i CXKXGXJXJXJXJXJXJXJXJXJXKX#X2.x.k.k.x.x.x.x.4.d.XX X`.'.).).`.'.).).).)./.).'.].].].P.P.P.P.K.U.Y.Y.Y.U.L.L.U.L.U.K.L.Y.Y.P.Y.Y.Y.Y.Y.Y.Y.Y.Y.Y.Y.Y.L.U.U.L.L.L.L.P.P.U.U.U.P.P.P.Y.U.U.U.Y.Y.U.U.Y.U.        ",
"          l.z.z.z.z.l.l.l.l.l.l.l.l.l.l.l.z.z.k.k.k.k.k.k.k.l.l.l.k.l.l.l.k.k.k.k.k.k.k.k.k.l.h.r.y.y.y.y.y.y.s.y.s.i.y.y.y.t.t.t.t.t.t.t.t.t.t.t.t.t.t.e.e.e.e.e.e.0.0.0.0.0.;.-.dX8X4X4X5X4X4X4X4X>X>X,XpX[ a c n c c c c c c c c c c c c c c c c c c c c c c x x x x c c x x c c x x x x x x x x x x x x x x x x x x x x x x x x x x x l l x l l l l l l l l l l l l l l l l l l l l l l l l l l l l l l l l l l l l l l l l l l l l l l l l l l l l l l l l l l l l l l l l l l l l l l l l l l l l l l l l l l l l l l l l l l l x x l l l l l l l l l l l l l l l l l l l l l l l l l l l l l l l l l l l l l l l l l l l l l k l l l l l l l l l l l l l z u C 8X8X+.<X<X<X<X<X<X<X<X<X<X<X2X2X2X<X<X<X<X<X<X<X2X2X) K Y W W W Q W Q Q Q Q Q Q Q Q Q Q Q Q Q W W W Q Q ! ! Q Q Q W Q Q U U U Y U U U U U U U Y Y U U P P P P K L l y u w ;XKXGXJXJXJXJXJXJXJXJXJXKXIX3.k.x.x.k.k.x.x.r.d.XX|./.).'./.).'.'.).).`./.'.'.P.P.].P.P.P.P.P.U.U.U.U.L.U.L.L.Y.Y.Y.Y.L.L.L.L.L.U.Y.Y.Y.Y.U.U.Y.Y.Y.U.L.L.L.L.L.U.U.K.U.U.P.U.L.U.P.P.U.P.P.P.U.P.P.U.U.        ",
"          z.z.z.z.z.z.z.l.l.l.l.z.z.l.l.l.l.l.l.l.l.k.k.l.l.k.l.k.k.l.l.l.l.l.k.k.k.k.k.k.k.k.l.y.t.y.s.y.y.y.s.y.i.y.y.y.y.y.t.t.t.t.t.t.t.t.t.t.t.t.t.e.e.e.e.e.e.e.0.0.0.2.e.%.$XsX1X5X5X5X5X4X4X4X>X,X0XiXC k n n c c n c c n c c c c c c c c c c c c c c c x x x x x c x x c c x x x x x x x x x x x x x x x x x x x x x x l x x x x x l l l l l l l l l l l l l l l l l l l l l l l l l l l l l l l l l l l l l l l l l l l x l l l l l l l l l l l l l l l l l l l l l l l l l l l l l l l l l l l l l l l l l l l l l l l l l l l l l l l l l l l l l l l l l l l l l l l l l l l l l l l l l l l l l l l l l l l l l l l l l l l l l l l l l l l l l l y C 2X2X+.<X<X<X<X<X<X<X<X<X<X<X<X2X2X2X<X<X<X<X<X<X2X9X) K Y Q W W W W W Q Q Q Q Q Q Q Q Q Q Q Q W Q W W W Q Q Q Q W Q Q Q W U U U U U U U U U U U Y Y U P P P P P L F i p 5 ` KXJXGXJXJXJXJXJXJXJXJXKXKXb.r.x.x.k.x.x.x.r.d.XX|.).'.^.^./.).).).)./.).'.].].].P.K.K.K.K.K.L.U.L.Y.L.L.L.L.L.L.Y.L.L.U.Y.L.Y.Y.Y.Y.Y.L.L.U.L.U.U.U.K.K.L.L.L.L.L.L.L.U.U.U.K.U.U.P.P.P.P.P.U.Y.P.P.U.U.        ",
"          z.z.z.z.z.z.z.z.z.l.l.z.z.z.z.l.z.l.l.l.k.k.l.k.l.l.k.l.k.l.l.l.l.l.k.k.k.k.k.k.k.k.z.g.e.y.y.y.y.s.s.s.y.y.y.y.y.y.y.t.t.t.t.t.t.t.t.t.t.t.t.e.e.e.e.e.e.e.e.0.0.0.e.,.o qXiX4X5X4X4X4X4X4X>X>X,XiX2Xv l n c n n c c c n c c c c c c c c c c c c x x x x x x x c c x c x x x x x x x x x x x x x x x x x x x x x x x l l x x x x l x l l l l l l l l x l l l l l l x x x l l l l l l l l l l l l l l l l l l l l l l l l l l l l l l l l l l l l l l l l l l l l l l l l l l l l l l l l l l l l l l l l l l l l l l l l l l l l l l l l l l l l l l l l l l l l l l l l l l l l l l l l l l l l l l l l l l l l l l l l l l l l l l l l l l l l k y v <X2X+.<X<X<X<X<X<X<X<X<X<X<X2X<X<X2X<X<X<X<X<X<X2X2X) H W Q W W W W Q Q Q Q Q Q Q Q Q Q Q Q Q Q Q Q W W W Q Q Q Q Q Q Q W U U U U U U U U U U U U Y Y U U P P J I L c y q b JXKXFXJXJXJXJXJXJXJXJXJXKXkX,.x.x.x.x.x.x.r.d.XX|.F.'.).)./.).).^./.)./.).'.].].P.K.K.K.K.U.U.L.L.U.U.L.L.L.L.L.U.P.L.K.Y.Y.Y.P.Y.Y.Y.Y.L.L.L.L.L.U.U.K.L.L.L.L.L.L.L.L.U.U.L.K.P.U.P.P.P.P.P.P.Y.U.P.Y.Y.        ",
"          z.z.z.z.z.z.z.z.k.l.l.z.z.z.z.l.z.z.z.l.l.k.l.l.l.l.l.k.l.l.l.l.l.l.k.k.k.k.k.k.k.k.l.k.r.y.y.y.y.s.s.s.s.y.y.y.y.y.y.t.t.t.t.t.t.t.t.t.t.t.t.t.e.e.e.e.e.e.e.e.0.0.0.t.&.-.BX2X4X4X7X4X4X4X>X>X>X,XsX| l x n n n c c n n c c c c c c c c c c c c x c c x x x x c c c c x x x x x x x x x x x x x x x x x x x x x x x l l l x x x l x l x x x l l l x x x x l l l x x x l l l l l l l l l l l l l l l l l l l l l l l l l l l l l l l l l l l l l x l l l l l l l l l l l l l l l l l l l l l l l l l l l l l l l l l l l l l l l l l l l l l l l l l l l l l l l l l l l l l l l l l l l l l l l l l l l l l l l l l l l l l l l l l l l l l x l y v O.2X+.+.<X<X<X<X<X<X<X<X<X<X<X2X<X<X<X<X<X<X<X<X2X<X/ P W Q Y Q Q W Q Q Q Q Q Q ! Q Q Q Q Q Q Q Q Q Q W W W Q Q Q Q Q Q Q W U U U U U U U U U U U U U U Y U I P P L F i y i fXKXGXJXJXJXJXJXJXJXJXJXKXPX2.d.x.x.x.x.x.e.d.XX|.F.).).).).).).).).).).'.].].P.P.P.U.U.U.U.U.L.U.L.L.U.U.U.L.L.U.Y.P.Y.Y.P.L.Y.L.Y.Y.U.L.L.U.L.L.L.U.U.K.L.L.L.L.L.L.L.P.P.U.U.P.U.U.P.P.P.P.P.P.P.P.P.U.Y.        ",
"          z.z.z.l.z.z.z.z.z.z.z.l.z.l.z.z.z.z.z.z.z.l.l.l.k.l.l.l.l.k.l.l.l.l.l.k.k.k.k.k.k.k.k.z.s.y.y.y.y.s.s.s.s.s.y.y.y.y.y.t.e.t.t.t.t.t.t.t.t.t.t.t.t.e.e.e.e.e.e.e.e.e.0.0.q.o $XNX1X7X7X4X4X4X4X>X>X,X>XpXE k n c n n c n c c c c c c c c c c c c c c c c x x x x c c x c x x c x x x x x x x x x x x x x x x x x x x x l l x x x l x x x x x x l l x x x x l l l l x x x x l l l l l l l l x x l l l l l l l l l l l l l l l l l l l l l l l l l l l l l l l l l l l l l l l l l l l l l l l l l l l l l l l l l l l l l l l l l l l l l l l l l l l l l l l l l l l l l l l l l l l l l l l l l l l l l l l l l l l l l l l l l l l l l l l l l u M O.2X+.<X+.<X<X<X<X<X2X<X<X<X<X2X2X<X2X<X<X<X<X2X8XO.Q K Q Q Q Q W Q Q Q Q Q Q Q Q Q Q Q Q Q Q Q Q Q Q Q Q Q Q Q Q Q Q ! Q W U U U U U U U U U U U U U U U Y U I P K L n q 5  .KXJXJXJXJXJXJXJXJXJXJXJXKXn.y.z.x.x.x.x.e.d.XX|.F.'.).(.^.).).).).'.'.).'.].].P.K.K.U.U.U.U.U.L.U.U.L.L.U.U.L.L.L.U.L.Y.Y.U.L.L.L.L.L.L.L.L.U.L.L.L.U.U.U.U.L.U.U.L.L.L.P.U.P.U.P.U.U.P.U.Y.Y.P.P.P.P.P.U.U.        ",
"          z.z.z.l.z.z.z.z.z.l.l.l.l.l.k.l.l.z.z.z.z.l.l.l.k.l.l.l.l.l.l.l.l.l.l.l.k.k.k.k.k.k.k.z.h.t.y.y.y.s.s.s.s.y.y.y.y.y.i.y.t.t.t.t.t.t.t.t.t.t.t.t.t.e.e.e.e.e.e.e.0.0.0.0.e.,.o MXpX>X4X4X5X4X4X4X>X>X>X7X9XC k n n n n c n c c c c c c c c c c c c c c c x x c c x x c x x x c c x x x x x x x x x x x x x x x x x x x x x x x x l x x x l x x x x x l x x l l l l x x x x l l x x l l l x x x x l l l l l l l l l l l l l l l l l l l l l l l l l l l l x x l x l l l l l l l l l l l l l l l l l l l l l l l l l l l l l l x x l l l l l l l l l l l l l l l l l l l l l l l l l l l l l l l l l l l l l l l l l l l l l l l l l l l l l l l u M O.2X+.<X+.<X<X<X<X<X2X2X<X<X<X<X<X2X2X2X2X2X2X2X9XO.I K ! W ! Q W W Q Q Q W W Q Q Q Q Q Q Q Q Q Q Q Q Q Q Q Q Q Q Q ! ! ! Q U U U U U U U U U U U U U U U U Y U P J L H u 5 Z KXJXGXGXJXJXJXJXJXJXJXJXKXkX3.z.x.x.x.x.r.d. X XF./.).'.).).).).).).'.'.].].].P.P.K.U.U.U.U.U.U.U.U.U.U.L.L.L.L.L.L.L.L.L.L.L.L.L.U.L.L.L.U.U.L.L.L.L.K.K.L.U.L.L.L.L.L.L.U.U.P.P.P.U.U.P.U.U.Y.Y.P.P.P.P.U.U.        ",
"          z.z.z.z.z.z.z.z.z.z.z.l.l.l.l.l.l.l.z.l.z.z.l.l.l.l.l.l.l.l.k.l.l.l.l.k.k.k.k.l.k.k.k.l.l.y.y.y.y.y.s.y.y.y.y.y.i.y.y.y.y.t.y.y.y.t.t.t.t.t.t.t.t.t.e.e.e.e.e.e.e.0.0.2.0.p.&.-.CX2X4X7X4X4X4X4X4X>X>X@.iX@.x x n c n c c c c c c c c c c c c c c c c c x x c c c x c x x x x c x x x x x x x x x x x x x x x x x x x x x x x l l l l x x x x x x x x x x x l x l l l l x x x x l l l l x x l x x x l l l l l l l l l l l l l l l l l l l l l l l l l l x x x x x l l l l l l l l l l l l l l l l l l l l l l l l l l l l l x x l l l l l l l l l l l l l l l l l l l l l l l l l l l l l l l l l l l l l l l l l l l l l l l l l l l l l l u v O.2XO.+.<X<X<X<X<X<X2X2X2X2X<X<X<X<X2X<X<X2X<X2X9Xo.Y I ! Q Y Q W W W W W W W W Q Q Q Q Q Q Q Q Q Q Q Q Q Q Q Q Q Q ! ! ! Q U U U U U U U U U Y Y U U U U Y Y U P K J L m > a NXKXGXJXJXJXJXJXJXJXJXJXKXHX5.d.x.x.x.x.e.d.XX|.F.`.).).).).).).).).`./.'.].U.P.P.U.U.U.U.U.U.U.U.L.U.U.U.L.L.L.L.L.L.L.L.L.L.L.L.P.Y.L.L.L.U.U.Y.Y.Y.U.L.K.L.Y.L.L.K.K.U.P.Y.Y.P.P.P.Y.P.P.U.P.P.P.U.P.P.P.P.U.        ",
"          z.z.z.z.z.z.z.z.z.z.z.l.l.l.l.l.l.l.l.l.z.z.l.l.l.k.l.l.l.l.k.k.l.l.l.k.k.k.k.k.k.k.k.k.z.f.e.y.s.y.y.y.y.y.y.s.y.y.y.y.y.t.t.t.t.y.t.t.t.t.t.t.t.t.t.e.e.e.e.e.e.0.0.e.0.0.t.%.$XdX1X4X4X4X4X4X4X4X>X,X,XpX[ k c n c c c c c c c c c c c c c c c x x c x x x x x c x x x x x c x x x x x x x x x x x x x x x x x x x x x x x l l l l l x x x x x x x x x x l x l l l l x x l l l l l l l x x x x x l l l l l l l l l l l l l l l l l l l l l l l l l x x x x x x x l l l l l l l l l l l l l l l l l l l l l l l l l l l l l l l l l l l l l l l l l l l l l l l l l l l l l l l l l l l l l l l l l l l l l l l l l l l l l l l l l l l p l o.8X+.+.+.<X2X<X<X<X<X2X2X2X2X2X<X2X2X<X<X<X<X8X2X| K K ! Q W Q W W W W W W W Q Q Q Q Q Q Q Q Q Q Q Q Q ! ! Q Q Q Q Q ! ! ! W U U U U U U Y U U U U U U U U Y Y P P P L L q w #.KXJXJXJXJXJXJXJXJXJXJXKXKXn.3.z.x.x.x.4.c.XX XJ././.).'.).).).).).).`.'.'.].P.].P.U.U.U.U.U.U.U.U.U.U.U.L.L.L.L.L.L.L.L.L.L.L.L.L.U.Y.L.L.L.L.L.Y.L.L.U.U.L.L.L.L.L.K.U.K.P.U.U.P.P.P.P.P.P.U.P.P.P.P.U.U.P.P.Y.        ",
"          z.z.z.z.z.z.z.z.z.z.z.l.l.l.z.z.l.k.l.z.z.z.l.l.k.k.k.l.l.l.l.l.l.l.l.l.k.k.k.k.k.l.l.k.l.k.e.y.s.y.y.s.s.s.y.s.y.y.y.y.y.y.t.t.t.t.y.t.t.t.t.t.t.t.t.e.e.e.e.e.e.e.e.0.2.0.e.,.%.yXpX>X4X4X4X4X4X4X>X>X4X>XsXA k n c c c c c c c c c c c c c c c c x x x x x x x c c x x x x x x x x x x x x x x x x x x x x x x x x x x x x x x x x x x x x l x x l x x x x x x l l l l l l l l l l l l x x x x x x l l l l l l l l l l l l l l l l x x l l l l l x x x x x x x l l l l l l l l l l l l l l l l l x x l l l x l l l l l l l l l l l l l l l l l l l l l l l l l l l l l l l l l l l l l l l l l l l l l l l l l l l l l l l l l l l l u l o.8X+.<X<X<X<X2X<X<X<X<X2X2X2X2X2X<X2X<X<X2X2X8X<X/ H I Q W W Q Q W W W W W W Q Q Q Q Q Q ~ Q Q Q Q Q Q Q ! ! ! Q Q Q ! ! Q W U U U U U U U Y U U U U U U Y Y P P P P K L n > [ KXJXJXJXJXJXJXJXJXJXJXJXKXUX<.x.x.x.x.e.d.XX X/.)./.).)./.).).).).'.'.'.].].K.K.P.U.U.U.U.U.U.U.U.U.U.U.L.L.L.U.L.L.L.L.L.L.L.U.L.L.L.L.L.L.L.L.L.L.L.L.U.U.L.L.L.L.L.L.U.K.K.U.U.U.P.P.P.P.P.U.P.P.P.P.U.U.U.P.Y.        ",
"          z.z.z.z.z.z.z.z.z.z.z.z.l.z.z.z.l.l.l.z.z.z.z.l.l.k.k.l.l.l.l.l.l.k.l.l.l.k.k.k.k.l.l.k.k.z.y.t.y.s.y.y.y.s.y.s.y.y.y.y.y.y.t.t.t.t.y.t.t.t.t.t.t.t.t.t.e.e.e.e.e.e.e.0.2.0.2.e.:.-.BX9X>X4X4X4X4X>X>X,X>X>X0X8XM l n c c c c c c c c c c c c c c c c x c c x x c c x x x x x x x x x x x x x x x x x x x x x x x x x x x x x x x x l l x x x l l x l x x x x x l l l l l l l l l l l l l x l x x x x x l l l x x l l l l l l l l l x x x x x l l l l x l x x x x l l l l l l l l l l l l l l l l x x l l l l l l l l l l l x l l l l l l l l l l l l l l l l l l l l l l l l l l l l l l l l l l l l l l l l l l l l l l l l l l l l p z o.2XO.<X<X<X<X<X<X<X<X<X2X2X2X2X2X2X<X<X<X<X8X9XX.I J Y Q Q W ! W W Q W W W W Q Q Q Q Q ! ! ~ Q Q Q Q Q Q Q Q Q Q Q Q ! ! ! W U U U U U U U Y Y Y U U U U U Y Y P P P P L K 5 b GXKXGXJXJXJXJXJXJXJXJXJXKXPX5.d.x.x.x.e.c.|. XF./.].).^.^./.).).).).).'.].].P.L.K.P.U.U.U.U.U.U.U.U.U.L.U.L.L.L.L.L.L.L.L.L.L.L.U.L.L.L.L.L.L.L.L.L.L.L.U.Y.L.L.L.Y.Y.L.L.L.U.K.P.U.U.U.P.P.P.P.P.P.P.P.P.P.P.U.P.P.        ",
"          z.z.z.z.z.z.z.z.z.z.z.z.z.z.z.l.l.l.l.z.z.z.z.z.l.k.k.l.l.l.l.l.l.l.l.l.l.k.k.k.k.k.k.k.k.z.g.e.y.s.s.y.y.y.s.s.y.y.y.y.y.y.y.t.t.y.y.t.t.t.t.t.t.t.t.t.t.e.e.e.e.e.e.e.0.0.2.2.e.%.$XCX7X4X4X4X>X4X4X4X>X>X,XpX@.x x n n c n c c c c c c c c c c c c c c c c c c x c c x x x c x x x x c c x x x x x x x x x x x x x x x x x x x x l l x x x l l x x x x x x x l l l x l l l l x l x l l l l l x x x l l x x x x l l x l l l l l l l x x x x x x l x l l l l x x l l x x x x l l l l l l l l l x x x l l l l l l l l l l l l x x l l l l l l l x x l l x x l l l l l l l l l l l l l l l l l l l l l l l l l l l l l l l l l l l l a a } 8X+.+.<X<X<X<X<X2X2X2X2X2X2X2X2X2X<X<X2X<X8X2X| J K W Q Q W W Q Q Q Q Q W W Q Q Q Q Q Q ! ! Q Q Q Q Q Q Q Q ~ ~ Q Q ! Q Q W U U U U U U U U U U U U U U U U U P P I P K L l w sXKXGXJXGXJXJXJXJXJXJXJXKXKXn.e.x.c.k.e.d.XX|.I.)./.'.).^.^.).).).).).).'.P.P.K.K.P.U.U.U.U.U.U.U.U.U.U.L.L.L.L.L.L.U.U.U.U.L.L.L.L.L.L.L.U.L.L.L.U.U.L.L.L.L.L.L.L.Y.U.L.L.U.U.K.P.U.P.P.P.P.P.P.P.P.P.Y.P.P.P.P.U.P.        ",
"          z.z.z.z.z.z.z.z.z.z.z.z.z.z.z.l.l.z.z.l.l.z.z.z.z.l.k.k.k.l.l.l.l.l.l.l.l.l.k.k.k.k.k.k.k.k.l.s.e.s.y.y.y.y.s.s.s.y.y.y.y.y.y.t.t.t.t.t.t.t.t.t.t.t.t.t.t.e.e.e.e.e.e.e.e.0.0.2.e.,.o mXsX>X4X>X4X4X4X4X>X4X>X,XsX[ k c n n c c c c c c c c c c c c c c c c c c x c c c x x x x c c x x c c c x x x x x x x x x x x x l l x x x x x l l x x x l l x x x l x x x x x x x x x l l x x x l l l x l l x x x x x x x x x x l l l l l l l l l x x x x x x x l l l l x x l l x x x x l l x x x l l l l x x l l l l l l l l l l l l l l l l l l l l l x x x x l x x l l l l l l l l l l l l l l l l l l l l l l l l l l l l l l l l l l l a p | 8X+.<X<X<X2X2X2X2X2X2X2X2X2X2X2X2X2X2X<X2X9X+./ J I W W W Q W W W Q Q Q Q Q W Q Q Q Q Q Q Q Q Q Q Q Q Q ! Q Q Q ~ ~ ! Q Q W U U U U U U U U U U U P U U U U P P P U K J L D >  .KXGXGXGXJXJXJXJXJXJXJXKXKXkX3.x.x.x.e.d. X|./.'.).).).^.).).).).).'.'.'.].P.P.K.K.U.L.U.U.U.U.U.U.U.U.U.L.L.L.L.L.L.L.L.U.U.L.L.L.L.L.L.L.U.U.L.L.L.L.L.L.L.L.Y.L.L.Y.K.L.U.L.U.L.U.U.P.P.U.P.U.U.U.P.P.Y.P.P.P.P.Y.P.        ",
"          z.z.z.z.z.z.z.z.z.z.z.z.z.l.l.l.l.z.z.l.l.z.z.z.z.z.l.k.l.l.l.l.l.l.l.l.l.l.l.k.k.k.k.k.k.k.l.g.e.y.y.s.y.y.s.s.y.y.y.y.y.y.y.y.t.t.t.t.t.t.t.t.t.t.t.t.t.t.e.e.e.e.e.e.e.e.e.0.2.4.&.-.ZX9X4X4X4X4X4X4X>X4X>X,X>XpXE l c n v c c c c c c c c c c c c c c c c c c c c c c x x x x c x x c c x x x x x x x x x x x x x x x x x x x l l l l l l x x x x l l l l x l l l l x x x l x x x x x x x l x l l l x x x x x x x x l l l l l l l x x l l x x l x x x x l l l l l x x l l l x x x x l l l l l l l l l l l l l l x l l l l l l x x l l l l l l x l l l l l l l l l l l l l l l l l l l l l l l l l l l l l l l l l l l l l l a s [ 9X+.+.<X<X2X2X2X2X2X2X2X2X2X2X2X2X<X2X2X2X2X} I I W W W W W W Q W W W W Q Q Q Q Q Q Q Q Q Q Q Q Q Q Q Q Q Q Q Q Q ! ! Q Q W U U U U U U U U U U U U Y U U U U P P P I J K L t ` KXGXGXJXJXJXJXJXJXJXJXJXKXIX3.g.c.x.e.d.XX|./.'.).).).).).).).).'.P.'.'.'.P.P.P.P.U.U.U.U.U.U.U.U.U.U.L.L.L.L.L.L.L.L.U.U.U.U.U.U.L.L.U.U.L.L.L.L.L.L.L.L.U.L.L.Y.L.L.Y.L.L.L.K.U.K.P.U.P.P.P.P.U.Y.P.U.P.P.P.P.Y.U.P.Y.        ",
"          z.z.z.z.z.z.z.z.z.z.z.z.z.z.l.l.l.z.z.z.l.z.z.z.z.z.z.l.l.l.l.l.l.l.l.l.l.l.l.k.k.k.k.k.k.k.k.z.s.y.y.s.y.y.y.s.i.i.s.y.y.y.y.y.y.t.t.y.t.t.t.t.t.t.t.t.t.t.t.e.e.e.e.e.e.e.e.e.0.0.e.%.7.BX3X5X4X4X4X4X4X4X>X4X>X0XpXC l c c c c c c c c c c c c c c c c c c c c c c c c x x x x x x x c c x x x x x x x x x x x x x x x x x x x l l l l x x x l x x l l x x x x x x x x l x l x x x x x x x x x l x x x x x x x x x x l l l l l l x x x x x x x x x x x x x l l l x x l l l l x x x l x l l l l l l x l l l l l l x l l l l x x x x l x l l l l l l l l l l l l x l l l l l l l l l l l l l l l l l l l l l l l l l l l l l a s | 8X+.+.<X<X2X2X2X2X2X2X2X2X2X2X2X2X2X2X2X8X+./ J I W W W W W W W Q Q Q Q Q Q Q Q Q Q Q Q Q Q Q Q Q Q Q Q Q Q Q Q ~ ~ ~ Q Q W U U U U U U U U U Y U U U U U U P P P P I K H L n b GXJXGXJXJXJXJXJXJXJXJXJXKXLX6.4.x.k.4.c.XX XF.[.'.)./.).).).).).'.'.K.`.'.P.P.P.P.U.U.U.U.U.Y.U.U.U.U.L.L.L.L.L.U.L.L.L.U.U.L.U.U.U.L.L.U.U.L.L.L.L.L.L.L.L.U.L.L.Y.L.L.Y.K.L.U.U.U.K.K.U.P.P.P.P.U.Y.P.P.P.P.P.Y.U.U.P.Y.        ",
"          z.z.z.z.z.z.z.z.z.z.z.z.z.z.l.l.z.z.z.z.z.l.l.l.l.z.l.l.l.k.k.l.l.l.l.l.l.l.l.k.k.k.k.k.k.k.k.z.g.r.y.y.s.y.y.y.i.i.y.s.y.y.y.y.y.t.t.t.t.t.t.t.t.t.t.t.y.t.t.t.e.e.e.e.e.e.e.e.e.e.0.w.%.%XdX>X4X4X4X4X4X4X4X4X1X>X0X8XM l c c c c c c c c c c c c c c c c c c c c c c c c x x x x x x x x x x x x x x x x x x x x x x x x x x l l l l x x x x l l l x x x x x x l l x x l l l x x x x x x x x x x x x x x x x x x x x x x x x x x x l x x x l l l l x x x x l l x x x l l l x x x x x x x x x l l l x l l l l l l x l l l l x l l x x x x l l x l l l x l l l l l l l l l l l l l l l l l l l l l l l l l l l l l l l l l a p | 8XO.+.<X<X2X2X2X2X2X2X2X2X2X2X2X2X2X2X9X2X| I J Y Y Y W W W W W Q W Q Q Q Q Q Q Q Q Q ! Q Q Q Q Q Q Q Q Q Q Q Q ! ! ! ! ! W U U U U U U U U U U U U U Y Y U P P P P P K H L D z VXKXFXJXGXJXJXJXJXJXJXJXKXKXn.3.x.d.4.c. X X/.).).).).^.).).).).'.K.K.'.].].P.P.P.P.U.U.U.U.U.U.U.U.U.L.L.L.L.L.L.U.U.L.L.L.U.U.U.L.U.L.L.L.L.L.L.L.L.L.L.U.U.U.L.L.Y.L.L.L.K.K.K.L.Y.L.P.P.U.P.P.P.P.U.U.P.P.U.Y.P.P.P.P.P.        ",
"          z.z.z.z.z.z.z.z.z.z.z.z.z.z.z.z.z.l.l.z.z.l.l.l.l.l.z.z.l.k.k.l.l.l.l.l.l.l.l.l.k.k.k.k.k.k.k.k.z.y.y.s.s.y.y.y.y.y.y.y.s.y.y.y.y.y.t.t.t.y.t.t.t.t.t.y.y.t.t.t.e.e.e.e.e.e.e.e.e.e.0.e.,.o MXsX>X5X4X4X4X4X4X4X>X>X,XpX#.l x n c c c c c c c c c c c c c c c c c c c c c c x x x c c x x x x x x x x x x x x x x x x x x x x x x x l l x x x x x x l x x x x x x x x x x x x l l l x l x x x x x x x x x x x x x x x x x x x l l x l l x x l l l l l x x x x l l x x x l l l l x x x l l x x x x x l l l l l l l l l l l l l x x l x x x x x x x l l l l l l l l l l l l l l l l l l l l l l l l l l l l l l l l l l l l a u E 8X+.+.<X<X2X2X2X2X2X2X2X2X2X2X2X2X2X8X8XX.! J I Y Y W W W W Q Q Q Q Q Q Q Q Q Q Q Q Q Q Q Q Q Q Q Q Q Q Q Q Q Q Q ! ! ! ! Q U U U U U U U Y Y Y U U U U Y Y U P P I I K K K H M eXKXGXJXJXJXJXJXJXJXJXJXJXKXkX<.k.x.4.c.XX X/.).^.).^.)././.).).'.'.I.P.].].].K.P.U.U.U.U.U.Y.Y.U.U.U.Y.Y.Y.L.L.L.L.L.U.U.U.U.U.L.U.U.U.L.L.L.L.L.L.L.L.L.L.U.L.L.L.U.U.U.L.L.L.K.K.U.U.L.P.P.P.P.P.P.P.U.U.P.U.Y.Y.P.P.P.P.P.        ",
"          z.z.z.z.z.z.z.z.z.z.z.z.z.z.z.z.z.l.l.z.z.l.l.z.z.z.z.z.l.l.k.l.l.l.l.l.l.l.l.l.l.k.k.k.k.k.k.k.l.g.t.y.y.y.y.y.y.y.y.y.s.y.y.y.y.i.y.t.t.t.t.t.t.t.t.t.t.t.t.t.t.e.e.e.e.e.e.e.e.0.e.0.y.;.-.ZX9X>X5X5X4X4X4X4X>X>X4X>XpX[ z x c c c c c c c c c c c c c c c c c c c c c c c x x x x x x x x x x x x x x x x x x x x x x x x x x x x l l x x x x x l x x x l l x x x x l l x l l l l l x x x x x x x x x x x x x x x x x x x x l l l x l x l l l l x l l l x x x x x x l l l l l l x x x x x x x x x x l l l l l l l l l l l l x x x x l x x x x x l l l l l l l l l l l l l l l l l l l l l l l l l l l l x l x l l l k u E 2XO.+.+.<X<X2X2X2X2X2X2X8X2X2X2X8X8X8XO.) I P W W Y W W W W W Q W Q Q Q Q Q Q Q Q Q ! ! Q Q Q Q Q Q Q Q Q Q Q Q ! ! ! ! ! Q W U U U U U U U U U U U U U U U Y U U P I I K K K D ,XKXGXGXJXJXJXJXJXJXJXJXJXKXPX3.s.x.4.c. X X^.).)./././.).).'.'.'.'.'.I.].].].P.K.P.U.U.U.U.Y.U.Y.Y.L.L.Y.Y.U.U.U.L.L.L.U.L.U.U.L.L.U.U.U.L.U.L.L.L.L.L.L.L.L.L.L.L.L.L.L.L.L.L.U.U.P.P.K.K.P.P.P.P.P.P.P.U.U.U.P.Y.Y.Y.P.P.P.P.        ",
"          z.z.z.z.z.z.z.z.z.z.z.z.z.z.z.z.z.z.l.l.z.l.l.z.z.l.z.l.z.l.k.k.l.l.l.l.l.l.l.l.l.l.k.k.k.k.k.k.k.l.y.t.s.y.y.y.y.y.y.i.y.y.y.y.y.y.y.y.t.t.t.t.t.t.t.t.t.t.t.t.t.t.t.e.e.e.e.e.e.e.e.0.e.t.o 8.ZX7X4X4X>X4X4X4X4X4X>X>X>XdX[ z x c c c c c c c c c c c c c c c c c c c c c c x x x x x x x x x x x x x x x x x x x x x x x x x x l x x l x x x x x x x x x l l x x x x l l l x x x x l l x x x x x x x x x x x x x x x x x x x l l x l x x x x x l x l l l l l l x x l l l l l l l x x x x x x x x x x l l l l l l l l l x x l l l x x x x x x x x x l l l x l l l l l l l l l l l l l l l l l l l l l l l x l l l x k u E <X+.O.+.+.<X2X2X2X2X2X2X8X2X2X2X8X8X+.| Y P W W W W W W W W W W Q Q Q Q Q Q Q Q Q Q Q ! ! Q Q Q ! ! Q Q Q Q Q ! ! ! ! ! ~ Q U U U U U U U U U U U U U U U U U U U U P I K K K F #.KXJXGXJXJXJXJXJXJXJXJXJXKXLXb.e.x.e.c.|. X^.(.).^././.).'.'.'.'.'.'.'.].].].K.P.K.U.U.U.U.U.U.U.U.U.L.L.U.Y.U.L.U.L.L.L.U.L.U.L.L.L.U.U.U.U.U.L.L.L.U.L.L.L.L.L.U.L.L.L.L.L.L.L.L.U.U.U.K.P.P.U.P.P.U.P.P.P.U.P.P.P.Y.Y.Y.Y.U.P.        ",
"          z.z.z.z.z.z.z.z.z.z.z.z.z.z.z.z.z.z.l.l.z.z.l.l.z.z.z.l.z.l.l.k.l.l.l.l.l.l.l.l.l.l.k.k.k.k.k.k.k.l.g.e.y.s.y.y.y.i.i.i.s.y.y.y.y.y.i.y.t.t.t.t.t.t.t.t.t.t.t.t.y.t.t.t.e.t.e.e.e.e.e.e.0.0.0.o $XBX1X4X4X5X4X4X4X4X>X>X,X7XsXE z x c c c c c c c c c c c c c c c c c c c c c x x x x x x x x x x x x x x x x x x x x x x x x x x x x l l l x x x x x x l l l x x x x x x l l x x x x x x x x x x x x x x x x x x x x x x x x l x l x x l x x x x l l x x x l l x x x l l l l l l x x x l x x x x x l x l l x l l l l l x x x x x l l x x x x x x l l x x x l l l l l l l l l l l l l l l x x x x x l l l l x l l x l u C O.+.O.+.+.+.<X<X2X2X2X2X2X8X2X8X8X<X} W I Y Q Q Q W W W W W W Q Q Q Q Q Q Q Q Q Q Q Q Q Q Q Q Q Q ! ! Q ! ~ ! ! ! ! ! ! Q Q U U U U U U U U U U U U U U U U U U U P P K K J J F | KXJXGXGXJXJXJXJXJXJXJXJXKXJXn.0.k.4.N.oX|.^.).)./././.'.'.'.'.'./.`.'.].].P.K.K.K.K.U.U.Y.Y.Y.Y.U.U.L.L.L.Y.Y.Y.L.L.L.U.U.L.L.L.L.L.L.U.U.U.U.U.U.L.L.L.L.U.L.L.L.U.L.L.U.U.L.L.L.L.P.U.U.L.P.P.P.P.P.U.P.P.U.U.P.P.P.Y.Y.Y.Y.Y.P.        ",
"          z.z.z.z.z.z.z.z.z.z.z.z.z.z.z.z.z.z.l.l.l.z.l.l.z.z.z.l.x.z.l.l.k.k.k.l.l.l.l.l.l.l.l.k.k.l.k.k.k.k.z.y.e.y.y.y.y.y.i.f.y.s.y.y.i.f.i.i.y.t.t.t.t.y.t.t.t.t.t.t.t.t.t.t.t.e.e.e.e.e.e.e.e.0.e.,.o mXsX,X5X4X4X4X4X4X>X4X4X>X0XsXA a c c c c c c c c c c c c c c c c c c c c c c c x x x x x x x x x x x x x x c x x x x x x x x x x x l l l x x x x x x l l l x x x x x x x x l x x x x x x x x x x x x x x x x x x x x x x x x x l x x l x x x l l x x x x l l x x x x l l l l l x x l l x l x x l l x l x x l l l x x x x x x x x x x x x x x l x l x x x l l l l l l l l l l l l l l l x x x x x x l l l l l x l u M { O.O.O.+.+.+.<X2X2X2X2X2X8XiX9XO.} ! I Y Q Q Q Q Q W W Q Q Q Q Q Q Q Q Q ! Q Q Q Q Q Q ! ! Q Q Q Q ~ ! ! ~ ~ ~ ! ! ! ! Q W U U U U U U U U U U U U U U U U P U U U P P P I K F ~ JXKXGXJXGXJXJXJXJXJXJXJXJXKX#X,.k.4.x.oX XF.^./.).^.^.).'.).).'./.`.`.].].].P.P.P.P.U.P.U.U.Y.Y.Y.Y.L.L.L.Y.Y.Y.Y.L.L.L.U.L.U.L.L.L.L.L.L.U.U.L.U.U.U.L.L.L.L.L.L.L.L.Y.L.U.U.L.L.L.L.P.U.L.L.U.P.P.P.U.P.P.P.U.U.P.P.P.Y.P.Y.Y.Y.Y.        ",
"          z.z.z.z.x.x.x.z.z.z.z.z.z.z.z.z.z.z.z.l.l.z.z.l.l.l.l.l.z.l.l.l.l.l.l.l.l.l.l.l.l.l.l.l.k.k.k.k.k.k.l.h.e.y.s.y.y.y.i.s.y.i.y.y.y.y.y.i.y.t.t.t.t.t.t.t.t.t.t.t.t.t.t.t.t.e.e.t.e.e.e.e.0.e.2.t.>.-.AXpX>X4X4X4X4X4X4X4X4X4X>XaXpXC k c c c c c c c c c c c c c c c c c c c c c x x x x x x x x x x x x x x c c x x x x x x x x x l l x x x x x x x x x x x x x x x x x x x x l l x x x x x x x x x x x x x x x x x x x x x x x l x x x x x x x x x x x x x x x x x x x x x l l x x x l l x x x x l x x x x x x l x x x x l x x x x x x x x x x x l l x x l x l l l x x l l l l l l l l l l x x x x x x x x x x l p M ) { O.+.+.+.+.<X<X<X<X2X2X8X8XO.| Q I Y Q Q W W Q W Q Q Q W Q Q Q Q Q Q Q ! ! Q Q Q Q Q Q ! ! Q Q Q Q Q ! ! ~ ~ ~ ~ ! ! ! W U U U U U U U U U U U U U U U U U P U U P I I I K H ~ JXKXGXJXGXGXJXJXJXJXJXJXJXKXnX<.i.e.N.oX_.J./.).^././.).).).).).).).'.].].].`.K.P.U.U.P.U.Y.U.Y.Y.Y.L.U.Y.Y.Y.Y.U.L.U.L.L.L.L.U.U.L.L.U.U.L.L.U.U.L.L.L.U.U.L.L.L.K.K.L.L.L.L.U.U.U.L.L.U.L.L.L.U.P.P.P.P.Y.P.P.P.U.U.P.P.P.P.Y.Y.Y.Y.        ",
"          z.z.z.z.z.z.z.z.z.z.z.z.z.z.z.z.z.z.z.z.z.z.z.l.l.z.l.l.z.z.l.z.l.k.l.l.l.l.l.l.l.l.l.l.k.k.k.k.k.l.l.z.y.e.y.y.y.y.y.y.y.y.i.y.y.y.y.y.y.y.t.t.t.t.t.t.t.t.t.t.t.t.t.t.t.e.e.t.e.e.e.e.e.e.e.0.y.&.-.ZX9X>X4X4X4X4X4X4X>X>X>X>XiX9XM k c c c c c c c c c c c c c c c c c c c c x x x x x x x x x x x x x x x c c x x x x x x x x x x x x x x x x x x x x x x x x x x x x x x x x x x l x x x x x x x x x x x x x x x x x x x x x x x x x x x x x l x x l x x x x x x x x x x x x x x l x x x x x l x x x x x x l x x x x x x x x x x x x l l l x x l x x x x l l l l x l l l x l l l l l l l x x x x l x x x l p M ^ ^ } <X+.+.+.<X<X<X<X<X<X<XX.| U K Y ! Q Q Q W W Q Q Q Q Q Q Q Q Q Q Q Q Q ! ! Q Q Q Q Q ! ! Q Q Q Q Q Q ! ! ! ~ ~ ! ! Q W U U U U U U U U U U U U U U U U U U U U U P J I K H W JXKXFXGXGXGXGXJXJXJXJXJXJXKXDX,.0.e.N.oX|.J././.).^././.).).).).)./.`.'.].`.K.P.P.P.U.U.U.U.U.U.Y.Y.Y.L.U.Y.Y.Y.Y.U.L.U.U.L.U.L.L.L.L.L.L.L.U.L.U.U.L.L.L.U.U.U.U.L.L.K.K.L.L.U.U.L.L.L.L.L.U.L.Y.U.P.P.P.P.P.P.P.U.U.P.P.P.P.Y.Y.Y.Y.Y.        ",
"          z.z.z.z.z.z.z.z.z.z.z.z.z.z.z.z.z.z.z.z.l.z.z.z.l.l.l.z.z.z.z.z.z.l.l.l.l.l.l.l.l.l.l.l.l.k.k.k.k.l.k.v.l.e.y.y.y.y.y.s.y.y.y.i.i.y.y.y.y.y.t.t.y.t.t.t.t.t.t.t.t.t.t.t.t.e.e.t.e.e.t.e.e.e.e.2.2.t.%.8.FX2X4X4X4X4X4X4X4X4X4X>X,XiX9XM k n c c c c c c c c c c c c c c c c c c c c c c c c c x x x x x x x c c x x x x x x x x x x l x x x x x x x x x x x x x x x x x x l l l x x x x x x x x x x x x x x x x x x x x x x x x x x x x x x x x x x x l l l l x x x x x x x x x x x x x x x x x x x x x x x x x x x x x x x x x x x x x l l l x x x x x x x x x x x l l x x l l x x l l l l l l l l l l x x l p V ^ ^ I ) +.+.+.<X+.<X2X<X+.} / I I Y Q W ! ! Q Q W Q Q Q Q Q Q Q Q Q Q ! Q Q Q Q ! ! Q ! ! ! ! ! Q Q Q Q Q Q Q ! ! ! ! ! Q W U U U U U U U U U U U U U U U U U U U U U P I J K H U GXKXFXGXGXJXGXGXJXJXJXJXGXKXPX5.w.t.N.oX|.F.^./.).)././.).).).).)././.K.].].K.I.P.P.U.U.U.U.U.U.U.Y.Y.Y.L.Y.Y.Y.Y.Y.U.L.U.U.U.U.L.L.L.L.L.U.U.L.U.U.U.U.L.U.L.U.L.U.U.U.L.L.L.L.L.U.L.L.L.L.K.U.U.U.P.U.U.P.P.P.P.P.U.U.P.P.U.Y.Y.Y.Y.Y.Y.        ",
"          z.z.z.z.z.z.z.z.z.z.z.z.z.z.z.z.z.z.z.z.z.z.z.z.l.z.z.z.z.z.z.z.z.z.l.l.l.l.l.l.l.l.l.l.l.l.k.k.k.k.k.l.z.d.r.y.y.y.y.y.s.i.y.i.y.y.y.y.y.y.y.t.y.t.t.t.y.t.t.t.t.t.t.t.t.e.e.t.t.t.e.e.e.e.0.0.0.0.0.o $XCX1X4X4X4X4X4X4X4X4X>X>X,XiX9XM k v c c c c c c c c c c c c c c c c c c c c c c c c c x x x x x x x x x x x x x x x x x x x x x x x x x x x x x x x x x x x x x x x l x x l l x x x x x x x x x x x x x x x x x x x x l x x x x x x x x x l x x x l l x x x x x x x x x x x x x x x x x x x x x x x x x x x x x l l x x x x l l l l x x x x x x x x x x x l l l x l l x x x l l l l l l l l x x l p V ^ ^ Q Y ^ { <X<X<X<X+.o.| ( Y I Y Q Q W Y ! ! Q W W Q Q Q Q Q Q ! Q ! ~ ! ! Q ! Q Q ! ! ! ! ! ! ! Q Q Q Q Q Q ! ! ! ! ! Q U U U U U U U U U U U U U U U U U U U U U U P P P J F P CXKXFXGXGXGXJXJXJXJXJXJXJXJXKXb.9.i.Z.|._.F.).).).).)././.).).).)././.F.'.].].K.P.P.P.U.U.U.U.U.P.L.Y.Y.Y.L.Y.Y.Y.Y.U.U.L.L.U.U.L.L.U.U.U.L.U.U.L.U.L.L.U.U.U.U.U.U.L.L.L.L.L.L.U.L.K.L.U.U.U.U.U.U.L.P.U.P.P.P.Y.P.P.U.P.P.Y.Y.Y.Y.Y.Y.Y.Y.        ",
"          z.z.z.z.z.z.z.z.z.z.z.z.z.z.z.z.z.z.z.z.z.z.l.l.z.z.z.l.l.l.z.z.z.z.l.l.k.k.k.l.l.l.l.l.l.l.l.k.k.k.k.k.l.l.e.y.y.i.y.y.y.y.y.i.i.y.y.y.y.y.y.y.t.t.t.t.t.t.t.t.t.t.t.t.t.t.e.e.t.t.e.e.e.e.e.e.e.0.e.,.o UXNX1X4X5X5X4X4X4X4X4X>X>X,XpX8Xv k c c c c c c c c c c c c c c c c c c c c c c c x c x x x x x x x x x x x c x c c x x x x x x x x x x x x x x x x x x x x x x x x x x x x x x x x x x x x x x x x x x x x x x l l x x x x x x x x x x x x l x x x l x x x x x x x x x x x x x x x x x x x x x x x x x x x x x l x x x x l l l x x x x l l l x x x x x x x l l l x x x x x x l l l x l x l l x p M ^ ^ Q ! Q Q ! | } } | ( Y I I W Q Q Q Q Q Q Q W Q Q Q Q Q Q Q Q Q ! ! ! ! ! Q ! ! Q Q ! ! ! ! ! ! ! ! Q Q Q ! ! ! ! ! ! Q U U U U U U U U U U U U U U U U U U U U U U P U I K H F BXKXGXGXGXGXGXJXJXJXJXJXJXJXKXn.>.w.A.oX_.F./.).).).)././.).).).).).'.'.K.].'.K.P.].P.P.U.U.U.U.U.U.U.Y.Y.Y.Y.U.L.U.U.U.U.U.L.U.U.L.U.U.U.U.L.L.U.U.U.U.U.L.L.U.U.U.U.L.L.L.K.K.P.K.L.L.U.U.L.U.U.U.U.U.P.P.P.P.U.Y.P.P.U.Y.Y.Y.Y.Y.Y.Y.Y.Y.U.        ",
"          z.z.z.z.z.z.z.z.z.z.z.z.z.z.z.z.z.z.z.z.z.z.z.z.l.z.z.l.l.l.z.z.z.z.z.l.k.k.l.l.l.l.l.l.l.l.l.l.k.k.k.l.k.v.f.e.y.y.y.y.y.y.y.i.i.y.y.y.y.y.y.y.t.t.t.t.t.t.t.t.t.t.t.t.t.t.t.e.e.e.e.e.e.e.e.e.e.0.0.t.<.%.mXsX,X4X4X4X4X4X4X4X>X4X>X>XsX3Xv l c c c c c c c c c c c c c c c c c c c c c c x c x x x x x x x x x x x c c c c c x x x x x x x x x x x x x x x x x x x x x x x x x x x x x x x x x x x x x x x x x x x x x x x x x x x x x x x x x x x x x x x l l l x x x x x x x x x x x x x x x x x x x x x x x x x x x x x x x x x l l l x x x l l l x x l x x x x l l l x l x x x x x l l x x l l x p c R ^ Q Q Q Q Q Y P Y Y Y Y Y W Q W Q Q Q Q Q Q Q Q Q Q Q Q Q Q Q Q Q Q ! ! ! ! ! ! ! ! ! ! ! ! ! ! ! ! ! ! ! ! ! ! ! ! ! ! U U U U U U U U U U U U U U U U U U U U U P U P P K F F VXKXGXGXGXGXJXJXJXJXJXJXJXJXKX~.>.2.S.oX_.J.).).)./.)././.).).).).).).I.].].'.K.K.K.K.P.P.U.U.U.U.U.U.Y.Y.Y.Y.U.Y.L.U.U.Y.Y.U.U.U.L.L.Y.U.L.L.L.U.U.U.U.U.U.L.L.U.U.L.U.U.U.U.U.U.K.K.L.U.U.U.U.U.U.U.L.Y.U.U.U.P.U.P.P.P.P.P.Y.Y.Y.Y.Y.Y.Y.Y.Y.        ",
"          z.x.z.z.z.z.z.z.z.z.z.z.z.z.z.z.z.z.z.z.z.z.z.z.z.z.z.l.l.z.z.z.z.z.z.z.l.l.l.l.l.l.l.l.l.l.l.l.k.k.k.l.k.l.z.y.y.y.y.y.y.y.y.y.y.y.y.y.y.y.y.y.y.t.t.t.t.t.t.t.t.t.t.t.t.t.t.t.e.e.e.t.t.e.e.e.e.e.2.0.t.&.O SXpX1X4X4X4X4X4X5X4X4X4X4X>XpX3Xv l c c c c c c c c c c c c c c c c c c c c c c x c x x x x x x x x x x x x c x x c x x x x x x x x x x x x x x x x x x x x x x x x x x x x x x x x x x x x x x x x x x x x x x x x x x x x x x x x x x x l x l x x x l x x x x x x x x x x x x x x x x x x x x x x x x x x x x x x x x x x x x x x l l x x x l x x x x l l l l l x x l x x l x l l x x p x ^ ^ W Q Q Q W W Q Y Y Y W W W W Q Q Q Q Q Q Q ! ! Q Q Q Q Q Q Q ! Q ~ ~ Q ! ! ! ! ! ! ! ! ! ! ! ! ! ! ! ! ! ! ! ! Q ! ! Q U P U U U U U U U U U U U U U U U U U U U U P P P K H J VXKXGXGXGXGXJXGXJXJXJXJXJXJXKXkX<.w.S.oX_.J./.).)././.).)./.).).).).).`.`.K.'.].K.K.P.K.U.U.Y.U.U.U.U.Y.Y.U.U.U.U.Y.Y.Y.Y.Y.Y.U.U.U.U.L.L.L.U.U.U.L.U.U.U.L.U.L.L.U.U.U.U.U.U.U.L.L.K.L.L.K.K.U.U.U.U.U.U.U.U.U.P.P.P.P.P.P.U.P.Y.Y.Y.Y.Y.U.Y.Y.Y.        ",
"          z.z.z.z.z.z.z.z.z.z.x.z.z.x.z.z.z.z.z.z.z.z.z.z.z.l.z.l.l.z.z.z.z.z.z.z.z.l.l.l.l.l.l.l.l.l.l.l.l.k.k.k.k.k.z.g.r.y.y.y.y.y.y.y.y.y.y.y.y.y.y.y.y.y.t.t.t.t.t.t.t.t.t.t.t.t.t.t.t.e.e.e.e.e.e.e.e.0.2.2.0.e.&.O SXiX>X4X4X5X4X5X5X5X4X4X>X>XpX3Xv l M c c c c c c c c c c c c c c c c c c c c c c x x x x x x x x x x x c x x c x x c x x x x x x x x x x x x x x x x x x x x x x x x x x x x x x x x x x x x x x x x x x x x x x x x x x x x x x x x x x x l x x x x x x x x x x x x x x x x x x x x l l x x x x x x x x x x x x x x x x x x x x x x x x x x x x l l l l l l l l l l l l l x l l x a l ^ ^ W Q Q W Q Q W Q Q Q W W Q Q W Q Q Q ! Q Q Q ! ! ! Q Q Q Q ~ ! ! ~ ! ! ~ Q Q ! ! ! ! ! ! ! ! ! ! ! ! ! ! ! ! ! ! ! ! W U P P U U U U U U U U U U U U U U U U U U U P P P I H J BXKXFXGXGXGXGXJXGXJXJXJXJXJXKXcX,.0.S.|._.F.).).).)./.).).).).).).).)./.).`.`.'.K.K.P.P.P.U.U.Y.U.U.U.U.U.U.L.U.U.L.Y.Y.U.U.U.Y.U.L.U.U.U.L.L.U.L.L.U.U.U.U.L.U.L.L.U.U.L.L.U.U.U.L.L.L.L.L.K.L.L.U.U.U.U.U.U.P.P.P.P.P.P.P.P.U.P.Y.Y.Y.Y.Y.Y.Y.Y.Y.        ",
"          z.z.z.x.z.z.z.z.z.z.z.z.x.z.z.z.z.z.z.z.z.z.z.z.z.z.l.z.z.z.z.z.z.z.z.z.z.z.l.k.l.l.l.l.l.l.l.l.l.k.k.k.k.k.k.v.s.e.y.y.y.y.y.y.y.y.y.y.y.i.y.y.y.y.t.e.t.t.t.t.t.t.t.y.y.t.t.t.t.t.t.e.e.e.e.e.e.e.0.0.2.0.t.*.-.AXpX>X4X5X4X5X5X5X4X4X>X4X,XiX2Xv l c c c c c c c c c c c c c c c c c c c c c x x x x x x x x x x c x x x x x x c c x x x x x x x x x x x x x x x x x x x x x x x x x x x x x x x x x x x x x x x x x x x x x x x x x x x x x x x x x x x x x x x x x x x x x x x x x x x x x x x x x l l l x x x x x x x x x x x x x x x x l x x x x x x x x l l l l l l l l l l l l l l l l x p z Y ^ W W Q Q W Q W W Q W W W W W Q ! ! Q Q Q Q Q Q Q ! Q Q Q ! Q ~ ! ! ! ! ! ~ ~ ~ ~ ~ ! ! ! ! ! ! ! ! ! ! ! ! ! ! ! ! Q W U U U U U U U U U U U U U U U U U U U U U U Y P P I H K BXKXFXGXGXGXGXGXJXJXJXJXJXJXKXDX<.2.D.|.(.F.^.).^.^.^./.).'.)./.).).)./.`.`.'.].U.K.P.P.U.U.U.U.P.P.Y.Y.P.Y.Y.L.L.U.L.U.L.L.L.U.Y.Y.L.L.L.U.U.U.U.L.U.U.U.U.U.L.U.L.L.U.U.U.L.L.L.U.U.L.L.L.L.L.L.U.U.U.L.K.U.U.Y.P.U.P.P.P.P.P.P.Y.Y.Y.Y.Y.Y.Y.Y.Y.Y.        ",
"          z.z.z.z.z.z.z.z.z.z.z.z.z.z.z.x.z.z.z.z.z.z.z.z.z.z.z.z.z.z.z.l.z.z.z.z.z.z.z.l.l.l.l.l.l.l.l.l.l.l.k.k.k.k.k.l.k.e.y.i.i.y.y.y.y.y.y.y.y.y.y.y.y.y.y.t.e.t.t.t.t.t.t.t.t.t.t.t.t.t.t.t.e.e.e.e.e.e.0.e.0.2.0.r.%.+ ZX9X>X4X4X5X4X5X4X4X4X>X>X,XpX7Xv k c c c c c c c c c c c c c c c c c c c c c x x c x x x x x x c c c c c x x c x x x x x x x x x x x x x x x x x x x x x x x x x x x x x c x x x x x x x x x x x x x x x x x x x x x x x x x x x x x x x x x x x x x x x x x x x x x x x x x x x x l l l x x x x x x x x x x x x x x x x x x l x x x x x x l l l l l l l l l l l l l l l x a z P ^ W Q ! Q Q Q Q W W W W W Q Q Q Q ! Q Q Q Q Q Q ! Q Q ! ! ! ! ! ! ! ! ! ! ! ~ ~ ! ! ~ ! ! ! ! ! ! ! ! ! ! ! ! ! ! ! ! W U U U U U U U U U U U U U U U U U U U U U U U I P I H P BXKXFXGXGXGXGXGXGXGXGXJXJXJXKXPX<.3.{.|.(./.).).).).).).).).)././.)././.).`.[.].].K.U.U.P.P.U.U.P.P.Y.Y.U.Y.Y.U.L.L.U.L.U.U.Y.U.U.L.U.U.U.U.U.U.U.U.U.U.U.Y.U.L.L.U.L.U.U.U.U.U.U.U.U.U.U.L.U.U.L.L.U.U.U.L.L.U.Y.P.P.U.P.P.Y.P.P.Y.Y.Y.Y.Y.Y.Y.Y.Y.Y.Y.        ",
"          z.z.z.z.x.z.z.z.z.z.z.z.z.z.z.x.z.z.z.z.z.z.z.z.z.z.z.l.z.l.l.l.l.z.z.z.z.z.z.z.l.l.l.l.l.l.l.l.l.l.l.k.k.k.k.k.z.f.e.i.i.y.y.y.y.y.y.y.y.y.y.y.y.y.y.y.e.t.t.t.t.t.t.t.t.t.t.t.t.t.t.t.t.e.t.e.e.e.e.e.0.0.2.2.t.%.8.BX9X>X5X4X5X5X5X4X4X4X>X>X>XpX7XM k c n c c c c c n n n c c c c c c c c c c c c c x x x x x x c c c c c c x x x c x x x x x x x x x x x x x x x x x x x x x x x x x x x x x x x x x x x x x x x x x x x x x x x x x x x x x x x x x x x x x x x x x x x x x x x x x x x x x x x x x x x x x x x x x x x x x x x x x x x x x x x x x x l x l l l l l l l l l l l l l l x a s I ^ Y W Q Q Q Q Q Q W W W Q Q Q Q Q Q Q Q Q Q Q Q Q Q Q Q ! ! ! ! ! ! ! ! ! ! ! ! ! ! ! ! ~ ! ! ! ! ! ! ! ! ! ! ! ! / ! W U U U U U U U U U U U U U U U U U U Y Y Y U U Y Y Y H P ZXKXFXGXGXGXGXGXGXGXJXJXJXJXKXLX1.,.|.|.^.^.^.^.).).).).).).).)././././././.`.].].P.K.U.K.P.U.U.U.P.Y.Y.Y.Y.Y.Y.Y.L.L.U.L.L.U.U.L.L.L.U.U.U.U.U.U.U.U.U.U.U.U.U.L.U.U.L.L.U.U.L.U.U.U.U.L.Y.U.U.U.L.L.U.U.U.U.U.U.Y.P.P.Y.U.Y.Y.P.P.Y.Y.Y.P.Y.Y.Y.U.Y.Y.Y.        ",
"          z.z.z.z.x.x.z.z.z.z.z.z.z.z.z.x.z.z.z.z.z.z.z.z.z.z.z.z.l.l.l.l.l.l.z.z.z.z.z.z.z.l.l.l.l.l.l.l.l.l.l.l.k.k.k.k.l.l.y.y.i.y.y.y.y.y.y.y.y.y.y.y.i.y.y.y.y.t.t.t.t.t.t.t.t.t.t.t.t.t.t.t.t.t.t.t.e.e.e.e.0.0.0.2.2.q.%.8.BX8X4X4X4X4X4X4X5X5X4X4X4X>XaXiXM l v c n c c n n n n c c c c c c c c c c c c c c x x x x x c c c c c c c x x c x x x x x x x x x x x x x x x x x x x x x x x x x x x x x x x x x x x x x x x x x x x x x x x x x x x x x x x x x x x x x x x x x x x x x x x x x x x x x x x x x x x x x x x x x x x x x x x x x x x x x l x x x x l x x x l l l l l l l l l l l x k z P ^ Q W Q Q Q ! W W W W W Q Q Q Q Q Q Q Q Q Q Q Q Q Q Q Q Q ! ! ! ! ! ! ! ! ! ! ! ! ! ! ! ! ! ! ! ! ! ! ! ! ! ! ! ! ! ! Y U U U U U U U U U U U U U U U U U U U U Y Y U U Y I H Q FXKXFXGXGXGXGXGXGXGXGXGXGXGXKXKXn.,.}.|.J.^.).).^.^.).).).).).).)././././././.'.P.P.].P.K.K.U.U.U.U.Y.Y.U.Y.Y.Y.Y.Y.Y.U.Y.L.L.L.L.L.U.L.L.U.U.U.U.U.U.U.L.L.U.U.L.L.L.L.L.U.U.U.U.U.U.U.U.L.Y.U.U.U.U.U.U.L.U.U.L.U.Y.U.P.Y.Y.Y.Y.P.P.Y.Y.Y.P.Y.Y.Y.Y.Y.Y.Y.        ",
"          z.z.z.z.z.x.x.x.z.z.z.z.z.z.z.z.z.z.z.z.z.z.z.z.z.z.z.z.z.l.l.l.z.z.z.l.z.z.z.z.z.z.l.l.l.l.l.l.l.l.l.l.k.k.k.k.k.z.h.t.y.y.y.y.y.y.y.y.y.y.y.y.y.y.y.f.i.y.t.t.t.t.t.t.t.t.t.t.t.t.t.t.t.t.t.e.e.e.e.e.e.e.0.0.2.2.0.%.7.BX8X>X4X4X4X4X5X5X5X4X4X4X,XaXiXC k c c n n n n n c c c c c c c c c c c c c c c c x x x c c c c c c c x x x c x x x x x x x x x x x x x x x x x x x x x x x x x x x x x x x x x x x x x x x x x x x x x x x x x x x x x x x x x x x x x x x x x x x x x x x x x x x x x x x x x x x x x x x x x x x x x x x x x x x l l x x x x x x x l x x x x l l l l l l x x k a P ^ W W ! Q Q Q Q Q W W W Q Q Q Q Q Q Q Q Q ! ! ! ! ! ! ! ! ! ! ! ! ! ! ! ! ! ! ! ~ ~ ! ! ! ! ! ! ! ! ! ! ! ! ! ! ! ! ! W U U Y Y U U U U U U U U U U U U U U U U U U U P U J H ( GXKXGXGXGXGXGXGXGXGXGXJXGXJXKXKXn.e.|._.J.^.^.).^.^.).).).).).).).)./././././.'.].K.P.P.P.P.L.U.U.U.U.Y.Y.U.U.Y.Y.Y.Y.L.L.Y.U.Y.L.L.L.Y.U.U.U.U.L.U.L.U.L.L.U.U.U.L.L.L.L.L.L.U.U.L.U.U.U.U.U.Y.U.U.U.U.U.U.L.L.L.L.U.Y.P.P.Y.Y.Y.Y.P.P.Y.Y.Y.Y.Y.Y.Y.Y.Y.Y.P.        ",
"          z.z.z.z.z.z.z.z.z.z.z.z.z.z.z.z.z.z.z.z.z.z.z.z.z.z.z.z.z.l.l.l.l.z.z.z.l.z.z.z.z.z.z.l.l.l.l.l.l.l.l.l.l.k.k.k.k.k.v.y.t.i.i.y.y.y.y.y.y.y.i.i.y.y.y.y.y.i.y.t.t.y.t.t.t.t.t.t.t.t.t.t.t.t.t.e.e.e.e.e.e.e.0.0.0.2.e.w.o 7.ZX8X>X4X5X4X4X4X4X4X5X4X4X>XpXiXC k c n c n c c n c c c c c c c c c c c c c c c c c c c x x c c c c x x x c c x x x x x x x x x x x x x x x x x x x x x x x x x x x x x x x x x x x x x x x x x x x x x x x x x x x x x x x x x x x x x x x x x x x x x x x x x x x x x x x x x x x x x x x x x x x x x x x x l x x x x x x x x x x x l l x x l l l l l l x k s G ^ W Q Q Q ! Q Q Q Q W Q Q Q ! ! ! ! Q Q ! ! ! ! ! ! ! ! ! ! ! ! ~ ! ! ! ! ! ! ! ! ! ! ! ! ! ! ! ! ! ! ! ! ! ! ! / ! Q W Y U U U U U Y Y Y Y U U U U U U U U P U U P P P U J H | JXKXFXGXGXGXGXGXGXJXGXGXJXJXKXKX#Xs.|._.J.H.^.^.^.^.).).).).).).).).)./.)./././.'.].U.P.P.P.P.U.U.U.U.U.U.U.Y.U.Y.Y.Y.U.L.L.U.Y.Y.Y.L.L.L.L.U.U.U.L.U.U.U.L.U.U.U.U.U.U.U.U.L.L.L.L.U.L.L.U.U.U.U.U.U.U.U.L.K.U.U.K.L.Y.Y.Y.Y.Y.Y.Y.Y.Y.Y.Y.Y.Y.Y.Y.Y.Y.Y.P.Y.Y.        ",
"          z.z.z.z.z.z.z.z.z.z.z.z.z.z.z.z.z.z.z.z.z.z.z.z.z.z.z.z.z.z.z.z.z.z.z.z.z.z.z.z.z.z.z.z.l.l.l.l.l.l.l.l.l.l.k.k.k.k.l.k.y.y.i.y.y.y.y.y.y.y.i.i.i.s.y.y.y.y.y.t.t.t.t.t.y.t.t.t.t.t.t.t.t.t.t.t.t.t.e.e.e.e.e.e.0.0.2.e.9.o &XCX2X4X4X5X4X4X4X4X4X4X4X4X,XaXsXA k c n n n n c n c c c c c c c c c c c c c c c c c c x x x c c x c x x x x x x c x x x x x x x x x x x x x x x x x x x x x x x x x x x c x x x x x x x x x x x x x x x x x x x x x x x x x x x x x x x x x x x x x x x x x x x x x x x x x x x x x x x x x x x x x x x x x x x x x x x x x x x x l l l l l x x l x l x k a G ^ W W Q Q ! Q Q Q Q Q Q Q Q Q ! ! ! ! ! ! ! ! ! ! ! ! ! ! ! ! ! ! ~ ~ ! ! ! ! ! ! ! ! ! ! ! ! ! ! ! ! ! ! ! ! ! ! ! W Y Y U U U U U U U U Y Y Y U U U U U U U Y U U Y P P J H o.KXJXFXGXGXGXGXGXGXGXGXGXGXJXKXKX7.d.|._.^.^.^.^.^.^.).).).).).).).)././.).)././.).`.].U.U.U.U.U.U.U.U.P.U.P.Y.Y.Y.U.Y.L.L.U.L.L.Y.U.Y.Y.Y.L.L.U.U.U.U.L.U.U.U.L.L.U.U.U.U.Y.U.L.U.U.L.U.L.L.U.U.L.L.U.L.L.U.L.L.U.U.L.Y.Y.Y.Y.Y.Y.Y.Y.Y.Y.Y.Y.Y.Y.Y.Y.Y.Y.Y.Y.Y.Y.        ",
"          z.z.z.z.z.M.z.z.z.z.z.z.z.z.z.z.z.z.z.z.z.z.z.z.z.z.z.z.z.z.z.z.z.z.z.z.z.l.l.z.z.z.z.z.z.z.l.l.l.l.l.l.l.l.l.k.k.k.k.z.g.r.y.y.y.y.y.y.y.i.i.y.y.s.s.y.y.y.y.i.t.t.t.y.y.t.t.t.t.t.t.t.t.t.t.t.t.t.t.t.e.e.e.e.e.0.0.2.e.w.o &XCX2X>X5X4X4X4X4X4X4X4X4X4X,XaXdX[ l x n M n c n c c c c c c c c c c c c c c c c c c c c c c c c c x x x c x x c x x x x x x x x x x x x x x x x x x x x x x x x x x x x c c x x x x x x c x x x c x x x x x x x x x x x x x x x x x x x x x x x x x x x x x x x x x x x x x x x x x x x x x x x x x x x x x x x x x x x x x x x l l l l l l l l l x k a F ^ Q W Q Q Q Q Q Q Q Q Q Q Q Q Q ! ! ! ! ! ! ! ! ! ! ! ! ! ! ! ! ~ ~ ! ~ ! ! ! ! ! ! ! ! ! ! ! ! ! ! ! ! ! ! ! ! ! ! W U U U Y U U U U U U U Y Y Y U U U U U U P U Y I U P H H 3XKXJXFXGXGXGXGXGXGXGXGXGXGXJXKXKX#Xd.}._.J.^.^.^.^.).).).).).).).).).).)././.)././.'.].U.U.U.U.U.U.U.P.U.U.U.U.U.Y.Y.L.L.L.U.U.U.Y.L.L.Y.Y.Y.L.L.U.L.U.U.L.U.U.U.L.L.L.U.U.L.L.L.L.U.U.U.L.U.U.U.L.L.U.U.L.L.U.L.U.U.L.L.Y.U.Y.Y.Y.Y.Y.Y.Y.Y.Y.Y.L.L.Y.Y.Y.Y.Y.Y.Y.Y.        ",
"          z.z.z.z.z.z.z.z.x.z.z.x.z.z.z.z.z.z.z.z.z.z.z.z.z.z.z.z.z.z.z.z.z.z.z.z.z.l.z.z.z.z.z.z.z.l.z.z.l.l.l.l.l.l.l.k.k.k.k.k.l.s.e.y.y.y.y.y.y.y.y.y.i.s.s.s.s.y.y.f.y.t.t.y.t.t.t.t.t.t.t.t.t.t.t.t.t.t.t.t.e.e.e.e.e.e.0.0.3.e.w.o m.CX0X>X4X4X4X4X4X4X4X4X4X4X,X0XBX#.x x n n n n n n c c c n c c c c c c c c c c c c c c c x x c x x x x x x c c c x x x x x x x x x x x x x x x x x x x x x x x x x x x x x x x x x x x c c c c x c x x x x c c x x x x x x x x x x x x x x x x x x x x x x x x x x x x x x x x x x x x x x x x x c x x x x x x x x x x x x x l l l l x x l x x x k s D ^ Y Q Q Q Q ! Q Q Q Q Q Q Q ! ! ! ! ! ! ! ! ! ! ! ! ! ! ! ! ! ! ! ! ! ! ! ! ! ! ! ! ! ! ! ! ! ! ! ! ! ! / / ! ! ! Q W U Y U U U U U U U U U U U U U U U U U U P P U U U P H H 0XKXGXGXGXGXGXGXGXGXGXGXGXGXJXKXKX~.x.|.^.J.^.^.^.^.).).).).).).).).)./.).)./././././.].].P.P.U.U.U.U.U.U.U.U.L.L.Y.Y.Y.L.L.U.Y.L.Y.Y.U.U.Y.L.L.L.Y.U.L.L.U.U.U.U.U.L.U.U.U.L.L.L.L.L.U.U.L.L.U.U.L.L.U.U.U.U.U.Y.L.L.Y.U.L.Y.Y.Y.Y.Y.Y.Y.Y.Y.Y.Y.Y.Y.Y.Y.Y.Y.Y.Y.Y.Y.Y.        ",
"          z.z.z.z.z.z.z.z.z.z.z.x.x.z.z.z.z.z.z.z.z.z.z.z.z.z.z.z.z.z.z.l.l.l.l.l.z.z.z.z.z.z.z.z.z.l.l.l.l.l.l.l.l.l.l.l.k.k.k.k.l.l.y.y.y.y.y.y.y.y.y.y.i.s.s.y.s.y.y.y.y.y.t.y.y.t.t.t.t.t.y.t.t.t.t.t.t.t.t.t.e.e.e.e.e.0.e.0.0.2.e.0.o 7.CX8X4X5X4X4X4X4X4X4X4X4X4X>X4XNX#.c l c n n n n n n c c c c c c c c c c c c c c c c c c c c c x c c c c c c c x c x x x x x x x x x x x x x x x x x x x x x x x x x x x x x x x x x x c c c c x x c c x c c c x x x x x x x x x x x x x x x x x x x x x x x x x x x x x x x x x x x x x x c c x x x x x x x x x x x x x x x l l l x x x x x k z D ^ Q ! Q Q ! ! Q Q ! Q Q Q ! ! ! ! ! ! ! ! ! ! ! ! ! ! ! ! ! ! ! ! ! ! ! ! ! ! ! ! ! ! ! ! ! ! ! ! ! ! ! / ! ! ! ! W U Y W U U U U U U U U U U U U U U P U U U U U U P U P H T dXKXFXGXGXGXGXGXGXGXGXGXGXJXJXKXKX~.B._.^.G.^.).^.^.).).).).).^.).).).)./.).).).)./././.P.].].P.P.U.U.U.U.U.U.U.U.U.U.Y.Y.Y.U.L.L.Y.U.Y.U.Y.U.L.L.L.Y.L.K.L.L.U.U.U.U.L.L.U.U.U.U.Y.U.L.L.U.U.U.U.U.L.L.U.U.K.U.U.Y.L.L.Y.U.L.Y.Y.Y.Y.Y.Y.Y.Y.Y.Y.Y.Y.Y.Y.Y.Y.Y.Y.Y.Y.Y.Y.        ",
"          z.z.z.z.z.z.z.z.z.z.z.z.x.z.z.z.z.z.z.z.z.z.z.z.z.z.z.z.z.z.z.z.z.l.l.z.z.z.z.z.z.z.z.z.z.z.z.l.l.l.l.l.l.l.l.l.l.k.k.k.k.z.g.e.y.y.y.i.y.y.y.y.y.y.s.y.s.y.y.y.s.f.y.t.t.y.y.t.t.t.t.t.t.t.t.t.t.t.t.t.t.t.e.e.e.e.e.e.e.0.0.e.0.o 7.BX9X>X4X5X4X5X4X4X4X4X4X4X>X>XsX3XM l c n n n n n n c c c c c c c c c c c c c c c c c c c c c c c c c c c c c c x x x c c x x x x x x x x x x x x x x x x x x x x x c c x x x x x x c x x c x c x c x c x x x x x x x x x x x x x x x x x x x x x x x x x x x x x x x x x x x c x x x x x x c x x x x x x x x x x x x x x x x x l x x x k s G R Q Q ! ! Q ! ! Q ! ! Q Q ! ! ! ! ! ! ! ! ! ! ! ! ! ! ! ! ! ! ! ! ! ! ! ! ! ! / ! ! ! ! ! ! ! ! ! ! ! ! / / / ! Q W Y Y W W U Y Y U W U U U U Y Y U U U I U U U U I I Y K H / ZXKXFXFXGXFXGXGXGXGXGXGXJXGXJXKXKX#XB._.^.F.G.G.^.^.).).).).).).^.).).)././.).).)./././.].P.].].].U.U.U.U.U.U.U.U.U.U.U.Y.Y.U.Y.L.L.Y.Y.U.U.Y.U.L.L.L.L.L.L.U.L.L.U.U.U.U.U.U.U.U.U.L.L.U.L.U.U.U.U.U.U.U.U.U.U.L.L.L.L.L.U.U.Y.Y.Y.Y.Y.Y.Y.Y.Y.Y.Y.Y.Y.Y.Y.P.Y.Y.Y.Y.Y.Y.Y.        ",
"          z.z.z.z.z.z.z.z.z.z.z.z.x.z.z.z.z.z.z.z.z.z.z.z.z.z.z.z.z.z.z.z.z.z.z.l.z.z.z.z.z.z.z.z.z.z.z.z.z.l.l.l.l.l.l.l.l.l.k.l.k.k.l.s.t.y.i.i.y.y.y.y.y.y.y.y.y.y.y.y.y.f.y.y.t.y.y.y.y.t.t.t.t.t.t.t.t.t.t.t.t.t.t.e.e.e.e.e.e.e.0.0.e.q.%.7.BX8X4X5X4X4X4X4X4X4X4X4X4X>X,XpXpXA l c n n n c c c c c c c c c c c c c c c c c c c c c c c c c c c c c c c c c c x c c x x x x x x x x x x x x x x x x x x x x x c c x x x x c x x x x c c c c c x x x c c c c c x x x x x x x x x x x x x x x x x x x c c x x x x x x x x x c c x x x x c c x x x x x x x x x x x x x x x x x x x k p G ^ Q W ! ! ! ! ! Q ! ! ! Q Q ! ! ! ! ! ! ! ! ! ! ! ! ! ! ! ! ! ! Q ! ! ! ! ! ! ! / ! ! ! ! ! / / ! ! ! ! ! / ! ! Q U W W W U U U W Y W Y U U U Y Y Y U P U P Y U P P I Y K H o.JXKXFXFXGXGXGXGXGXGXGXGXGXJXJXKXLX8.N.|.^.^.^.^.^./.).).).).^./.).).).)./.).).).).)./././.].].P.U.].U.U.U.U.U.U.U.U.U.U.U.Y.Y.Y.Y.L.L.U.U.Y.U.U.U.U.L.L.L.L.L.U.L.L.Y.U.U.U.U.U.U.U.U.U.L.U.U.U.U.L.U.L.U.U.U.U.U.L.L.L.U.L.L.U.Y.L.Y.Y.Y.Y.Y.Y.Y.Y.Y.Y.Y.Y.P.P.Y.Y.Y.Y.Y.Y.Y.        ",
"          z.z.z.z.z.z.z.z.z.z.z.z.x.x.z.z.z.z.z.z.z.z.z.z.z.z.z.z.z.z.z.z.z.z.z.l.z.z.z.z.z.z.z.z.z.z.z.z.z.l.l.l.l.l.l.l.l.l.l.k.k.k.l.l.y.y.y.y.y.y.y.y.y.y.s.s.s.y.y.y.y.s.f.y.t.t.y.y.y.y.t.t.t.t.t.y.y.y.t.t.t.t.t.t.e.e.e.e.e.e.0.e.2.e.q.%.8.CXiX>X5X4X4X4X4X4X4X4X4X4X4X,XaXsX[ x x n n c c c c c c c c c c c c c c c c c c c c c c c c c c c c c c c x x x x x x x x x x x x x x x x x x x x x x x x x x x x x x x x c c x x x c c c c c c c c c c x x x x c c x x x c x c x x x x x x x x x x x c c x x x x x x x x x c c c c x x x x x x x x x x x x x x x x x x x x x x l s D ^ Q Q ! ! ! ! ! ! Q Q ! ! Q Q ! ! ! ! ! ! ! ! ! ! ! ! ! ! ! ! ! ! ! ! ! ! ! ! ! ! ! ! ! ! ! ! / / / / / / ! ! Q U U W W W W W U U W U U U U U U U U U P U U U U P U P Y H H 1XKXJXFXFXGXGXGXGXGXGXJXGXJXJXGXKXLX+ c.|.^.^.^.^.^.^.).).).).^.^.).).).).)./././.).).).)./.`.U.].P.U.U.].U.L.U.U.U.U.L.U.U.Y.Y.Y.Y.Y.U.Y.Y.Y.Y.Y.L.L.L.L.U.L.L.L.U.L.L.L.L.L.U.U.U.U.U.U.U.U.L.L.L.L.U.U.L.U.U.U.U.K.L.L.U.L.L.L.U.U.L.U.U.U.U.Y.U.Y.Y.Y.Y.Y.Y.Y.Y.Y.Y.Y.Y.Y.Y.Y.        ",
"          z.z.M.z.z.z.z.z.z.z.z.z.z.x.x.z.z.z.z.z.z.z.z.z.z.z.z.z.z.z.z.z.z.z.z.z.z.z.z.z.z.z.z.z.z.z.z.z.l.l.l.l.l.l.l.l.l.l.l.l.k.k.k.v.h.e.y.y.y.y.y.y.y.y.s.s.s.y.y.y.y.y.s.i.y.t.t.y.y.t.t.t.t.t.t.t.t.y.t.t.t.t.t.t.t.e.e.e.e.e.e.2.0.0.0.e.%.-.VXiX4X5X4X4X4X4X4X4X4X4X>X4X>X7XdX#.c l c c c c c c c c c c c c c c c c c c c c c c c c c c c c c c c c c x x x x x x x x x x x x x x x c x x x x x x x x x x x x x x x x x x x x c c c c c x c c c c x x x x x x x x x x c c x x x x x x x x x x x x c x x x x x x x x x c c c c c x x x x x x x x x x x x x x x x x x x x l s D ^ ! Q Q ! Q Q ! ! ! Q ! ! ! ! ! ! ! ! ! ! ! ! ! ! ! ! ! ! ! ! ! ! ! ! ! ! ! ! / ! ! ! ! ! ! ! ! / / / / / / ! W U U U W Y U U U U U W W U U U U U U U U U U U U P P P I F Y dXKXGXFXGXGXGXGXGXGXGXJXJXJXGXJXKXPXO 4.oX^.^.^.(.^.).).).).).^.^./.).).).).)./.`.`.)./.)././.'.U.U.P.U.].].U.U.U.U.U.U.L.U.U.Y.U.L.Y.U.Y.Y.L.L.Y.Y.L.L.L.U.U.L.L.L.U.L.L.L.L.L.L.L.L.L.L.U.U.U.U.L.L.L.U.U.U.U.U.U.U.K.L.L.U.L.L.L.U.U.L.U.U.U.Y.Y.U.U.Y.Y.Y.Y.Y.Y.Y.Y.Y.Y.Y.Y.Y.Y.        ",
"          z.z.z.z.z.z.z.z.z.z.z.z.z.z.z.x.z.z.z.z.z.z.z.z.z.z.z.z.z.z.z.z.z.z.z.z.z.z.z.z.z.z.z.z.z.z.z.z.l.l.k.l.l.l.l.l.l.l.k.k.l.k.k.k.z.f.e.i.i.y.i.y.y.i.y.s.s.y.y.s.y.y.i.y.y.y.t.t.y.y.t.t.t.t.t.t.t.t.t.t.t.t.t.t.t.t.e.e.e.e.e.e.0.2.0.e.e.%.-.SXpX>X4X5X4X4X4X7X4X4X4X4X>X>X>XsX3XM k x c c c c c c c c c c c c c c c c c c c c c c c c c c c c c c c c x x c c c x x x x x x x x x x x x x x c c c x x x x x x x x x x x x x c c c c x x x x x c c x c c x x x x x x c c c x x x x x x x x x x x x x x x x x x x x x x x x x c c c c c c c c c x x x x x x x x x x x l s V ^ Q ! ! ! ! Q Q Q ! ! Q ! ! ! ! ! ! ! ! ! ! ! ! ! ! ! ! ! ! ! ! ! ! ! ! ! ! ! ! / / / ! ! ! ! ! ! ! / / ! ! Q W U U U W U U Y Y W W W W W U U U U U U U U U U U U P U J H | GXKXFXGXFXGXGXGXGXGXGXGXGXGXGXJXKXIXo 4.oX^.G.^.).^.).).).).^.).)./.).).).).).).).'.'.)././././.].U.U.P.U.].U.U.U.U.U.U.U.U.L.U.U.Y.L.L.Y.U.L.L.L.Y.Y.L.L.L.L.L.L.L.L.Y.L.L.L.L.L.L.L.L.L.L.U.U.U.U.U.L.L.U.U.U.L.U.U.U.P.L.L.U.L.L.L.U.U.L.U.U.Y.Y.Y.Y.Y.Y.Y.Y.Y.Y.Y.Y.Y.Y.Y.Y.Y.Y.Y.        ",
"          z.z.z.z.z.z.z.z.z.z.z.M.z.z.z.z.z.z.z.z.z.z.z.z.z.z.z.z.z.z.z.z.z.z.z.z.z.z.z.z.z.z.z.z.z.z.z.z.z.l.l.l.l.l.l.l.l.l.l.l.l.l.l.k.l.l.y.y.i.i.i.y.y.s.y.i.i.i.y.s.y.i.i.y.y.y.y.t.y.y.t.y.t.t.y.t.t.t.t.t.t.t.t.t.t.t.t.t.e.e.e.e.e.0.0.0.0.t.;.-.MXdX7X4X7X5X5X7X4X4X4X4X4X4X>X,XsX9XE l l c c c c c c c c c c c c c c c c c c c c c c c c c c c c c c c c c c c c c c x x x c x x x x x x x x c c c c x x x x x x x x x x x c c c c x x x x x x x x x c c c c x x c c c c c x c x x x x x x x x x x x x x x x x x x x x x x c c c c c c c c c x c x x x x x x x x x x p B R Q Q ! ! ! ! ! ! ! Q Q Q ! ! ! ! ! ! ! ! ! ! ! ! ! ! ! ! ! ! ! ! ! ! ! ! ! ! ! / / / ( / ! ! ! ! ! ! ! ! Q W U U U U U W W W W U U W W U U W U U U U U U U U U I P U H H o.KXKXZXFXFXFXFXGXGXGXGXGXJXGXJXJXKXkXo 5.oX_.^.^.^.^.).).).^.^./.)./.H.).).).).).).).'.'.'.)./.'.].U.U.U.U.U.P.].U.U.U.U.U.U.U.L.K.U.U.L.L.L.Y.Y.Y.L.L.Y.L.L.L.L.L.L.L.L.Y.L.L.L.L.L.L.U.U.U.U.L.L.L.U.U.Y.L.U.U.L.L.U.L.U.U.L.L.L.L.L.U.U.U.U.Y.U.U.Y.Y.Y.Y.Y.Y.Y.Y.P.Y.Y.Y.Y.Y.Y.Y.Y.Y.        ",
"          z.z.z.z.z.z.M.M.z.z.z.M.z.z.z.z.z.z.z.z.z.z.z.z.z.z.z.z.z.z.z.z.z.z.z.z.z.z.z.z.z.z.z.z.z.z.z.z.z.l.l.l.l.l.l.l.l.k.l.l.k.k.k.l.k.l.l.y.y.y.y.y.y.s.s.i.y.y.y.s.y.y.y.s.f.f.y.y.t.y.t.y.y.t.t.t.t.t.t.t.t.t.t.t.t.t.t.t.t.e.e.e.e.e.e.0.0.0.p.;.*.qXBX9X4X4X4X4X4X4X4X4X4X>X4X4X,XaXpX[ v k c c c c c c c c c c c c c c c c c c c c c c c c c c c c c c c c c c c c c c c c x c c c c x c x c c c c c c c x x x x x x x x x x x c x x c x x x x x x x c x x x x c x x c x x c c x c c x x x x x x x x x x x x x x x x x x c c c x x c x c c x x c x x c x c x x x x a N R ^ ! ! ! ! ! ! ! ! ! ! ! Q ! ! ! ! ! ! ! ! ! ! ! ! ! ! ! ! ! ! ! ! ! ! ! ! ! ! ! / ! ! / / / / ! / / ! Q U U U U U U W U U U U W W W W U W U W U U U U U U U U I U P H Q sXKXGXFXFXFXFXGXGXGXGXGXGXGXJXGXJXKXkXo 5.oX_.G.^.^.^.^.^.)./.^./.)./.`.'././././.).)././.`.'.'.'.P.].].P.U.U.U.P.U.U.U.U.U.U.U.L.L.U.L.L.L.L.L.L.Y.Y.U.L.Y.L.L.L.L.L.L.L.L.U.L.L.L.L.L.L.U.L.L.U.L.L.L.L.L.L.U.U.U.L.U.U.U.U.L.L.L.L.L.L.U.U.U.Y.Y.Y.Y.Y.Y.Y.Y.Y.Y.Y.K.Y.Y.Y.Y.Y.Y.Y.Y.Y.Y.        ",
"          z.z.z.z.M.z.z.z.z.z.z.z.z.z.z.z.z.z.z.z.z.z.z.z.z.z.z.z.z.z.z.z.z.z.z.z.z.z.z.z.z.z.z.z.z.z.z.z.z.z.l.l.l.l.l.l.l.l.l.l.l.l.k.l.l.k.z.k.y.y.y.y.y.s.y.i.y.y.y.y.s.s.s.s.s.f.i.y.t.t.y.t.y.t.t.y.t.t.t.t.t.t.t.t.t.t.t.t.t.t.e.e.e.e.e.e.0.0.2.t.>.o &XCXiX>X>X4X5X4X5X4X4X4X4X>X>X4X4XiX@.M z x c c c c c c c n n c c c c c c c c c c c c c c c c c c c c c c c c c c c c c x c c c x x x x x c c x x x x x x x x x x x x x x c c c c c c x x x x x x x x x x x c c c x x x x c c x x x x x x x x x x x x x x x x x c x x c c c c x x x x x x x x c c c c x x x x a m ^ ^ ! ! ! ! ! ! ! ! ! ! ! ! Q ! ! ! ! ! ! ! ! ! ! ! ! ! ! ! ! ! ! ! ! ! ! ! ! ! ! ! ! ! ! ! / / / ( / ! Y U U U U U U U U W W U W W W W U U U U U U U W U U U U U Y J H | GXKXFXFXFXFXFXGXGXGXGXGXGXJXGXGXKXKX7.o =.oX|.G.(.^.^././.)./.F.).).F.K.K.`././.`./././.).'./././.'.].].].P.U.U.U.U.U.U.U.U.U.U.U.L.L.U.Y.L.L.L.L.L.Y.L.Y.Y.Y.L.L.Y.Y.L.L.U.L.L.L.L.L.L.L.L.L.L.L.L.L.L.U.Y.L.L.L.U.U.U.U.U.U.L.U.L.L.L.L.L.Y.U.L.L.Y.U.Y.Y.Y.Y.Y.Y.Y.Y.Y.Y.Y.Y.Y.Y.Y.Y.Y.Y.Y.        ",
"          z.z.z.z.M.z.z.z.z.z.z.z.z.z.z.z.z.z.z.z.z.z.z.z.z.z.z.z.z.z.z.z.z.z.z.z.z.z.z.z.z.z.z.z.z.z.z.z.z.z.l.l.l.l.l.l.l.l.l.l.l.l.k.k.l.k.l.v.f.y.i.y.y.y.y.i.i.y.y.y.y.s.s.y.s.y.y.y.y.t.t.t.t.t.t.y.y.y.t.t.t.t.t.t.t.t.t.t.t.e.e.e.e.e.0.0.0.0.0.2.e.,.o 7.FXsX1X4X5X4X4X4X4X4X4X>X4X4X>X>XiX2XE k l n c c c c c c n n n c c c c c c c c c c c c c c c c c c c c c c c c c c c c c c c c c c c c c c c c c c c c c c x c c c c c c c c c c c c x x x c c x x c x c c c c c c c c c c c c c x c x x c x x x x x x x x x c c c c c c c c x x x x x x x x x c c x x x k M ^ ^ ! ! ! ! ! ! ! ! ! ! ! ! ! ! ! ! ! / ! ! ! ! ! ! ! ! ! ! ! ! ! ! ! ! ! ! / / / / ! ! ! ! / ( ( / Q Y P P U U U U Y U U U U U W W W W W U U U U U U W U U U U U P H H 1XKXJXZXFXFXZXFXGXGXGXGXGXGXGXJXJXKXPX8.o =.|.|.F.^.^.^.^.).F.H.H.F.K.H.H.`.F.`.`././.'.'././.).`././.P.].].P.U.U.U.U.U.U.U.U.U.U.L.U.L.L.L.Y.U.U.U.L.L.L.Y.U.U.U.U.Y.Y.Y.L.U.U.L.L.L.L.L.L.L.L.L.L.L.L.L.L.L.L.L.U.L.U.U.U.U.U.U.L.U.L.L.L.L.L.U.U.L.Y.Y.U.Y.Y.Y.Y.Y.Y.Y.Y.Y.Y.Y.Y.Y.Y.Y.Y.Y.Y.Y.        ",
"          z.z.z.z.z.z.z.z.z.z.z.z.z.z.z.z.z.z.z.z.z.z.z.z.z.z.z.z.z.z.z.z.z.z.z.z.z.z.z.z.z.z.z.z.z.z.z.z.z.z.z.l.l.l.l.l.k.l.l.l.l.l.l.k.k.l.k.l.z.s.y.i.i.y.y.s.i.y.y.y.y.y.s.y.y.y.y.y.i.y.t.t.t.t.t.y.y.y.t.t.t.t.y.t.t.t.t.t.t.t.e.e.e.e.e.0.e.4.0.0.0.e.w.%.8.AXsX1X7X0X5X5X5X4X4X4X4X>X>X>X,X9XpX#.v l n n n n n n m m m n n m m m m m n n n n n n n n n n m n m m n n n n n n n n n n n n n n n n n n n n m m m n n n n n n n n n m m m m n n n n n n n n n n n n n n m m m m n n n n n n n n n n m n n n n n n n n n n n n n n n n n n n n n n n n n n n c n c l m R ^ ! ! ! ! ! ! ! ! ! ! ! ! ! ! ! ! ! ! ! ! ! ! / ! ! ! ! ! ! / ! ! / ! ! ! ! / ! / ! / / / / / ! ! W U P I U U U U Y Y U U U U W W W W W U U U U U U U U U U Y Y J F ( VXKXGXZXFXFXFXFXGXFXGXGXGXGXGXGXJXKXnX=.%.=.P.|.J.^.).(.)././.).I.H.K.K.F./.`.`./.`.'.`./.'.`././.'./.`.].P.].P.U.U.U.U.U.U.U.U.U.U.U.U.U.U.L.Y.U.U.Y.L.L.L.L.L.U.U.U.Y.Y.L.L.Y.Y.L.L.L.L.L.L.L.L.L.L.L.L.L.L.L.U.Y.U.U.L.U.U.U.U.L.L.L.L.L.L.L.L.U.U.U.U.Y.U.P.Y.Y.Y.Y.Y.Y.Y.Y.Y.Y.Y.Y.Y.Y.Y.Y.Y.Y.        ",
"          z.z.z.z.z.z.z.z.z.z.z.z.z.z.z.M.M.z.z.z.z.z.z.z.z.z.z.z.z.z.z.z.z.z.z.z.z.z.z.z.z.z.z.z.z.z.z.z.z.z.z.l.l.l.l.l.l.k.k.l.l.l.l.l.k.k.k.k.z.l.y.y.i.i.y.y.i.i.y.y.y.i.y.s.y.y.i.i.i.y.y.t.y.y.t.t.t.t.y.t.y.y.t.t.t.t.t.e.t.t.t.t.e.e.e.e.e.e.e.0.0.0.e.q.*.-.mXpX1X4X0X5X4X4X5X4X4X4X4X>X>X>X7XsX1XC x n N m m m m m m m m m m m m m m N N N N m m m m m m m m m m m m m m m m m m m m m m m m m m m m m m m m m m m m m m m m N N N N N N N N N N m m m m m m m N N N N m m N N N m m m m m m m m m m m m m m m m m m m m m m N N N N m m N N N m N N m m m x B ^ ^ ! ! ! ! ! ! / / ! ! ! ! ! ! ! ! ! ! ! ! ! ! ! ! ! ! ! ! ! ! ! ! ! / ! ! ! ! / / / ! / / ( / Q W U U U U U U U U U Y U U U U W W W U W U U U U U U Y I U Y Y I H H 3XJXJXZXFXFXFXFXFXFXFXGXGXGXGXGXGXKXKXkX&.&.=.T.oXG.^.).).^.).).`.`./.F././.`./././.'./.'.K./.'.'./././.K.K.'.P.].P.P.U.Y.U.U.U.U.U.U.U.U.U.U.U.U.U.Y.Y.U.L.L.L.L.L.Y.U.Y.L.L.U.L.L.L.Y.L.L.L.Y.Y.L.L.U.U.U.U.L.L.L.U.U.L.U.U.U.U.U.L.L.L.L.L.L.L.L.L.L.U.U.L.U.Y.Y.Y.Y.Y.Y.Y.Y.Y.Y.Y.Y.Y.Y.Y.Y.Y.Y.Y.Y.        ",
"          M.z.z.z.z.z.z.z.z.z.z.z.z.z.z.M.M.z.z.z.z.z.z.z.z.z.z.z.z.z.z.z.z.z.z.z.z.z.z.z.z.z.z.z.z.z.z.z.z.z.z.z.z.l.l.k.k.l.k.l.l.l.l.l.l.k.k.k.l.v.h.t.y.i.i.i.i.y.y.y.y.i.y.s.s.s.s.s.f.i.i.y.t.y.t.t.t.t.t.t.y.y.t.t.t.y.t.e.t.t.e.e.e.e.e.e.e.e.e.e.e.0.2.4.t.;.*.kXBX8X4X5X4X4X4X4X4X4X4X4X4X4X>X>XiXiX[ n c m m m m m N m N m m m m m m N N N N m m m m m m m N N m m m m m m m m m m m m m m m m m m m m m m m m m m m m m m m m m N N N m N N N m m m m m m m m m m N m m m m N N m m m m m m m m m m m m m m m m m m m m m m N N m m N m m m N m N m m N c B R ^ ! ! ! ! ! ! / / / ! ! ! ! ! ! ! ! ! ! ! ! ! ! ! ! ! ! ! ! ! / ! / / ! ! / ! ! / / / / / ! Q U U U U U U U U U U U U Y U U U U W W W W W U U U U U U Y U U U H H ( BXKXGXCXFXFXFXFXFXFXFXFXGXGXGXGXJXKXLX7.&.>.&.B.oX^.G.).).).).).K.K.K././././.`.'.'./.'.K.`.'.)./././././.`.`.I.].].P.L.L.U.U.U.U.U.U.U.U.U.U.L.L.Y.Y.U.Y.U.L.L.L.L.L.L.Y.Y.L.L.Y.L.L.L.U.L.L.U.U.Y.Y.L.L.U.U.U.L.L.L.L.L.U.U.U.U.U.U.L.L.L.L.Y.Y.L.L.L.L.U.P.K.U.Y.Y.Y.Y.Y.Y.Y.Y.K.P.Y.Y.Y.Y.Y.Y.Y.Y.Y.Y.        ",
"          M.Z.z.z.z.z.z.z.M.z.z.z.z.z.z.M.M.M.z.z.z.z.z.z.z.z.z.z.z.z.z.z.z.z.z.z.z.z.z.z.z.z.z.z.z.z.z.z.z.z.z.z.z.z.l.l.l.l.l.k.l.l.l.l.l.k.k.l.l.l.v.f.t.i.y.y.y.y.y.y.y.y.y.y.y.s.s.s.i.f.f.i.y.t.y.t.t.t.t.t.t.y.t.t.t.t.y.y.t.t.t.t.t.t.t.t.e.e.e.e.0.0.0.0.4.t.<.%.7.CXiX1X0X7X7X4X4X4X4X4X4X4X4X4X>X7XsX3XG n n m m m m m m N N m m N N m m m m m m m m m m N N N m m m m m m m m m m m m m m m m m m m m m m m m m m m m m m m m m N N N m m m m m m m m m m m m m N N m m m m m m m m m m m m m m m m m m m m m m m m m m m m N m m m m m m m m m m m m c B ^ ^ ! ! ! ! ! ! ! / / / ! ! ! ! ! ! ! ! ! ! ! ! ! ! ! ! ! ! ! ! ! / ! / / / ! / / / / / / / Q Y P U U U U U U Y U U U U U U U U U W U U W W U U U Y U Y I U W I H I 3XJXJXZXFXFXFXFXFXFXFXFXGXFXGXGXGXJXKXIX-.&.3.=.N.oX(.G.^.).).).I.K.F././././././.`.'.).F.K.K.`.'.'././.)./.F.`.[.P.P.P.P.U.L.U.U.U.U.U.U.U.U.U.L.L.L.U.Y.Y.Y.Y.Y.L.L.L.L.L.Y.U.U.Y.Y.Y.L.L.L.L.U.L.U.Y.Y.U.U.U.U.L.L.L.L.L.U.U.U.L.L.U.U.U.L.L.L.L.L.L.L.L.L.U.P.K.U.Y.Y.Y.Y.Y.Y.Y.Y.P.Y.Y.Y.Y.Y.Y.Y.Y.Y.Y.Y.        ",
"          M.M.M.z.z.z.z.z.z.z.z.z.z.z.z.z.z.z.z.z.z.z.z.z.z.z.z.z.z.z.z.z.z.z.z.z.z.z.z.z.z.z.z.z.z.z.z.z.z.z.z.z.z.z.z.z.l.l.l.k.l.l.l.l.v.l.k.k.k.l.z.z.y.t.y.y.y.y.y.y.y.y.y.y.y.s.s.i.y.y.s.y.y.y.t.t.t.t.y.t.y.y.y.t.y.y.y.y.y.t.t.t.t.t.t.t.t.e.e.e.0.e.0.0.0.0.e.,.%.8.AXsX8X7X5X7X7X4X4X5X4X4X4X4X7X1X>XpXpX[ M c m N m m m m N m m m N m m N N m m N N N N N N N m m m m m m m m m m m m m m m m m m m m m m m m m m m m m m m m m m m m m m m N m N m m m m m m m m N m N m m m m m m m m m m m m m m m m m m m m m m m m m m N N m m N m m m m N m m n B R ^ ! ! ! ! ! ! ! ! ! ! / ! ! ! ! / ! ! ! ! ! ! ! / / / ! ! ! ! ! / / ! / / / / / / / ! ! Q Y U U U U U U U U U Y Y Y Y U U U U U U W U U W U U U U Y Y Y I Y K H | CXKXFXZXFXFXFXFXFXFXFXFXFXGXGXGXGXJXKXkX*.&.2.>.c.oX_.^.F.).)./.)././.F.K.K.K.`.'.H.F.`./.K.K.I././././././.`.'.[.K.P.U.K.K.P.U.Y.U.U.U.U.U.U.U.L.L.U.U.U.Y.Y.L.L.L.U.L.L.L.Y.Y.U.L.Y.Y.Y.L.L.L.L.U.L.L.L.L.U.U.U.L.L.L.L.U.U.L.L.U.U.U.U.L.L.L.L.L.L.L.L.L.U.L.L.U.U.U.Y.Y.U.Y.Y.Y.Y.Y.Y.Y.Y.Y.Y.Y.Y.Y.Y.Y.Y.Y.        ",
"          M.M.M.M.z.z.z.z.z.z.z.z.z.z.z.z.z.M.M.z.z.z.z.z.z.z.z.z.z.z.z.z.z.z.z.z.z.z.z.z.z.z.z.z.z.z.z.z.z.z.z.z.z.z.z.z.l.l.l.l.k.l.l.l.l.l.l.k.k.k.l.z.l.t.y.y.y.y.y.y.y.y.s.y.y.s.y.s.y.y.y.y.y.i.y.t.t.t.t.y.y.t.t.t.t.t.y.t.y.y.y.t.t.t.t.t.t.e.e.e.e.e.e.0.0.0.0.e.0.*.-.mXdX8X4X0X4X4X5X5X5X4X4X4X4X4X1X,X0XdX3XE c n N N N m m m m m N m m N N N N m N N N N N m m m m m m m m m m N N m m N N N m m m m m m m m m m m m m m m m m m m m m N N N N N m m m m m m m m m m m m N N N N m m m m m m m m m m m m m m m m m m m N N N m m m m m m m m m m c B R ^ ! ! ! ! ! ! ! / / ! ! ! ! ! ! ! ! ! ! ! ! ! / / / / ! / / / / / / / / / / / / / ! ! W W U U U U U U Y Y U P Y Y U Y Y Y U U U U U U U W U U U U U Y U U J H I 0XJXJXZXZXFXFXFXFXFXGXFXFXFXFXGXGXJXKXKXm.o <.4.&.4.oX|.F.).).).).).H./.F.F.F.K.K.`.`.`.`.`.'.K.K.K.`./././././.'.].].P.U.U.U.L.L.U.U.U.L.U.Y.U.U.U.L.L.Y.U.U.Y.L.L.U.U.U.U.L.Y.Y.L.L.Y.U.U.Y.L.L.U.L.L.L.L.L.L.L.Y.L.L.L.L.L.U.U.L.L.U.U.U.U.U.U.U.L.L.U.U.U.U.U.U.U.P.P.U.Y.Y.P.Y.Y.Y.Y.P.Y.Y.Y.Y.Y.Y.Y.Y.Y.Y.Y.Y.        ",
"          M.M.M.M.M.M.z.z.z.z.z.z.z.z.z.z.M.z.z.z.z.z.z.z.z.z.z.z.z.z.z.z.z.z.z.z.z.z.z.z.z.z.z.z.z.z.z.z.z.l.z.z.z.z.z.z.l.l.l.l.l.l.l.l.l.l.l.k.l.l.l.k.v.k.e.y.y.i.y.s.y.y.s.s.y.s.s.s.y.y.y.y.y.y.y.t.t.y.t.y.y.t.t.t.t.y.y.y.y.y.y.r.t.t.t.t.t.t.t.e.e.e.e.e.e.0.0.0.0.t.>.%.$XBXiX>X7X5X4X7X4X4X4X4X4X4X4X4X>X>XsXsX#.V x m N m m m m N N m m N N N N m m N N N N N m m m m N m m N N N N m N N N N m m m m m m m m m m m m m m m m m m m m m m m m N m m m m m m m m N m m m m N N m N m m m m m m m m m m m m m m m m m m m N N N N m m m m m m m m c m ^ ) ! ! / ! ! ! ! ! / / ! ! ! ! ! ! ! ! ! ! ! / / / / / / / / / / / / / / / / / ! ! Q W U U U U U Y U U Y Y Y Y U U U Y U U Y U Y U U U U U U W W U Y W W Y H H | CXKXFXFXZXFXFXFXFXFXFXFXFXFXFXGXGXJXKXPX8.*.,.3.=.5.XX|.G.).'.).).)./.I.`.F.F.K.K.K./.`.'.'./.'.I.K.].`./././././.`.'.].P.U.U.U.U.U.Y.U.U.U.U.U.U.U.L.L.U.U.L.U.Y.L.L.U.L.U.U.Y.Y.L.L.L.Y.U.U.Y.L.Y.Y.L.L.L.L.L.L.L.L.L.L.L.U.U.U.U.U.U.U.U.U.U.U.U.U.U.L.L.L.L.L.U.U.U.K.P.P.Y.Y.P.Y.Y.Y.Y.P.Y.Y.Y.Y.Y.Y.Y.Y.Y.Y.Y.Y.        ",
"          M.M.M.M.M.M.M.z.z.z.z.z.z.z.z.z.z.z.z.z.z.z.z.z.z.z.z.z.z.z.z.z.z.z.z.z.z.z.z.z.z.z.z.z.z.z.z.z.z.z.z.z.z.z.z.z.z.l.k.l.l.l.v.v.v.l.l.l.l.l.l.k.l.v.h.e.y.i.i.y.y.s.s.y.y.y.y.s.y.y.y.i.y.y.y.y.t.t.t.y.y.y.t.t.y.y.y.t.t.y.y.y.t.y.y.t.t.t.t.e.e.t.e.e.e.e.0.0.0.0.e.,.%.8.SXNX8X7X7X0X7X0X5X7X7X4X4X4X7X4X>X7XsX9X[ c c m N m m m m m m N N N N N m N N N N N N N N N N m m m m N N m N N m N m N N m m m m m m m m m m m m m m m m m m m m m m m m m m m m N N m N m m N N N N N N m m m m m m m m m m m m m m m m N m m m N N N m m m m m m n m ^ ) ! / / ! / ! ! ! ! ! / ! ! ! ! ! / / / / / / / / / / / / / / / / / ( / / ! ! ! W U U U U U U U Y Y Y Y Y U U Y U U U U Y U U U U U U U U U U W W W W W J H ( sXKXJXZXFXZXFXFXFXFXFXFXFXFXFXFXGXGXKXKXUX=.&.2.2.>.5.XX|.J.).).).).)././.F.K.K.K.'.K.K./.'.'.`.`.'.'.K.K./.)./.`.`./.F.`.].P.U.U.U.U.U.Y.U.U.U.U.L.U.L.L.U.U.U.U.U.U.L.L.U.U.L.U.Y.L.L.Y.U.Y.Y.L.L.L.Y.Y.L.L.L.L.L.L.L.L.L.Y.Y.U.U.U.U.U.U.L.U.U.U.L.U.U.U.L.L.L.L.L.U.U.L.P.U.P.U.P.Y.Y.Y.Y.P.P.Y.Y.L.Y.Y.Y.Y.Y.Y.Y.Y.Y.        ",
"          z.M.M.M.M.M.M.M.z.z.z.z.z.z.z.z.z.z.z.z.z.z.z.z.z.z.z.z.z.z.z.z.z.z.z.z.z.z.z.z.z.z.z.z.z.z.z.z.z.z.z.z.z.z.z.z.z.z.l.l.l.l.l.l.l.l.l.l.l.k.l.l.k.l.v.f.t.y.y.y.y.y.s.y.y.y.y.y.y.y.y.i.y.y.y.y.y.t.t.t.y.y.y.y.y.t.t.t.t.t.y.y.y.t.y.t.t.t.t.t.t.t.t.t.e.e.e.0.0.0.0.0.0.*.-.%XCXiX7X0X0X0X0X5X4X4X7X7X4X4X4X4X,XaXsX@.A c c m m m m m m m m m m N N N N N N N N N N N N m m m m m m N N m m m m N N m m m m m m m m m m m m m m m m m m m m m m m m N m m m m m m m N m N N N N N N m m m m m m m m m m m m m m m N m N m m N N N m m m m m c M Q ) ! ! ! / / / ! ! ! ! / / ! ! / / / / / / / / / / / / / ( / / / / / ( / ! ! W U U U U U U U U U U Y Y Y U Y Y U U U Y U U U U U U U U U U U U U U U W P H Y 3XGXJXZXCXZXZXFXFXFXFXFXFXFXFXFXFXFXJXKXKX7.o >.2.3.>.<. XoXJ.).).(.(.).'./.`./.K.K.K.'.K.K././.`.F./.`.K.K.`././././.`.K.K.P.P.P.U.U.U.U.U.U.U.U.U.U.L.L.L.L.Y.U.U.L.U.Y.L.L.U.U.U.L.L.U.U.L.U.U.U.U.Y.L.L.Y.Y.L.L.L.L.L.L.L.L.L.U.Y.Y.Y.U.U.U.L.U.U.U.L.U.U.U.L.L.U.L.L.Y.Y.U.P.P.P.P.U.Y.Y.Y.Y.Y.Y.Y.Y.Y.Y.Y.Y.Y.Y.Y.Y.Y.Y.        ",
"          M.z.M.M.M.M.M.M.z.z.z.z.z.z.z.z.z.z.z.z.z.z.z.z.z.M.z.z.z.z.z.z.z.z.z.z.z.z.z.z.z.z.z.z.z.z.z.z.z.z.z.z.z.z.z.z.z.z.z.l.l.l.l.l.l.l.l.l.l.l.l.l.l.k.l.v.s.e.s.y.i.y.y.s.i.y.y.y.y.y.y.y.y.y.y.y.y.y.t.y.y.y.y.y.y.t.y.y.y.t.t.t.y.t.y.y.y.t.t.t.t.t.t.t.e.e.e.e.e.e.0.0.0.e.>.o 7.BXsX7X0X0X0X5X5X5X4X7X5X4X7X4X4X4X1XpXpX#.M x n m m m m m m m m N N m N N N N N N m m N N N N N N m N N N m m m N m m m m m m m m m m m m m m m m m m m m m m m m N N N m m m m m m m N N N N N m m m m m m m m m m m m m m m m N N m m m m N N m m m m N c m Y ) ! ! ! ! ! ! ! ! ! ! / / ! ! / / / ! ! / ( ( ( ( ( ( ( ( ( ( ( ( / ! ! W U U U U U U U U U U U U Y Y Y U U Y Y U Y Y Y Y U U U U U U U U W Y Y U W I H H o.CXJXFXZXZXZXZXZXFXFXFXFXFXFXFXFXGXFXJXKXUX-.*.3.2.3.<.=.].oXJ.).).).).).)./.K.`.`.F.`.K.`.`.K.'./.K.`./.'.'.`././././././.`.'.P.U.U.U.U.U.U.U.U.U.U.U.L.L.L.L.L.L.U.U.L.U.Y.L.L.L.Y.L.L.L.Y.U.L.U.Y.U.U.Y.L.L.U.Y.L.L.L.L.L.L.L.L.U.U.L.U.U.U.U.U.U.U.U.U.U.U.U.U.L.U.U.L.L.U.U.U.L.P.P.Y.P.P.Y.Y.Y.Y.Y.Y.Y.Y.Y.Y.Y.Y.Y.Y.Y.Y.Y.        ",
"          M.M.M.Z.M.M.M.Z.M.z.z.z.z.z.z.z.z.z.z.z.z.z.z.z.M.M.z.z.z.z.z.z.z.z.z.z.z.z.z.z.z.z.z.z.z.z.z.z.z.z.z.z.z.z.z.z.z.z.z.z.l.l.l.l.l.l.l.l.l.l.k.l.l.k.l.z.z.y.t.i.f.i.y.y.y.y.y.y.s.s.s.s.s.y.s.y.y.y.y.t.y.t.y.y.y.t.t.y.y.t.t.t.t.y.t.y.y.t.t.t.t.t.t.t.t.t.e.e.e.e.e.0.0.0.e.w.*.-.mXBX9X4X0X7X0X0X7X4X4X7X4X4X4X4X4X,X0XsX9XE n x n m m m m m m N N m m m N N N N N N N N N m N N N N N N N m m m m m m m m m m m m m m m m m m N m m m N m m m m m N N m m m m m m m N m N N m N N m m m m m m m m m m m m m m N N m m N m N N N N m m c m R ) ! ! ! ! ! ! ! / ! ! / / / / / / / / / / / / ( ( ( ( ( ( ( ( / ! ! Q U U U U U U U U U U U U U U U Y Y Y U Y Y U Y Y Y Y U U U U U U Y U U Y W W U H H ( dXKXGXZXZXZXZXZXZXFXZXFXFXFXFXFXGXFXGXKXJX7.*.>.0.3.2.,.=.P.oXF.).).).).).)././.K.K.K.K.K.K././.K.'.'.I.'.K.`.`.`.`.`./././.'.`.P.U.P.P.U.U.U.U.Y.U.U.U.L.L.Y.U.L.L.L.U.U.U.U.Y.U.L.L.L.L.L.L.L.U.U.Y.U.U.Y.Y.L.L.L.L.L.L.L.L.L.L.L.L.U.U.L.L.U.U.U.U.U.U.U.U.U.U.L.L.U.U.L.L.L.L.L.U.L.P.P.P.P.P.U.P.P.Y.Y.Y.Y.Y.Y.Y.Y.Y.Y.Y.Y.Y.Y.        ",
"          z.z.z.z.z.M.M.Z.M.z.z.z.z.z.z.z.z.z.z.z.z.z.z.z.z.z.z.z.z.z.z.z.z.z.z.z.z.z.z.z.z.z.z.z.z.z.z.z.z.z.z.z.z.z.z.z.z.z.z.z.z.l.l.l.l.l.l.l.l.l.l.l.k.l.k.k.z.l.y.y.y.s.s.s.s.y.s.y.y.s.y.s.s.s.s.s.y.y.y.y.t.t.y.y.t.t.t.t.y.y.y.y.t.t.y.y.y.t.y.t.t.t.t.t.t.t.t.e.e.e.e.0.0.0.0.0.t.:.*.$XZXsX7X5X7X0X0X7X4X7X7X7X4X4X4X1X>X3X0XpX@.E M c m N m m m N m m m m m N N N N m m N N N m m m m m m m m m m m m m m m m m m m m m m m m m m m m m m m m m m m N N N m N N N N N N N N N N N m m m m m m m m N N N N N m N N N m N N N N N N N N c m R ^ ! ! ! ! / ) / ) ) / / / / / ( / ( ( ( ( ( / / ( ( ( ( ( / ! ! Q Y U U U U U U U U U U U Y U U U U U Y Y U Y Y Y Y Y Y Y Y U U U U Y U Y Y Y Y Y J H Y 0XGXGXZXZXZXZXZXZXZXZXZXFXFXFXFXFXFXGXJXKXmX-.*.2.4.2.2.,.&.T.oX^.(.).).).)././././.K.K.K.K.'.K.K.K.K./.'.'.'.I.I.I.)./.'.`./.`.K.`.P.U.P.U.U.U.U.U.U.U.U.U.Y.Y.Y.L.L.U.U.U.L.U.U.Y.Y.Y.Y.Y.Y.Y.L.L.Y.L.Y.Y.U.Y.U.L.L.L.L.L.L.L.L.U.L.Y.U.U.Y.L.L.U.L.L.U.U.U.U.U.U.U.L.L.U.U.L.L.L.L.P.K.U.U.P.P.P.P.P.P.Y.Y.Y.Y.Y.Y.Y.Y.Y.Y.Y.Y.Y.Y.Y.        ",
"          z.z.z.z.z.M.M.Z.M.M.z.z.z.z.z.z.z.z.z.z.z.z.z.z.z.z.M.z.z.z.z.z.z.z.z.z.z.z.z.z.z.z.z.z.z.z.z.z.z.z.z.z.z.z.z.z.z.z.z.z.z.l.l.l.l.l.v.l.l.l.l.l.k.l.l.l.k.v.k.r.y.y.y.s.s.y.y.y.y.s.s.s.s.s.s.s.y.y.y.i.y.t.t.y.t.t.t.y.y.y.t.y.t.t.y.y.t.t.y.y.y.t.t.t.t.t.t.t.e.e.e.e.e.0.0.0.0.t.,.%.-.mXNX9X4X4X0X0X7X7X4X7X4X4X4X1X>X>X>X>XaXiX@.E M c n m m m m m m m m N N N N N N N N N m m m m m m m m m m m m m m m m m m m m m m m m m m m N N m m m N N m N N m m N N N N N N N N N N N N m m m m m m N N N N N N m m N N m m N N N N N N n m R ^ / ! ! / / / / / ) / / ) ( ( ( ( ( ( ( ( ( ( ( ( ( ( / ! Q Q W W U Y Y W W Y Y Y Y Y Y Y Y Y U U U Y Y Y Y U Y Y Y Y Y Y Y U U U Y Y Y U U Y Y P H Y @.BXJXZXCXZXZXZXZXZXZXZXZXZXFXFXFXFXGXGXKXLX7.&.>.4.2.2.4.,.&.C.oX/.^.).).)./././././.`.K.K.K.K.K.K.K.K.K./.`.'.I.I.I.I.).'.'.`.`.K.K.'.P.U.U.L.U.U.U.U.U.U.L.L.Y.Y.L.L.L.U.U.U.L.L.U.Y.Y.Y.Y.Y.U.L.L.L.Y.Y.U.Y.Y.Y.Y.L.L.L.L.L.L.L.L.L.L.U.L.Y.U.L.U.U.Y.L.L.U.L.U.U.U.U.L.L.U.U.L.K.L.].].U.U.U.P.P.P.P.P.P.P.Y.Y.Y.Y.Y.Y.Y.Y.Y.Y.Y.Y.Y.Y.        ",
"          z.z.z.z.z.z.M.M.M.M.M.z.z.z.z.z.z.z.z.z.z.z.z.z.z.z.M.z.z.z.z.z.z.z.z.z.z.z.z.z.z.z.z.z.z.z.z.z.z.z.z.z.z.z.z.z.z.z.z.z.z.z.l.l.l.l.v.v.l.l.l.l.l.l.l.l.k.l.z.k.e.y.f.s.s.s.s.y.y.y.s.s.s.y.y.y.s.s.y.y.y.y.t.t.t.t.y.y.t.y.y.y.y.t.y.y.t.t.y.y.y.y.t.t.t.t.t.t.t.t.e.e.e.e.e.0.0.0.e.q.&.%.m.BXsX2X7X0X7X7X5X4X7X4X4X4X4X4X>X4X3X>XaXiX#.E c x n m m m m m m N m m N N N N N N N N N m m m m m m m m m m m m m m m m m m N N N m m m m N N N m m m m N N N N N N m m m m m N N N N m N N N N N N N m N m m m m m m m m m m N N N N n m I ^ ! ! ! ! ! / / / / ) ) ) ) ) ( ) ) ( ( ( ( ( / / ! ! Q Y Y Y Y Y U Y W Y U U U Y Y Y Y U Y Y U U U U Y Y U U Y Y Y Y Y Y Y U Y U U Y Y Y U Y J H I @.CXJXZXCXZXCXZXZXZXZXZXZXZXFXFXFXFXFXGXJXKXkX1.;.2.e.2.3.4.3.&.!.oX^.).).).^.).^././.)././.`.`.K.P.K.F.K.K.K.F./.K.K.K.I.'./.'.'.'.K.K.P.'.P.U.U.U.U.U.U.U.U.U.U.L.Y.L.L.L.L.U.U.U.U.L.U.Y.U.U.L.L.L.L.L.L.Y.Y.Y.Y.Y.Y.Y.L.L.L.L.L.L.L.L.U.Y.U.U.L.L.L.L.U.Y.Y.L.U.U.U.U.U.U.L.L.U.U.L.L.L.Y.U.K.K.Y.P.P.P.Y.P.P.P.Y.Y.Y.Y.Y.Y.Y.Y.Y.Y.Y.Y.Y.Y.        ",
"          z.z.z.z.M.z.M.M.M.M.M.M.z.z.z.z.z.z.z.z.z.z.z.z.z.z.M.z.z.z.z.z.z.z.z.z.z.z.z.z.z.z.z.z.z.z.z.z.z.z.z.z.z.z.z.z.z.z.z.z.z.z.l.l.l.l.l.l.z.l.l.z.l.l.k.l.l.l.l.v.g.e.y.s.s.y.s.s.y.s.s.s.y.y.y.s.s.s.s.y.i.f.y.t.y.t.y.y.t.t.y.y.y.t.t.y.t.t.y.t.y.y.t.t.t.t.t.t.t.t.t.e.e.e.e.e.q.0.0.0.t.,.%.-.mXBX9X7X7X7X5X7X7X4X4X4X4X7X>X4X1X4X>X1XiXiX#.C x x n m N m N N m N N N N N m N N N N m m m m m m m m m m m m m m m m m N N N m m N N m m N N m m N m N N m m N N m m m m N N N N N N N N N N N N m m m m m m m m m m m m N N N N n n J ^ / ! ! ! ! / / / / / ) ) ( ) ) ( ) ( ( / ! ! Q W Y Y Y Y U U Y Y Y Y Y W U U Y Y Y U Y Y U Y Y U U U U Y Y Y U Y Y U U U U U Y Y U U Y Y U J H J } CXJXGXCXCXZXZXZXZXZXZXZXZXZXZXFXFXFXFXJXKXPXn.&.,.e.2.2.2.2.3.&.!.XX).^.).).^././.^././.`.`.`.K.K.`.].'.K.K.I.K.K.K.I.K.'.K.K.).).'.'.K.K.L.L.K.L.U.U.U.U.U.U.U.U.L.U.L.L.L.Y.L.L.L.U.Y.Y.Y.Y.Y.U.U.U.U.Y.L.L.Y.Y.Y.Y.Y.Y.Y.U.U.L.L.L.L.Y.L.U.L.L.U.L.L.L.L.U.U.U.U.L.U.U.L.L.L.L.L.U.U.U.U.L.L.L.U.U.P.P.P.U.Y.P.P.P.Y.Y.Y.Y.Y.Y.Y.Y.Y.Y.Y.Y.Y.Y.        ",
"          z.z.z.z.M.z.z.z.M.M.M.M.M.z.z.z.z.z.z.z.z.z.z.z.z.z.M.z.z.z.z.z.z.z.z.z.z.z.z.z.z.z.z.z.z.z.z.z.z.z.z.z.z.z.z.z.z.z.z.z.z.z.z.l.l.l.l.l.l.l.l.z.z.l.l.l.l.l.l.l.Z.f.e.y.y.y.s.y.y.y.y.s.s.y.y.y.y.s.s.y.y.i.f.y.t.t.y.y.y.t.t.t.y.y.y.t.t.y.y.t.y.y.y.y.t.t.t.t.t.t.t.t.e.e.e.e.e.0.0.0.0.q.q.;.%.7.NXsX9X5X7X0X4X7X4X7X4X4X7X7X>X1X>X1X1X7XpXiX#.A c x n N N m m N N N N m m N N N N m N N N N m m m m m m m m m m N m N N N m m m N N N N N m m m m N N m N m m m m m m N N N N N N N m m N N m m m m m m m m m m m m m N N B n n F ^ / ! ! / / / ( ( ( / / / / / / / ! ! ! Q W Y Y Y Y Y Y Y Y Y U Y Y Y Y W Y Y Y Y U Y Y Y Y Y Y U U U U U Y Y U U U U U U U U U Y Y I W U J H I o.dXGXGXCXZXCXZXZXZXZXZXZXZXFXZXFXFXFXFXGXKXKXkX1.;.0.4.2.4.2.4.2.&.B.oX/.H.).)././.^.^./.).`.`.`.`.I.'.].K.K.K.I.I.K.K.K.'.'.K.K.I.'.K.K.'.K.`.[.L.P.L.L.U.U.U.U.U.U.L.U.Y.L.Y.Y.Y.L.L.L.U.Y.Y.Y.Y.Y.L.L.L.L.L.L.L.L.Y.Y.Y.Y.Y.Y.U.L.L.L.L.L.Y.U.U.L.L.U.Y.U.U.L.U.U.U.U.U.U.U.L.L.L.U.U.U.U.U.U.].[.L.U.U.P.P.P.U.P.P.Y.Y.Y.Y.Y.Y.Y.Y.Y.Y.Y.Y.Y.Y.Y.Y.        ",
"          z.z.z.z.z.z.z.z.M.M.M.M.M.z.z.z.z.z.z.z.z.z.z.z.z.z.z.z.z.z.z.z.z.z.z.z.z.z.z.z.z.z.z.z.z.z.z.z.z.z.z.z.z.z.z.z.l.z.z.z.z.z.z.z.l.l.l.l.l.l.l.z.z.z.l.l.l.l.l.l.z.v.f.e.y.y.s.s.y.s.y.s.s.y.y.y.y.y.s.y.y.y.f.f.y.t.t.y.y.y.t.t.y.y.y.t.t.t.y.y.y.y.y.y.t.t.t.t.t.t.t.t.t.e.e.e.e.e.0.0.0.0.q.t.,.*.-.%XBXiX7X0X7X7X7X4X4X7X7X7X7X7X7X7X7X1X>X7XiXiX@.E M c m m N m N N N N N m N m N N N N N N N N N N N N m m m N N m N N N m m m N N N N N N N N N N N N N m m m m m m N N N N N N m N N N N N m m m m m m m m m m m m N N m c H ^ / ! ! / / / / ! ! ! ! ! Q Q W W W Y U Y Y Y Y Y Y Y Y Y Y Y Y Y Y Y W Y W U Y U U U W W W W W Y Y Y U U U U U U U U U U U U U U U U P H H Y O.NXJXGXCXCXZXZXZXZXZXZXZXZXZXZXZXZXZXFXFXJXKXIX8.&.,.e.4.4.4.e.e.4.;.c.oX(./.)././.)./.^./././.`.`.K.K.P.P.P.K.K.K.I.I.K.K.`.`.K.K.K.'.K.K.K.K.K.`.[.L.P.U.L.U.U.U.U.U.U.U.Y.Y.Y.Y.Y.U.Y.L.L.L.L.L.Y.Y.Y.L.L.L.L.L.L.L.L.Y.Y.L.L.Y.Y.L.L.L.L.L.L.Y.U.U.L.U.Y.Y.U.U.L.U.U.U.U.U.U.U.L.L.L.L.U.].U.U.U.[.[.L.U.U.U.U.P.P.P.U.Y.P.Y.Y.Y.Y.Y.Y.Y.Y.Y.Y.Y.Y.Y.Y.        ",
"          z.z.z.z.z.z.z.M.M.z.z.M.M.M.z.z.z.z.z.z.z.z.z.z.z.z.z.z.z.z.z.z.z.z.z.z.z.z.z.z.z.z.z.z.z.z.z.z.z.z.z.z.z.z.z.z.z.z.z.z.z.z.z.z.l.l.l.l.l.l.l.l.l.l.l.l.l.l.l.l.k.z.v.f.r.s.y.s.s.s.s.s.s.s.s.s.s.s.s.s.s.s.s.i.i.y.t.t.y.t.y.y.y.t.t.t.t.t.t.y.t.t.y.y.y.y.t.e.t.t.t.t.t.e.e.e.e.e.e.q.0.0.0.0.q.0.>.*.8.qXdX9X7X7X0X7X7X7X7X7X7X7X7X7X7X1X1X1X3X1XiXiX@.E m c m N N m N m m N m N m N N N N N N m m N m N N m N m m m m N N N N N N N N N N N N N N N N N N N N m m m N N N N N N N N m m m N N m m m m m m m m m m m N N m n F R Q Q W Q ! Q Q W W W Y Y Y Y Y Y Y Y U Y Y W W Y Y U U Y Y Y U W W Y Y W W Y W W U W W Y Y Y Y Y Y U U U U Y U U U U U U U U U W U J H H ) 8XBXGXZXCXCXCXZXCXZXZXCXZXZXZXZXZXFXFXFXFXGXKXLXm.*.;.e.4.2.4.4.4.4.4.;.d.OX_.F.).)././.^.^.^.'.`.`.K.I.K.[.P.K.K.K.K.K.I.I.K.K.K.P.I.K.K.K.K.I.K.K.K.`.L.L.K.K.L.L.U.U.U.U.U.Y.U.L.Y.Y.Y.Y.Y.Y.L.L.L.L.L.L.L.L.L.L.L.L.L.L.L.U.L.L.L.L.L.L.L.L.L.L.L.L.U.U.L.U.L.L.L.L.U.U.L.L.U.U.U.U.U.U.L.L.L.U.U.U.U.L.[.[.U.U.P.P.P.P.P.P.Y.Y.P.Y.Y.Y.Y.Y.Y.Y.Y.Y.Y.Y.Y.Y.        ",
"          M.z.z.z.M.z.z.M.M.z.z.M.M.M.M.z.z.z.z.z.z.z.z.z.z.z.z.z.z.z.z.z.z.z.z.z.z.z.z.z.z.z.z.z.z.z.z.z.z.z.z.z.z.z.z.z.z.z.z.z.z.z.z.z.z.l.l.l.l.l.l.l.l.l.l.l.l.l.l.l.l.l.l.v.s.e.y.s.s.y.s.s.s.y.y.y.y.s.s.s.s.y.s.y.y.f.y.t.t.y.t.y.y.t.t.t.t.t.t.y.t.t.y.y.t.y.y.t.t.t.t.t.t.t.e.e.e.e.e.e.e.q.0.0.0.0.q.w.:.*.m.dXdX9X7X7X7X7X7X7X7X7X7X7X7X7X1X7X1X7X>X1X9XpX3XE m c n m N m m m m m m N N N N N N m m N N N N m N N m N m N m N N N N N N N N N N N N N N N N N N N m m m N N N N N N N N m m N m m m m m m m m m m m N N N n D R U U I Y Y W Y Y Y Y Y Y Y Y Y Y Y U U Y U W W W Y Y W U Y Y U W W W Y W W W W W W Y W W Y Y U Y Y U U U U U Y Y Y W Y Y Y U W W J H K | 8XFXJXZXBXCXZXCXZXZXZXZXZXZXZXZXZXZXZXZXFXGXKXKXkX1.&.3.t.4.4.4.4.0.4.4.>.5.oX_.H.).).^.).).^.^./.'.`.K.K.].[.`.].K.K.K.K.K.I.I.I.I.I.I.I.K.K.K.'.'.K.K.K.K.L.L.K.K.U.U.U.U.U.U.U.Y.U.U.Y.Y.Y.Y.Y.Y.L.L.L.L.L.L.L.L.L.L.L.L.L.L.L.U.L.L.L.L.L.L.L.L.Y.U.L.Y.L.U.U.U.L.L.L.L.U.U.L.L.U.U.U.U.U.U.L.L.L.U.U.U.U.L.L.[.P.P.P.P.P.U.Y.P.Y.Y.Y.Y.Y.Y.Y.Y.Y.Y.Y.Y.Y.Y.Y.Y.        ",
"          z.z.z.z.z.z.M.z.M.z.z.z.z.M.M.M.M.z.z.z.z.z.z.z.z.z.z.z.z.z.z.z.z.z.z.z.z.z.z.z.z.z.z.z.z.z.z.z.z.z.z.z.z.z.z.z.z.z.x.z.z.z.z.z.z.z.l.l.l.l.l.l.l.l.l.l.l.l.l.k.l.l.l.l.v.y.t.s.s.s.s.y.y.s.y.y.y.y.y.y.y.y.i.f.f.y.f.y.t.t.y.y.y.y.y.y.y.y.y.t.t.t.t.t.t.y.y.t.t.t.t.t.t.t.t.e.e.e.e.e.0.0.0.0.0.0.0.w.t.9.:.1.%XBXsX0X7X7X4X4X1X7X4X4X7X7X7X7X7X7X1X1X>X1XiXpX3X[ V n c n m m m m m N N N N N N N N N N N N m m N N N N N N m N N N N N N N N N N N N N N N N N N N N N N N N N N N N N m N m m m m m m m m m m m N N m M F L I U U Y Y Y Y Y Y Y Y Y Y Y Y Y U U Y U Y W W W U W W U U U U U W W W W W W W W Y Y Y Y Y Y Y U Y Y Y U U Y Y Y Y W Y Y W Y P H H P } sXFXGXZXCXCXCXZXZXZXZXZXZXZXZXZXZXZXZXZXFXFXKXKXmX8.*.,.y.e.4.4.4.4.4.0.4.>.5.XX XF.).`./.^././.^.).).`.K.K.].].K.K.`.K.P.K.K.`.I.I.I.I.I.I.I.'.K.K.`.`.K.`.P.L.L.L.L.L.U.U.U.U.U.U.L.L.Y.Y.Y.Y.L.L.Y.Y.Y.U.L.L.L.L.L.L.L.L.L.L.L.L.Y.L.L.U.L.L.L.L.L.L.L.Y.U.L.U.U.Y.U.L.L.U.U.U.L.L.U.U.U.U.U.U.U.L.L.L.L.L.L.L.[.[.L.U.P.P.P.P.P.P.P.U.Y.Y.Y.Y.Y.Y.Y.Y.Y.Y.Y.Y.Y.Y.Y.        ",
"          z.z.z.z.z.M.M.z.z.z.z.z.z.z.M.M.M.z.z.z.z.z.z.z.z.z.z.z.z.z.z.z.z.z.z.z.z.z.z.z.z.z.z.z.z.z.z.z.z.z.z.z.z.z.z.z.z.z.z.z.z.z.z.z.z.z.z.z.l.l.l.l.l.l.l.l.l.l.l.l.l.l.l.k.l.z.y.y.s.y.y.s.s.s.y.y.y.y.y.y.y.i.i.y.f.s.s.f.y.t.t.y.y.y.y.y.y.y.y.t.y.t.t.t.t.t.y.t.t.y.t.t.t.t.t.t.e.e.e.e.e.e.e.0.0.0.0.0.q.q.q.,.*.-.=XCXpX7X7X1X7X7X7X7X7X7X7X7X7X7X7X7X>X>X1X1X0XiX8X#.E n c n m N N N m N N m m N N m m N N N N N m m N N N m N m N N N N N N N N N N N N N N N N N N N N N N N N N N N N m m m m m m m N m m N N N m M D L I P Y U U Y U Y Y Y Y Y Y Y Y Y Y Y U Y U U U U U U U U U U Y Y W W W W W W W W W Y Y Y Y Y Y Y Y U Y Y U U Y Y Y Y Y Y Y J H K / @.NXGXGXCXCXZXZXCXZXZXZXZXZXZXZXZXZXZXFXZXZXFXJXKXIX7.&.>.e.e.0.e.4.4.e.e.e.e.>.5.OX|.F.).'./.^.^.^././.).'.`.].K.P.P.K.K.K.K.I.K.K.K.I.I.`.K.K.K.`.`.`.K.`.K.K.K.U.U.L.U.L.L.U.U.U.Y.U.U.L.L.Y.Y.Y.L.L.L.Y.Y.Y.U.L.L.L.L.L.L.L.L.L.L.L.L.L.L.L.L.L.L.L.L.L.L.L.L.U.U.U.U.U.L.L.L.U.U.U.L.L.L.U.U.U.U.L.U.L.L.L.L.L.L.K.[.[.[.U.P.P.P.P.P.U.P.P.Y.Y.Y.Y.Y.Y.Y.Y.Y.Y.Y.Y.Y.Y.Y.        ",
"          z.z.z.z.z.z.M.M.M.z.z.z.z.M.M.M.M.M.z.z.z.z.z.z.z.z.z.z.z.z.z.z.z.z.z.z.z.z.z.z.z.z.z.z.z.z.z.z.z.z.z.z.z.z.z.z.z.z.z.z.x.x.z.z.l.z.z.z.z.l.l.l.l.l.l.l.l.l.l.l.l.k.k.k.k.z.l.y.y.s.y.s.s.y.y.y.y.s.y.y.y.f.f.y.y.f.f.s.f.y.t.t.y.y.y.y.y.y.y.y.y.t.t.t.t.t.t.t.t.y.y.t.t.t.t.t.t.e.e.e.e.e.e.e.e.0.q.0.0.0.q.0.q.:.*.8.mXNXiX1X7X1X7X7X7X7X7X4X7X4X7X7X7X>X>X>X,X>X1XpXiX@.[ V M n m N N m m m m m m m m m N N N N m N N m m m m m N N N N N N N N N N N N N N N N N N B N N N N N N N N m m m m N N N N m m m N N m n D L I I Y U I Y Y U Y Y Y Y Y Y Y Y Y Y Y U U U U Y Y Y U U W U U U U W Y Y W W W W W W Y Y Y Y Y Y Y Y Y Y W Y Y Y Y W Y I H H Y { pXZXJXGXCXCXZXZXZXZXZXZXZXZXZXZXZXZXZXZXZXZXFXJXKXLXm.>.;.w.e.0.4.e.e.e.4.e.e.r.>.5.OX XF.'.).^.^.^.^.^./.`.`.K.K.P.].P.K.K.K.K.K.K.K.K.K.I.I.'.K.K.K.'.'.`.K.K.K.K.P.U.Y.L.U.L.L.U.U.U.L.L.Y.Y.L.Y.Y.L.L.L.L.Y.Y.U.U.L.L.L.L.L.L.L.L.L.L.L.L.L.L.L.L.L.L.L.L.L.L.L.L.L.Y.U.L.L.L.U.U.L.L.U.U.U.U.U.U.U.U.U.U.L.L.L.L.K.K.L.L.[.].P.P.P.P.P.U.P.P.P.Y.Y.Y.Y.Y.Y.Y.Y.Y.Y.Y.Y.Y.Y.Y.        ",
"          z.z.z.z.z.z.z.M.M.z.z.z.z.M.M.M.M.M.z.z.z.z.z.z.z.z.z.z.z.z.z.z.z.z.z.z.z.z.z.z.z.z.z.z.z.z.z.z.z.z.z.z.z.z.z.z.z.z.z.z.x.x.z.z.z.z.z.z.z.l.l.l.l.l.l.l.l.l.l.l.l.k.k.l.k.k.v.l.y.y.s.y.s.y.y.s.s.s.y.i.y.s.s.y.f.f.f.s.s.f.y.y.t.t.y.t.y.y.t.t.t.t.t.t.t.t.t.t.t.y.y.y.t.t.t.t.t.e.t.e.e.e.e.e.e.e.q.q.0.0.0.0.0.e.w.&.*.7.gXsX9X7X7X7X7X7X7X7X7X4X7X7X7X7X7X1X1X7X1X3X1XiXsX8X| G m n n m N N N m m m m N N m N N N N N m m m m N N N N N N N N N N N N N N N N N N N B N N N N N N N N N N m m m N N N m m m N N n D L I P U Y U Y Y Y U U Y Y Y Y Y Y Y Y Y U U U U U U U U U U U U U U U Y Y Y W W W W W W Y Y Y Y Y Y Y Y W W W W W Y I J H K | 1XBXJXGXFXZXZXZXZXZXZXZXZXZXZXZXZXZXZXZXZXFXZXZXJXKXJXkX1.;.w.y.e.0.e.e.e.e.e.e.4.r.<.5.OX XF.I.).).).).).).).`.`.`.K.'.P.P.K.K.I.K.K.K.I.K.K.K.I.'.`.K.K.K.'.'.`.`.K.K.K.L.L.L.L.U.U.U.U.U.U.U.Y.Y.L.L.Y.Y.Y.Y.L.L.Y.Y.U.U.Y.L.L.L.L.L.L.L.L.L.L.L.L.L.L.L.L.L.L.L.L.L.L.U.U.Y.U.L.U.U.L.L.U.U.U.U.U.U.U.U.U.U.U.U.L.L.L.L.K.L.L.K.L.K.P.P.P.P.P.P.P.P.P.Y.Y.Y.Y.Y.Y.Y.Y.Y.Y.Y.Y.Y.Y.Y.        ",
"          z.z.z.z.z.z.z.M.M.z.z.z.z.M.M.M.M.M.M.M.M.z.z.z.z.z.z.z.z.z.z.z.z.z.z.z.z.z.z.z.z.z.z.z.z.z.z.z.z.z.z.z.z.z.z.z.z.z.z.z.z.z.z.z.z.z.z.z.z.z.l.l.l.l.l.l.l.l.l.l.l.l.k.k.k.k.l.v.k.y.y.y.y.s.y.s.s.s.y.y.s.s.s.y.y.y.s.s.s.f.f.i.t.t.t.t.t.t.t.y.y.t.t.y.t.t.t.t.y.y.y.t.t.t.t.t.t.t.t.e.e.e.t.e.e.e.e.q.0.0.0.q.q.0.0.t.9.&.&.m.fXdXiX1X7X7X1X7X7X4X7X7X7X7X7X7X7X7X7X1X1X>X3X8XpXiX@.[ C M c n m m m N m m m N N N N N N N N N N N N N N N N N N N N N N N N N N N N N N N N N N N N B N N N m N N N N N m N N m n D K I P P Y Y Y Y Y Y U U Y Y Y W W Y Y Y Y Y Y U U U U U U U U U U U U U Y Y Y Y W W W W W Y U W Y Y Y Y Y W Q W Y K H K / O.sXFXGXZXCXZXZXZXZXZXZXZXZXZXZXZXZXCXZXZXZXZXFXFXGXKXKXkX1.&.,.y.e.e.e.e.e.e.e.e.e.4.e.<.,..X XF././.).).).).'.`.`.[.[.[.K.[.K.K.K.K.K.K.K.K.K.K.'.'.K.I.K.K.'.K.K.`.`.`.K.K.K.K.L.U.U.U.U.U.U.U.U.U.Y.Y.L.L.Y.Y.Y.Y.Y.Y.L.Y.L.L.L.L.L.L.L.L.L.L.L.L.L.L.L.L.L.L.L.L.L.L.L.L.L.L.L.L.L.L.U.U.L.L.L.U.U.L.U.U.U.U.U.U.L.U.U.L.L.L.L.U.L.L.U.K.K.P.P.P.P.K.P.P.P.Y.Y.Y.Y.Y.Y.Y.Y.Y.Y.Y.Y.Y.Y.Y.        ",
"          z.z.z.z.z.z.z.M.M.z.z.z.z.z.M.M.M.M.z.M.M.z.z.z.z.z.z.z.z.z.z.z.z.z.z.z.z.z.z.z.z.z.z.z.z.z.z.z.z.z.z.z.z.z.z.z.z.z.z.z.z.z.z.z.k.z.z.z.z.l.z.l.l.l.l.l.l.l.l.l.l.l.l.k.k.k.k.k.v.k.y.y.s.y.s.s.s.s.s.s.s.s.s.y.y.s.s.f.f.f.f.i.i.y.t.y.y.t.t.y.y.t.t.y.y.t.t.t.t.y.y.t.t.t.y.t.t.t.t.e.e.t.t.t.t.e.e.e.e.0.q.q.q.0.0.0.q.q.,.*.1.$XVXNXiX1X7X7X1X7X7X1X1X1X7X7X1X1X1X1X1X1X1X1X1X7XpXsXiX@.E V n c c n m V m N N N N N N N N N N m N N N N N N N N N N N N N N N N N N N N B B B N N B B N N N N N m N N N N m n D L I P P P Y Y Y Y Y Y Y Y Y Y Y W W W W W W W W U W W U Y Y U U U U U U U W Y Y Y W W W Y Y Y W Y Y Y Y Y W I H H K ! o.iXBXJXFXCXCXCXCXZXCXCXCXCXCXCXCXCXZXCXCXZXCXZXFXZXGXJXJXkX1.*.,.y.t.e.e.e.e.e.e.e.e.4.4.e.<.,..XXXF.'./.^.).)./.).`.`.[.[.[.[.K.[.K.K.K.`.K.K.K.K.K.K.'.'.K.K.K.`.`.K.K.K.I.K.'.K.K.K.P.U.U.U.U.U.U.Y.U.U.Y.Y.Y.Y.Y.L.L.Y.Y.L.L.L.L.L.L.L.L.L.L.L.L.L.L.L.L.L.L.L.L.L.L.L.L.L.L.L.L.L.L.L.L.L.U.L.L.Y.L.U.U.U.U.U.U.L.U.U.L.U.U.U.U.P.U.U.U.L.L.U.P.P.P.P.K.Y.Y.P.Y.Y.Y.Y.Y.Y.Y.Y.Y.Y.Y.Y.Y.Y.Y.Y.        ",
"          z.z.z.z.M.z.z.z.z.z.z.M.z.z.z.M.M.M.M.M.z.z.M.z.z.z.z.z.z.z.z.z.z.z.z.z.z.M.z.z.z.z.z.z.z.z.z.z.z.z.z.z.z.z.z.z.z.z.z.z.z.z.z.z.z.z.z.z.z.l.l.l.l.l.l.l.l.l.v.l.l.l.l.k.k.k.k.k.k.v.l.y.y.s.s.y.y.y.y.s.y.y.y.s.s.s.s.s.s.s.s.s.f.i.y.t.y.t.t.y.t.t.y.t.y.t.t.y.t.t.t.t.t.t.y.y.t.t.t.t.t.t.t.t.t.t.t.e.e.e.e.e.q.0.q.0.0.0.w.q.9.:.1.$XSXBXpX7X1X7X1X7X7X>X7X7X7X7X1X1X1X7X1X1X>X>X3X,X7XpXpX8X@.[ E m c c m m N N N N N m m m m m m N N N N N N N N N N N N N N N N N B N N N N N B B N B N N N N N N N N N c D L I P P P P P U U Y Y Y Y W Y Y Y Y W W W W W W W W W W W W Y Y Y U U W W W W W W W W Y Y Y Y Y Y I Y I K H H Y | o.iXCXFXZXCXCXCXCXCXCXBXBXBXBXBXNXNXBXBXBXCXCXCXZXZXFXGXKXJX%X1.;.<.y.y.e.e.t.e.e.e.e.e.e.e.4.e.<.5.OXXXF.).)./.).)./.`.[.`.`.`.[.`.K.K.I.'.I.K.K.K.K.K.K.'.K.K.K.K.K.K.`.`.`.I.K.K.K.K.K.L.L.P.L.Y.U.U.U.Y.Y.Y.Y.Y.Y.Y.Y.Y.L.L.Y.Y.L.L.L.L.L.L.L.L.L.L.L.L.L.L.L.L.L.L.L.L.L.L.L.L.L.L.L.L.L.L.L.L.Y.Y.Y.U.U.U.U.U.L.L.U.L.L.U.U.U.L.U.U.U.K.U.U.U.U.U.P.P.P.U.P.P.P.Y.P.Y.Y.Y.Y.Y.Y.Y.Y.Y.Y.Y.Y.U.U.U.Y.        ",
"          z.z.z.z.z.z.z.z.z.z.z.M.z.z.z.M.M.M.M.M.M.M.M.z.z.z.z.z.M.z.z.z.z.z.z.z.z.z.M.z.z.z.z.z.z.z.z.z.z.z.z.z.z.z.z.z.z.z.z.z.z.z.z.z.z.z.z.l.z.z.l.l.z.l.l.l.l.l.l.l.l.l.l.l.l.k.k.k.k.l.v.k.y.y.f.y.y.s.y.s.y.y.y.s.s.s.s.s.s.s.s.s.s.f.i.y.t.y.y.t.y.y.t.t.y.y.y.y.t.t.t.t.t.t.t.t.y.y.t.t.t.t.t.t.t.t.t.t.t.t.e.e.e.e.0.0.0.q.0.0.0.t.9.*.=.7.MXdXiX2X1X7X7X1X7X7X7X7X7X7X1X1X1X1X>X1X4X7X1X,X>X0X9XiXpX3X[ E N n n n m m N m m m m m m m m N N N N N N N N N N N N N N N B N N N N N B N B B N N N N N N N N n B L K P P P P P U U Y Y Y Y W W Y Y Y Y Y W W W W W W W W Y Y W Y Y Y Y Y W W W W W W Y Y Y Y Y Y Y I K H H Q } +.dXZXFXZXCXBXBXBXBXCXBXBXBXBXNXNXNXNXNXNXBXBXBXCXCXCXZXJXKXJX%X-.;.<.e.t.e.e.e.t.t.e.e.e.e.e.e.4.r.<.5.OX XF.).'.^.).).).'.`.[.`./.`.`.`.'.K.K.K.K.K.K.K.K.K.K.I.I.`.K.K.'.`.`.[.K.K.`.].K.K.K.Y.L.K.L.Y.Y.Y.Y.Y.Y.Y.Y.Y.Y.Y.Y.Y.L.L.Y.L.L.L.L.L.L.L.L.L.L.L.L.L.L.L.L.L.L.L.L.L.L.L.L.L.L.L.L.L.L.L.L.Y.L.L.L.L.L.U.U.L.U.U.L.L.U.U.U.U.U.U.U.K.K.U.U.U.U.U.K.P.P.P.P.P.P.P.P.Y.Y.Y.Y.Y.Y.Y.Y.Y.Y.Y.Y.Y.Y.U.U.        ",
"          z.z.z.z.z.z.z.z.z.M.M.M.M.z.z.M.M.M.M.M.M.M.M.M.z.z.z.z.z.z.z.z.z.z.z.z.z.z.M.M.M.z.z.z.z.z.z.z.z.z.z.z.z.z.z.z.z.z.z.z.z.z.z.z.z.z.z.l.z.z.z.z.z.l.l.l.l.l.l.l.l.l.l.l.l.l.l.k.k.k.l.v.k.r.y.i.y.s.y.s.s.y.y.y.s.s.s.s.s.s.s.y.s.s.f.f.y.y.y.t.y.t.t.t.t.y.y.y.y.t.t.t.t.t.t.t.t.y.t.t.t.t.t.t.t.t.t.t.t.t.e.e.e.e.0.0.q.0.q.0.0.w.q.q.,.*.=.7.qXdXiX2X1X1X1X1X7X1X1X7X7X7X4X4X7X7X1X7X7X7X1X1X3X,X1XiXpXpX2Xo.E V m n n n m m N N m m N N N N N N N N N N N N N N N N N N N N N B N N N N N B N N N N B n B K K P P I I P U U U Y Y Y Y Y W Y W Y Y Y Y Y Y Y Y Y Y Y U Y Y Y Y W Y Y W W Q Q W Q W W Y P J H J Y ) X.9XBXFXGXFXCXBXBXCXBXBXBXBXBXBXNXNXNXNXNXNXNXBXBXBXBXCXCXCXJXKXJXkX-.&.,.p.t.q.e.e.e.e.t.t.t.e.e.e.e.e.r.,.,..X XF.'.'.^.).).).).`.`.`.`././.K.K.K.K.K.K.K.'.K.K.K.K.K.I.I.`.K.K.'.].K.[.[.K.'.].K.K.U.L.K.L.Y.Y.Y.Y.Y.Y.Y.Y.Y.Y.Y.Y.Y.Y.L.L.Y.Y.L.L.L.L.L.L.L.L.L.L.L.L.L.L.L.L.L.L.L.L.L.L.L.L.L.L.L.L.L.L.Y.U.L.U.L.L.L.U.L.L.U.U.L.L.U.U.U.U.U.L.L.P.U.U.U.U.L.K.K.P.P.P.P.P.P.P.P.Y.Y.Y.Y.Y.Y.Y.Y.Y.Y.Y.Y.Y.Y.Y.U.        ",
"          M.z.z.z.M.z.z.z.z.M.M.z.z.z.M.M.M.z.z.z.M.M.M.M.M.z.z.z.z.M.M.z.z.z.z.z.z.z.z.z.z.z.z.z.z.z.z.z.z.z.z.z.z.z.z.z.z.z.z.z.z.z.z.z.z.z.z.z.z.z.z.z.l.l.l.l.l.l.l.l.l.l.l.l.l.l.l.l.k.l.k.k.v.k.e.y.i.y.s.f.s.y.y.y.y.s.s.y.f.s.y.y.y.s.f.f.f.y.t.t.t.y.y.t.t.t.y.y.y.y.y.y.t.y.y.t.t.t.y.y.t.t.t.t.t.t.t.t.t.t.t.t.e.e.e.q.q.0.0.q.q.0.0.0.q.t.9.:.;.8.=XdXdX9X1X1X>X1X7X7X7X7X7X7X7X7X7X7X7X7X7X1X7X7X1X1X1X7XaXdXiXiX1X| E B n c c n m m m N N N N N N N N N B B N N N N N N N N N N N N N N N N N N N N n B K K P I P I I P U U U Y Y Y Y Y Y Y Y Y U Y Y Y Y Y Y Y Y Y Y Y Y Y Y W Y W Q Q Q Q W I H H H K / o.8XpXCXGXFXFXZXCXCXCXCXCXBXNXNXBXBXBXNXNXNXNXNXNXNXNXBXNXBXBXCXGXKXPX$X1.*.,.p.t.e.e.e.e.e.e.e.e.e.e.t.e.4.e.y.,.<..XXXF.`.)./.^.).).).).`./.'.'.'.F.K.K.K.P.P.K.K.'.'.'.K.K.K.I.].].'.[.`.'.[.[.].P.P.P.P.K.L.L.L.L.U.U.Y.Y.L.Y.Y.Y.L.L.L.L.L.L.L.L.Y.Y.L.L.L.L.L.L.L.L.L.L.L.L.L.L.L.L.L.L.L.L.L.L.L.L.L.L.L.L.L.L.L.L.U.U.U.U.L.L.U.U.L.U.U.U.L.L.L.U.U.U.U.U.U.U.L.L.L.K.K.P.P.P.P.P.P.Y.P.P.Y.Y.Y.Y.Y.Y.Y.Y.Y.Y.Y.U.Y.U.U.        ",
"          M.Z.z.z.M.z.z.z.M.M.z.z.M.M.M.M.M.M.z.z.M.M.M.M.M.M.z.z.z.z.M.z.z.z.z.z.z.z.z.z.z.z.z.z.z.z.z.z.z.z.z.z.z.z.z.z.z.z.z.z.z.z.z.z.z.z.z.z.z.x.z.z.l.z.z.l.l.l.l.l.l.l.l.l.l.l.l.l.l.l.l.k.l.v.k.r.y.f.s.i.s.s.s.y.y.y.s.f.i.s.s.y.y.s.f.f.f.f.i.t.t.y.y.y.t.t.y.y.y.t.y.y.y.y.y.y.t.t.y.y.y.t.t.t.t.t.t.t.t.t.t.t.t.e.t.e.q.q.q.0.0.0.0.q.0.0.q.q.w.:.&.8.%XBXBXiX7X1X7X0X7X7X7X7X1X7X7X7X7X7X7X7X1X7X1X1X1X1X>X>X>X0XaXsXiX2X#.[ E M M n c n n m m N N N B B B B B B N N N N N N N N N N N N N N N N N n D K K P P P P I P P U U U Y Y Y Y Y Y Y Y Y Y Y Y Y Y Y Y Y Y Y Y W W W Q W W W I K J H H I ) } 2XdXZXGXGXFXZXCXCXCXCXCXBXBXBXNXNXNXdXdXdXNXNXdXNXNXNXBXNXNXBXBXZXJXJXIX7.=.:.9.t.t.e.e.t.e.e.t.t.t.e.e.e.e.e.e.4.r.,.,..XOXF.'.)./.)././.).'./.F./.I.I.I.K.'.`.P.P.K.K.K.].].'.'.'.`.K.'.].'.[.K.].[.[.].P.P.P.P.K.L.U.L.L.U.U.Y.U.L.U.U.Y.Y.Y.L.L.L.L.L.Y.Y.Y.U.L.L.L.L.L.L.L.L.L.L.L.L.L.L.L.L.L.L.L.L.L.L.L.L.L.L.L.L.L.L.L.U.U.U.L.L.L.U.U.U.L.U.U.L.U.L.L.U.U.U.L.K.K.K.U.L.K.K.P.P.P.P.P.P.P.Y.P.P.Y.P.U.Y.Y.Y.Y.Y.Y.Y.Y.Y.Y.U.        ",
"          M.Z.M.M.z.M.z.z.M.M.M.M.M.z.M.M.M.M.M.z.z.M.M.M.M.M.M.z.z.z.z.z.M.z.z.z.z.z.z.z.z.z.M.z.z.z.z.z.z.z.z.z.z.z.z.z.z.z.z.z.z.z.z.z.z.z.z.z.z.z.z.z.l.z.z.z.z.l.l.l.l.l.l.l.l.l.l.l.l.l.l.l.k.k.v.h.y.y.s.s.y.s.s.y.y.s.s.y.y.y.y.y.s.s.s.f.f.f.f.i.y.t.t.y.y.t.y.y.y.t.t.y.y.y.t.t.t.t.t.y.y.y.y.t.t.t.t.t.t.t.t.t.t.t.t.t.e.e.e.0.0.q.q.q.q.q.q.0.q.q.w.:.%.1.$XSXNXsX9X7X7X7X7X7X7X7X7X4X4X7X7X7X7X7X>X>X1X>X>X>X4X1X,X>X7X9XpXsXpX2X@.o.E C m n n n n m m N N N B B N N N N N N N N N N N N N N N m n B K R P U U P P P P U U U U Y Y Y Y Y Y Y Y Y Y Y Y Y Q W W Q W Y Y Y I I K J H H I ! | ..2XdXCXZXFXGXZXCXBXBXBXBXCXBXBXBXNXNXdXdXdXdXdXdXdXdXdXdXNXNXNXNXBXBXZXJXGXkXn.>.:.9.t.e.e.e.e.t.t.t.t.t.t.t.e.e.e.e.e.e.y.,.3..XXXJ.`.).)./.)././.'.'.K.K.K.K.K.K.`.P.K.K.P.K.K.`.K.[.'.'.K.K.'.'.'.'.`.`.'.`.[.P.].K.P.K.K.L.U.U.U.U.L.L.Y.L.L.L.L.Y.L.L.L.L.L.L.Y.L.L.L.L.L.L.L.L.L.L.L.L.L.L.L.L.L.L.L.L.L.L.L.L.L.L.Y.L.L.L.Y.L.L.L.U.U.Y.Y.U.L.L.U.U.L.U.U.U.U.L.L.U.U.L.K.L.L.L.U.U.K.K.U.P.P.P.P.P.P.Y.P.P.Y.P.P.Y.Y.Y.U.Y.Y.Y.Y.Y.Y.Y.        ",
"            Z.Z.Z.z.M.z.z.z.z.z.z.z.z.z.v.M.M.M.z.z.z.z.M.M.M.z.M.M.z.z.z.z.z.z.z.z.z.z.z.z.M.z.z.z.z.z.z.z.z.z.z.z.z.z.z.z.z.z.z.z.z.z.z.z.z.z.z.z.z.z.z.l.l.l.z.z.z.l.l.l.l.l.l.l.l.l.l.l.l.l.k.l.l.k.v.k.y.y.f.s.s.s.y.s.s.s.y.s.i.i.i.i.i.y.s.s.i.f.f.f.y.t.t.y.y.y.y.y.y.t.t.t.y.t.t.t.t.t.y.y.y.t.t.y.t.t.t.t.t.t.t.t.t.t.t.e.t.e.e.e.0.0.q.q.q.q.0.q.0.0.q.q.,.*.=.8.%XsXsX8X7X7X7X0X7X7X7X7X7X7X7X4X7X7X1X1X1X4X1X>X4X4X>X7X1X3X1X1X9XaXpXpX9X3X#.[ E D B N m M m m m m m m m N N N N N N N N B N B n B K K P U U P Y U U Y U U U Y Y Y Y Y Y Y W Y Y Y Y Y Y Y Y I K K K H K K Q | | o.2XsXBXZXFXFXCXBXBXBXBXBXBXBXBXNXNXNXNXNXdXdXdXdXdXdXdXdXdXdXdXNXNXNXNXNXBXFXJXIX$X-.&.<.w.y.e.e.e.e.t.t.t.t.t.t.t.t.t.e.e.e.e.e.y.,.<..XXXD./.'.)./.'././.'.'.F.K.].K.K.K.K.`.P.K.K.K.K.I.I.I.I.P.K.K.'.].'.].'.`.`.'.[.[.P.P.K.K.U.L.L.L.L.L.U.L.L.U.L.L.L.L.L.L.L.L.L.L.L.L.L.L.L.L.L.L.Y.L.L.L.L.L.L.L.L.L.L.L.L.L.L.L.L.L.L.L.L.L.L.L.L.L.L.L.L.L.L.L.L.L.L.U.U.L.U.U.U.U.L.L.U.U.L.K.L.L.L.U.U.U.P.P.U.U.U.P.P.Y.Y.P.P.Y.P.P.Y.Y.Y.Y.U.Y.L.Y.Y.Y.          ",
"            M.M.M.M.M.z.z.z.z.z.z.z.z.z.z.M.M.M.z.z.z.z.M.M.M.z.M.M.M.z.z.z.z.z.z.z.z.z.z.z.z.z.z.z.z.z.z.z.z.z.z.z.z.z.z.z.z.z.z.z.z.z.z.z.z.z.z.z.z.z.z.z.x.z.l.l.z.z.l.l.l.l.l.l.l.l.l.l.l.k.k.k.k.k.l.v.k.y.y.s.y.y.s.y.s.s.s.y.y.f.f.i.i.s.s.s.f.f.f.f.f.i.t.t.y.y.y.t.y.t.t.t.y.y.t.t.t.t.t.y.y.y.t.y.y.t.t.t.t.t.t.e.e.t.t.t.t.t.t.e.e.0.q.q.q.q.q.0.q.q.0.q.q.q.9.:.*.-.$XgXsXpX8X7X7X7X7X7X1X4X4X1X>X1X1X7X7X7X7X4X>X>X>X1X1X1X1X1X1X3X3X1X0XiXpXdXpX9X2X@.o.[ E C V B m M n n n n m m m m m N m n B L L P P I I J P U U U P P I I P P P P P J J J J J J J J K Y ! ( | } @.9XpXdXCXFXGXGXFXCXCXBXBXBXBXBXNXNXNXNXNXNXdXdXdXdXdXdXdXdXdXdXdXdXdXdXdXdXdXNXBXZXJXFXUX8.;.;.,.p.t.e.e.e.e.e.e.t.t.t.t.t.t.t.t.e.e.t.e.e.r.3.<.Q.XXF.`.'.^.).'.`.'./.`.).K.K.P.P.K.K.K.K.'.].K.`.P.I.I.I.I.I.K.K.'.'.'.K.].[.`.].[.K.K.K.K.L.U.L.L.L.U.U.L.L.U.U.L.L.L.L.L.L.L.L.L.L.L.L.L.L.L.L.L.L.L.L.L.L.L.L.Y.L.L.L.L.L.L.L.L.L.L.L.L.L.L.L.L.L.L.L.L.L.L.L.L.L.L.L.L.U.U.L.L.U.L.U.L.U.U.L.L.K.U.U.L.L.L.U.U.P.Y.U.U.U.U.Y.Y.P.U.Y.U.Y.Y.Y.Y.L.L.L.L.L.Y.Y.          ",
"            M.M.M.M.M.z.z.z.z.M.z.z.M.M.M.M.M.M.M.z.M.M.M.M.z.z.M.z.z.z.z.z.z.z.z.z.z.z.z.z.z.z.z.z.z.z.M.z.z.z.z.z.z.z.z.z.z.z.z.z.z.z.z.z.z.z.z.z.z.z.z.z.z.z.z.l.l.z.z.l.l.l.l.v.l.l.l.l.l.k.k.k.k.k.k.l.v.l.y.y.s.s.s.s.s.s.f.f.i.i.y.i.i.s.s.s.s.s.s.s.f.f.i.t.t.t.t.t.y.y.y.y.y.t.t.t.y.t.t.t.y.y.y.y.y.t.y.t.t.t.e.t.t.t.t.t.t.t.t.t.t.e.e.e.0.e.e.q.q.q.q.0.q.q.q.p.q.9.:.=.8.%XdXNXsX0X7X0X7X7X7X7X7X4X7X7X7X1X1X4X1X1X1X1X1X1X1X1X1X1X1X1X7X1X3X3X7X0XiXiXpXsXpX9X2X3X@.#.| E E G G D B B N M N B H K H H H H H H H H H H H H H H H J J P Y W ! ( | | o.o.@.<X9XpXNXZXFXGXFXFXZXCXCXCXBXBXBXBXBXBXNXNXNXNXNXdXdXdXdXdXdXdXdXsXdXdXsXdXdXdXdXdXdXdXNXZXGXGXIX$X1.;.:.w.i.y.t.e.e.e.e.e.e.e.t.t.t.t.t.t.t.e.t.t.r.e.y.2.>.Q.OXF.`.`.)./.).).'.'.`./.'.'.P.P.K.K.].K.I.'.`.K.I.I.I.K.`.'.].].K.K.'.`.`.[.[.[.[.[.L.L.L.K.L.U.U.U.L.L.Y.L.L.U.U.L.L.L.U.L.L.L.L.L.L.Y.Y.Y.Y.Y.U.L.L.L.L.L.L.L.L.L.L.L.L.L.L.L.L.L.L.L.L.L.L.L.L.L.L.U.U.U.L.U.L.L.Y.U.K.L.U.U.U.U.U.U.U.U.K.L.U.U.Y.U.U.L.L.L.U.U.U.P.U.U.U.P.P.P.Y.Y.Y.Y.Y.Y.Y.Y.Y.Y.Y.Y.Y.Y.Y.          ",
"            M.M.M.Z.Z.M.z.z.z.z.z.z.M.M.M.M.M.M.z.z.M.M.M.M.z.z.M.z.M.M.z.z.z.z.z.z.z.z.z.z.z.z.z.z.z.z.z.z.z.z.z.z.z.z.z.z.z.z.z.z.z.z.z.z.z.z.z.z.z.z.z.z.z.z.z.z.z.z.z.z.l.l.l.l.l.l.l.l.l.l.l.l.l.k.k.k.k.l.l.y.y.s.y.y.s.f.f.f.i.f.y.y.i.y.y.y.s.s.s.s.s.s.f.f.y.t.t.t.t.t.y.y.y.t.y.t.y.y.t.t.y.y.y.y.t.y.y.y.t.t.t.t.t.t.t.t.t.t.t.t.t.t.e.e.e.e.e.e.e.e.q.q.q.q.q.q.q.e.e.9.:.&.1.$XqXBXBXdXiX7X7X0X7X7X7X7X7X1X1X7X1X7X1X1X1X1X1X1X1X1X1X1X1X1X1X1X1X1X1X1X1X1X1X8X9XaXpXpXpXsXsXsXiXiX9X2X@.@.@.+.+.@.@.o.o.o.o.o.o.o.o.o.o.o.@.O.@.3X1X8X9XiXpXpXpXsXsXdXdXdXdXdXsXNXNXNXNXNXNXNXNXBXNXNXNXNXNXNXNXNXdXdXdXdXdXdXdXdXdXdXdXdXdXdXdXdXdXsXdXBXZXFXGXmX$Xn.<.;.9.t.i.t.e.e.e.e.t.t.t.t.t.t.t.t.t.t.t.t.e.t.t.r.e.r.2.,.Q.OXF.)././.).).).'.`.`.`./.K.'.K.K.K.P.P.P.K.I.I.I.I.I.I.I.`.K.].K.K.K.K.`.`.[.[.K.[.[.L.L.K.L.L.U.U.U.L.L.Y.U.U.Y.Y.Y.L.U.Y.L.L.L.L.L.L.L.L.L.L.L.Y.L.L.L.L.L.L.L.L.L.L.L.L.L.L.L.L.L.L.L.L.L.L.L.L.L.L.U.U.U.U.U.L.L.L.U.U.L.U.U.U.U.Y.P.U.L.L.L.U.U.U.U.L.[.L.L.Y.U.Y.U.U.U.U.U.P.P.U.Y.Y.Y.Y.Y.Y.Y.Y.Y.Y.Y.U.U.Y.          ",
"            M.M.M.M.M.M.M.z.z.z.z.z.z.M.z.z.M.M.z.z.M.M.M.M.M.M.M.M.M.M.z.z.z.z.z.z.z.z.z.z.z.z.z.z.z.z.z.z.z.z.z.z.z.z.z.z.z.z.z.z.z.z.z.z.z.z.z.z.z.z.z.z.z.z.z.z.z.z.z.z.l.l.l.l.l.l.l.l.l.l.l.l.l.k.k.k.k.k.v.l.y.y.s.y.f.f.f.f.f.f.f.f.i.s.y.s.s.s.s.s.s.s.s.f.f.i.y.t.t.t.y.t.y.y.y.y.t.y.y.t.t.t.t.t.y.y.y.y.y.y.y.y.t.t.t.t.t.t.t.t.t.t.t.t.t.e.e.e.e.q.e.q.q.q.q.0.q.q.0.0.q.q.,.;.&.8.$XqXNXNXiX8X7X1X1X1X7X7X1X7X7X7X7X7X7X7X7X7X7X7X7X7X1X1X1X1X1X1X1X1X1X>X>X1X3X3X3X3X1X1X0X9XiXpXsXdXBXBXBXdXsXdXdXsXdXdXdXdXdXNXNXNXNXNXNXdXdXdXdXsXsXpXpXiXiXiXpXiXiXpXpXiXiXpXsXpXsXdXsXdXdXdXdXdXdXdXdXdXdXdXdXdXdXsXsXsXdXdXdXdXdXsXsXsXdXsXsXCXGXGXmXkXn.>.:.,.0.t.e.e.q.e.t.e.t.t.t.t.t.t.t.t.t.t.t.t.t.y.y.e.r.e.y.0.<.Q.OXF././.'./././.`.`./././.`.].K.K.'.].K.K.P.K.].I.I.I.I.I.].I.K.K.'.].].].`.`.`.K.K.K.L.L.K.K.L.L.U.L.U.U.U.Y.U.Y.L.Y.L.U.U.L.L.L.L.L.L.L.L.L.L.L.L.Y.L.L.L.L.Y.L.L.L.L.L.L.L.L.L.L.L.L.L.L.L.L.L.L.L.L.L.L.L.U.U.U.L.L.L.U.U.L.Y.L.L.U.U.P.P.L.U.U.U.U.U.L.L.L.U.L.U.L.Y.U.P.U.Y.U.U.U.U.U.Y.Y.Y.Y.Y.Y.Y.Y.Y.Y.U.U.U.          ",
"            M.M.Z.M.M.M.M.Z.z.z.M.z.z.M.z.z.z.z.M.M.M.M.M.M.M.z.M.M.M.M.z.z.z.z.z.z.z.z.z.z.z.z.z.z.z.z.z.z.z.M.z.z.z.z.z.z.z.z.z.z.z.z.z.z.z.z.z.z.z.z.z.z.z.z.z.l.z.z.z.z.z.l.l.l.l.l.l.l.l.z.l.l.l.l.k.k.k.l.l.v.v.y.y.s.s.f.f.f.f.f.s.s.s.f.f.s.s.s.s.f.f.f.s.s.s.f.f.y.t.t.t.y.y.y.y.y.t.y.y.t.t.t.t.t.t.y.t.y.y.y.y.y.y.y.t.t.t.t.t.t.t.e.t.t.t.t.e.e.e.q.e.e.q.q.q.q.q.q.q.0.0.0.0.q.w.>.*.*.-.$X=XpXsXiX9X8X7X1X>X1X7X7X1X1X1X1X1X1X1X1X7X7X1X7X7X7X1X1X1X7X7X1X1X1X1X1X1X7X1X7X7X1X1X1X1X2X2X9XiXiXiXiXpXpXpXpXpXpXpXpXpXpXpXpXpXpXpXpXiXiXiXiXiXiXiXiXiXiXiXiXiXiXiXpXpXpXpXpXpXpXpXsXsXsXsXsXsXdXdXdXdXdXsXsXsXdXdXdXdXsXsXsXsXdXCXFXZXIXkX8.<.>.,.q.t.e.e.e.e.e.e.t.e.t.t.t.t.t.t.t.t.t.t.t.y.y.y.e.y.e.e.r.w.<.T.XXF.F./.).).).^./.`.`././.`.[.'.K.K.P.P.K.K.K.].[.`.K.I.I.P.'.[.K.'.'.'.].].`.`.`.K.K.K.K.L.K.L.L.L.U.U.U.U.U.U.U.L.L.L.L.Y.U.L.L.L.L.L.L.L.L.L.L.L.L.U.L.L.L.L.L.L.Y.L.L.L.L.L.L.L.L.L.L.L.L.L.L.L.L.L.L.L.L.L.U.U.U.L.L.U.U.U.Y.U.L.L.Y.Y.L.L.U.U.L.U.U.U.L.L.U.U.U.U.U.U.U.P.U.U.U.U.U.U.P.U.Y.Y.Y.Y.Y.Y.Y.Y.Y.U.U.U.          ",
"            M.M.M.M.M.M.M.M.M.z.M.z.M.M.z.z.z.M.M.M.M.M.z.z.M.M.M.M.M.M.M.M.z.z.z.z.z.z.z.z.z.z.z.z.z.z.z.z.z.z.z.z.z.z.z.z.z.z.z.z.z.z.z.z.z.z.z.z.z.z.z.z.z.z.z.z.z.z.z.z.l.l.l.l.l.l.l.l.l.z.l.l.l.k.k.k.k.k.k.k.v.l.s.y.y.s.f.f.i.y.s.s.s.f.f.s.s.s.s.f.f.f.s.s.s.s.f.f.s.y.t.t.t.y.t.y.y.y.t.t.t.y.t.t.t.t.t.y.y.t.t.y.y.t.y.t.t.t.t.t.t.t.t.t.t.t.t.e.e.e.e.e.q.q.e.q.q.e.e.q.0.0.0.0.0.q.q.9.>.&.&.1.7.%XfXdXNXsX9X7X7X1X1X1X1X1X1X1X1X1X7X7X1X1X7X7X7X7X7X1X1X1X1X1X7X7X1X7X0X7X1X7X1X1X7X1X1X2X9XiXiXiXiXpXiXiXpXpXpXpXpXpXpXpXpXpXpXiXiXpXiXiXiXiXiXiXiXiXpXiXiXpXpXpXpXpXpXpXpXpXpXpXsXsXsXsXsXsXsXdXsXsXsXsXsXsXdXdXsXdXBXZXGXFXmX$Xn.<.;.,.q.t.e.e.e.e.e.e.e.e.t.t.t.t.t.t.t.t.t.t.t.t.t.t.t.t.y.r.e.t.r.2.>.T.OXF.`./.).`.)././.`.`.`./.`.K.K.K.P.P.P.K.].K.K.P.].P.].P.I.I.'.].P.I.'.'.K.`.[.`.`.K.K.U.L.L.L.U.L.L.U.U.U.U.U.U.U.U.L.L.L.Y.Y.U.L.L.L.L.L.L.L.L.L.L.L.L.L.L.L.L.L.L.L.L.L.L.L.L.L.L.L.L.L.L.L.L.L.L.L.L.L.U.U.Y.U.U.Y.L.L.L.U.U.Y.L.L.Y.L.L.L.L.L.U.U.U.L.L.U.L.U.U.U.U.U.U.Y.U.U.U.U.P.U.P.P.P.Y.Y.Y.Y.Y.Y.Y.Y.Y.Y.Y.U.          ",
"              M.M.M.M.M.M.M.M.Z.z.z.M.z.z.z.z.z.M.M.M.M.z.z.z.M.M.M.z.z.M.M.M.z.z.z.z.z.z.z.z.z.z.z.z.z.z.z.z.z.z.z.z.z.z.z.z.z.z.z.z.z.z.z.z.z.z.z.z.z.z.z.z.z.z.z.z.z.z.z.l.l.l.l.l.l.l.l.l.z.z.l.l.l.l.k.k.k.k.k.l.z.v.f.y.y.i.f.i.y.f.f.f.s.s.s.y.s.s.s.s.s.s.s.s.s.s.s.f.f.y.t.t.y.t.y.y.y.t.t.t.y.y.y.y.t.t.t.t.t.t.t.t.y.y.y.y.t.t.t.t.t.t.t.t.t.t.t.t.t.e.e.e.e.e.e.q.q.q.0.e.q.0.0.0.q.q.q.p.p.q.9.:.;.1.8.$XMXCXZXBXpX9X7X1X0X7X1X7X1X1X7X7X1X1X1X1X1X7X1X1X1X1X1X7X7X7X7X7X7X7X7X7X7X7X1X1X1X7X8X9X9XiXiXiXiXiXiXiXiXiXiXiXpXiXiXiXiXpXiXiXiXiXiXpXpXiXiXiXiXpXiXpXpXpXpXpXpXpXpXpXpXsXsXpXsXsXsXsXsXsXsXsXsXdXNXCXZXZXGXPXkX7.1.>.:.9.w.t.t.e.e.e.e.t.t.e.e.t.t.t.t.t.t.t.t.t.t.t.t.t.t.t.t.y.t.y.r.t.y.3.>.C.OXF././.)./.`.`.`.`.`.`./.`.[.P.P.P.K.P.P.P.P.P.P.P.P.P.P.P.P.K.'.].P.P.K.'.K.K.[.[.K.K.[.L.L.L.U.P.U.U.U.U.U.U.U.U.U.Y.Y.L.Y.L.L.Y.L.L.Y.L.L.L.L.L.L.L.L.L.L.L.L.L.L.L.L.L.L.L.L.L.L.L.L.L.Y.L.L.L.L.L.L.L.L.U.U.L.U.K.Y.L.L.L.Y.U.U.L.L.L.L.L.L.L.L.U.U.U.L.K.P.U.U.U.P.L.U.U.U.U.U.U.P.U.Y.Y.Y.Y.Y.Y.Y.Y.Y.Y.Y.Y.Y.Y.Y.            ",
"              M.M.M.M.M.M.M.M.M.Z.z.z.z.z.z.z.z.M.M.z.M.z.z.M.M.M.z.z.z.M.M.M.z.z.z.z.z.z.z.z.z.z.z.z.z.z.z.z.z.z.z.z.z.z.z.z.z.z.z.z.z.z.z.z.z.z.z.z.z.z.z.z.z.z.z.z.z.z.z.z.l.z.l.l.l.l.l.l.z.l.l.l.l.l.l.l.k.k.k.k.k.l.v.f.t.y.f.i.i.f.f.f.f.s.s.s.s.s.s.s.s.s.s.f.f.s.s.s.s.f.s.y.t.t.y.y.y.t.t.y.y.y.y.y.y.t.t.y.y.t.t.t.t.t.y.y.y.y.t.t.t.t.t.t.t.t.t.t.t.t.t.t.t.e.e.e.e.e.e.e.e.q.q.q.q.0.q.q.0.q.e.q.q.9.:.&.=.1.7.%XSXCXCXNXsXiX9X7X1X1X7X7X1X1X1X1X1X1X7X7X7X7X7X7X7X7X7X7X0X7X7X0X7X7X7X7X1X1X1X2X8X8X9X9X9X9XiXiXiXiXiXiXiXiXiXiXiXiXiXiXpXiXiXiXiXiXiXiXiXiXiXiXiXiXiXiXiXiXiXpXiXpXpXpXpXsXsXpXpXsXdXNXZXGXJXHXUX$Xn.<.;.>.9.q.t.e.q.e.e.e.e.e.e.t.t.t.t.t.t.t.t.t.t.t.t.t.t.t.y.t.y.y.t.e.t.e.e.y.w.,.Y.OX'./.`.)./.`.`.`.`.`.`.`.`.`.K.K.P.P.P.P.K.K.P.K.P.P.P.K.P.P.P.'.'.P.L.K.'.'.'.I.[.[.K.K.K.K.K.P.P.U.U.U.U.U.L.L.L.L.Y.L.L.L.Y.L.L.U.Y.L.L.L.L.L.L.L.L.L.L.L.L.L.L.L.L.L.L.L.L.L.L.L.L.L.L.L.Y.Y.L.U.U.U.L.L.U.U.Y.U.U.L.U.L.L.L.L.U.Y.L.L.L.U.L.U.L.L.U.U.U.L.K.U.U.U.U.L.L.U.U.U.U.U.U.U.Y.Y.Y.Y.Y.Y.Y.Y.Y.Y.U.U.Y.Y.Y.Y.            ",
"              M.M.M.M.M.M.M.M.M.M.Z.z.z.z.z.z.z.z.z.z.z.M.z.M.M.M.z.z.z.M.M.M.M.z.z.z.z.z.z.z.z.z.z.z.z.z.z.z.z.z.z.z.z.z.z.z.z.z.z.z.z.z.z.z.z.z.z.z.z.z.z.z.z.z.z.z.z.z.z.z.z.z.v.l.z.l.l.l.l.z.z.l.l.l.l.l.l.k.k.k.k.k.l.v.g.y.y.f.i.f.f.f.f.f.f.f.f.f.s.s.s.s.s.s.s.s.s.s.s.f.f.f.y.t.t.y.y.t.t.y.y.y.y.y.y.t.t.y.y.y.t.t.t.t.t.y.y.t.y.y.y.t.t.t.t.t.t.t.t.t.t.t.t.t.t.e.e.e.e.e.e.q.e.q.q.0.e.q.0.0.0.q.q.0.e.q.9.<.&.*.=.8.$X%XSXNXdXdXiX8X2X1X1X1X1X1X1X1X1X7X7X7X7X7X7X7X7X0X0X0X0X0X0X7X7X7X7X7X1X1X1X8X8X8X8X9X9XiXiXiXiXiXiXiXiXiXiXiXiXiXiXiXiXiXiXiXiXiXiXiXiXiXiXiXiXiXiXiXiXiXiXiXiXpXsXsXdXNXZXZXFXHXUX$Xn.1.>.:.,.w.t.t.e.0.0.e.t.e.e.t.e.e.e.t.t.t.t.t.t.t.t.t.t.t.t.t.t.t.y.y.y.t.t.e.r.e.r.e.>.T.OXF./.^.).'././.`.`.`././.`.].'.K.K.P.P.P.K.K.P.K.K.K.P.P.P.P.P.I.].'.K.K.K.'.'.K.'.`.[.[.K.K.K.U.U.L.U.U.U.U.U.L.L.L.L.L.L.Y.Y.Y.L.L.Y.L.L.L.L.L.L.L.L.L.L.L.L.L.L.L.L.L.L.L.Y.Y.L.L.L.L.L.L.L.Y.Y.L.U.U.U.U.U.U.U.U.U.U.U.U.U.U.L.L.L.U.L.L.U.U.U.U.L.L.L.U.L.L.L.U.U.].U.L.L.U.U.U.U.U.U.Y.Y.Y.Y.Y.Y.Y.Y.Y.Y.Y.Y.Y.Y.Y.Y.Y.            ",
"              M.M.M.M.M.M.M.M.M.M.Z.M.z.z.z.z.z.z.z.z.z.M.M.M.M.M.M.M.M.M.M.M.M.z.z.z.z.z.z.z.z.z.z.z.z.z.z.z.z.z.z.z.M.z.z.z.z.z.z.z.z.z.z.z.z.z.z.z.z.z.z.z.z.z.z.z.z.z.z.z.z.z.z.z.z.l.l.l.k.l.z.l.l.z.l.l.l.l.k.k.l.k.k.l.v.g.y.y.f.f.f.f.f.f.f.f.f.f.f.s.s.s.s.s.s.s.s.s.s.s.f.f.f.i.t.t.t.y.y.y.y.y.y.t.t.t.y.y.y.y.t.t.t.t.t.t.y.y.y.y.t.t.t.t.t.t.t.t.t.t.t.t.t.t.t.t.e.e.e.e.e.e.e.e.e.e.q.q.q.q.q.q.q.q.q.q.q.q.q.q.9.;.*.*.=.8.7.%XqXsXdXsXpXiX9X8X2X1X1X1X1X7X7X7X0X0X7X0X7X7X7X0X7X0X0X0X0X0X7X7X8X8X8X8X8X8X8X9X9X9X9X9X9X9XiXiXiXiXiXiXiXiXiXiXiXiXiXiXiXpXpXpXpXpXpXpXpXpXpXpXpXsXdXNXCXZXZXMX%X$X8.<.>.;.<.3.e.t.e.e.e.e.e.e.0.e.e.e.e.t.t.t.t.t.t.t.t.t.t.t.y.y.t.t.t.y.y.y.r.e.t.e.e.y.r.y.e.>.!.XX^././.).`.`./././.`.`././.'.I.].P.K.P.P.P.P.K.K.P.P.P.P.K.K.K.[.I.'.`.K.`.`.I.K.K.K.`.`.`.K.K.P.U.U.L.U.U.U.U.U.L.L.L.L.L.U.Y.Y.U.L.U.U.L.L.L.L.L.Y.L.L.L.L.L.L.L.L.L.L.L.L.L.L.L.Y.L.L.L.L.L.L.L.L.L.L.Y.U.U.U.U.U.U.U.L.U.U.U.U.L.L.L.L.L.L.U.U.U.U.U.U.U.K.K.L.L.U.].U.U.L.L.L.Y.U.U.U.U.Y.U.U.Y.Y.Y.Y.Y.Y.Y.Y.Y.Y.Y.Y.Y.Y.            ",
"              M.M.M.M.M.M.M.M.M.M.M.M.M.z.z.z.z.z.z.M.M.M.M.M.Z.z.z.z.M.M.M.M.M.M.M.z.z.z.z.z.z.z.z.z.z.z.z.z.z.z.z.z.M.z.v.z.z.z.z.z.z.z.z.z.z.z.z.z.z.z.z.z.z.z.z.z.z.z.z.z.z.z.z.z.z.v.l.l.l.l.l.l.l.l.l.l.l.l.l.l.l.l.k.k.l.z.h.y.y.f.f.f.f.f.s.s.s.s.f.f.s.s.s.s.s.s.s.s.s.s.s.f.s.f.f.y.t.t.y.t.y.y.y.y.y.y.y.y.y.y.y.t.t.t.t.t.y.y.y.y.t.t.t.t.t.t.t.t.t.t.t.t.t.t.t.t.t.t.t.t.e.e.e.e.e.e.e.e.e.e.q.q.q.q.0.q.q.0.q.q.q.e.t.q.9.>.:.*.&.1.8.$X%XqXsXdXNXdXdXpXiXiX9X8X0X0X0X7X7X7X7X8X7X7X7X7X7X0X7X7X7X8X8X8X8X8X8X8X9X9X9X9X9X9X9XiXiXiXiXiXiXiXpXiXiXiXiXiXiXiXpXpXpXsXsXsXdXNXBXBXBXCXSXUX$X7.6.<.>.:.9.w.p.t.t.t.e.e.e.e.e.e.e.e.e.e.e.e.t.t.t.t.t.t.t.t.t.t.y.t.t.y.t.t.t.t.y.y.y.e.r.r.r.y.y.q.>.!.OX/.)././.`.`././.`.`./.`.)./.`.`.P.U.P.P.P.P.P.K.P.P.P.P.K.K.P.K.K.`.`.`.K.K.'.[.K.[.'.I.'.K.K.K.L.K.L.L.U.U.U.L.L.L.U.U.U.L.L.L.L.U.L.L.U.L.L.L.L.L.L.L.L.L.L.L.L.L.L.L.L.L.L.L.L.L.L.L.Y.L.L.L.L.L.L.L.L.U.U.U.L.U.U.L.K.K.K.K.L.L.L.L.L.U.U.L.L.U.Y.U.U.U.U.L.L.U.].L.[.[.L.U.U.U.Y.U.U.U.U.U.U.U.Y.Y.U.Y.Y.Y.Y.Y.Y.Y.Y.Y.Y.Y.            ",
"                M.M.M.M.M.M.M.M.M.M.M.Z.Z.z.z.z.M.z.z.M.z.M.M.z.M.M.z.M.z.z.M.M.M.Z.z.z.z.z.z.z.z.z.z.z.z.z.z.z.z.z.z.z.M.M.z.z.z.z.z.z.z.z.z.z.z.z.z.z.z.z.z.z.z.z.z.z.z.z.z.z.z.z.z.z.z.l.l.l.l.l.l.l.l.z.z.l.l.l.l.l.l.l.l.k.k.z.k.y.y.f.f.f.f.f.f.f.f.f.f.f.s.s.f.f.f.s.s.s.s.s.s.s.f.f.f.i.y.t.t.y.y.y.t.t.y.y.y.y.y.y.y.y.t.t.t.t.t.t.y.t.y.y.y.y.t.t.t.t.t.t.t.t.t.t.t.t.t.t.t.t.t.e.e.e.e.e.e.e.e.e.e.e.e.q.e.e.q.q.q.q.q.q.q.t.t.t.t.w.9.:.:.:.>.1.8.7.$XUXmXSXNXNXNXsXsXsXpXiXiXiX9X8X9X9X9X0X8X8X8X8X7X8X8X8X8X8X8X9X9X9X9X9X9X9X9X9XiXiXiXiXpXpXpXsXsXdXNXNXBXCXZXZXZXCXAXmXUXkX$Xn.6.<.>.:.<.9.q.p.p.t.e.e.e.t.t.t.t.e.t.t.t.t.t.t.t.t.t.t.t.t.t.t.y.t.t.t.y.y.y.y.y.y.y.y.y.y.y.t.r.r.r.y.r.0.>.!.OX).)./././.`.`././.`.`.`./.`.`.].].P.P.L.K.P.P.P.[.P.P.K.P.K.P.P.'.K.K.K.`.`.K.K.K.`.[.'.].'.K.K.K.U.L.L.L.U.U.L.L.L.L.U.U.U.L.L.L.L.L.L.L.U.L.L.L.L.L.L.L.L.L.L.L.L.L.L.L.L.L.L.L.L.L.L.L.L.L.L.L.L.L.L.L.L.U.U.U.U.U.U.L.U.U.U.U.U.L.L.L.U.Y.U.U.L.U.L.L.L.L.U.U.U.U.[.[.[.[.L.L.U.U.U.U.U.Y.Y.U.U.U.Y.Y.Y.Y.Y.Y.Y.Y.Y.Y.Y.Y.Y.              ",
"                M.M.M.M.M.M.M.M.M.M.M.Z.Z.M.z.z.M.M.M.M.z.M.M.z.z.z.z.z.z.z.M.M.Z.M.M.z.z.z.z.z.z.z.z.z.z.z.z.z.z.z.z.z.z.z.M.M.z.z.z.z.z.z.z.z.z.z.z.z.z.z.z.z.z.z.z.z.z.z.z.z.z.z.z.z.z.z.z.l.l.l.l.l.l.l.l.l.l.l.l.k.l.l.l.l.k.l.v.l.f.y.f.f.f.f.f.f.f.f.f.f.f.f.s.s.f.f.s.s.s.s.s.s.s.f.f.f.f.y.t.t.t.y.y.t.y.y.y.y.y.t.y.y.y.t.t.t.t.t.t.y.t.y.y.y.y.t.t.t.t.t.t.t.t.t.t.t.t.t.t.t.t.t.e.t.t.e.e.t.e.e.e.e.e.q.e.e.q.q.t.e.e.e.q.q.q.0.q.q.e.q.q.q.w.9.,.:.;.;.>.<.6.8.#X$X%XqXqXVXBXBXBXNXNXNXNXdXdXdXsXpXpXsXsXsXsXpXsXsXsXsXsXdXdXdXdXdXdXBXBXBXBXBXCXZXZXZXAXmXmXkXkX#Xn.n.6.>.:.:.:.>.,.w.q.p.e.e.q.e.e.e.e.e.e.t.e.t.t.t.t.t.t.t.t.t.t.t.t.t.t.y.t.t.y.y.y.y.y.y.y.y.y.y.y.y.y.y.y.e.y.r.e.r.e.<.C.OX).+X/.'././.`.`././.`.`.`./.`.].].K.P.P.K.K.P.K.K.P.I.P.K.[.K.K.K.K.I.K.K.K.'.K.K.K.[.[.'.[.`.K.K.K.U.K.U.U.Y.Y.L.L.L.L.L.L.U.L.L.L.L.L.L.L.U.L.L.L.L.L.L.L.L.L.L.L.L.L.L.L.L.L.L.L.L.L.L.L.L.L.Y.L.L.L.L.L.Y.U.U.L.U.U.U.U.U.U.U.L.U.U.U.U.U.U.U.L.U.L.L.L.L.L.L.U.U.L.L.L.[.L.L.L.U.U.U.Y.Y.Y.Y.Y.U.Y.Y.Y.Y.Y.Y.Y.Y.Y.Y.Y.Y.Y.U.              ",
"                M.M.M.M.M.M.M.M.M.M.M.M.M.Z.M.z.M.z.z.z.M.Z.M.M.z.M.M.M.z.z.M.M.M.M.M.M.z.z.z.z.z.z.z.z.z.z.z.z.z.z.z.z.z.z.z.z.z.z.z.z.z.z.z.z.z.z.z.z.z.z.z.z.z.z.z.z.z.z.z.z.z.z.z.z.z.z.z.z.l.l.z.l.l.l.l.l.l.l.l.l.l.l.l.l.l.l.l.v.v.j.y.f.f.f.f.f.f.f.f.f.f.f.s.s.s.s.s.s.s.s.s.s.s.s.s.s.s.f.f.y.t.t.y.y.t.t.y.y.y.t.y.y.y.t.t.t.t.y.y.t.t.y.y.y.y.y.t.t.t.t.t.t.t.t.t.t.t.t.t.t.t.t.t.t.t.t.t.t.t.e.t.t.e.e.e.e.q.q.e.e.e.e.q.q.0.0.q.q.0.0.q.0.0.q.e.e.e.0.w.9.,.<.:.:.>.>.<.1.6.8.8.7.$X$X$X%X%X=XqXqXgXgXgXgXgXfXVXVXVXVXVXVXSXMXqXqXmXUX%X%X$X$X7.n.8.6.5.<.<.>.>.;.<.,.9.w.q.e.e.e.e.e.0.e.e.e.e.e.e.e.e.t.t.t.t.t.t.t.t.t.t.t.t.t.y.t.t.t.y.t.y.y.t.t.t.t.y.y.t.t.y.y.t.t.y.y.y.e.e.e.r.e.>.!.OX^.).)././././././././.`././.`.`.U.U.U.U.K.P.P.K.K.P.I.I.I.K.K.K.K.K.K.K.K.K.K.K.K.K.K.K.`.`.'.K.].P.U.U.K.L.U.U.L.L.L.L.L.U.U.U.L.L.L.L.U.L.L.U.L.L.L.L.L.L.L.L.L.L.L.L.L.L.L.L.L.L.L.L.L.L.L.L.L.L.L.L.L.L.Y.Y.U.U.L.U.U.U.L.L.L.L.L.U.U.U.U.U.U.U.U.U.U.L.L.L.L.U.U.L.L.K.[.L.L.K.L.U.U.U.U.Y.Y.Y.Y.U.U.Y.Y.Y.Y.Y.Y.Y.Y.Y.Y.Y.Y.U.              ",
"                  M.M.M.Z.M.M.M.M.M.M.M.M.Z.M.z.z.z.z.z.M.M.M.Z.z.M.z.M.z.M.M.z.z.M.M.M.M.z.z.z.z.z.z.z.z.M.z.z.z.z.z.z.z.z.z.z.z.z.z.z.z.z.z.z.z.z.z.z.z.z.z.z.z.z.z.z.z.z.z.z.z.z.z.z.z.z.z.z.l.l.v.l.l.l.l.l.l.l.l.l.l.l.l.l.l.l.l.l.l.l.g.y.y.f.f.f.f.f.f.f.f.f.f.f.f.f.f.s.s.s.s.s.s.s.s.s.s.s.f.f.f.t.e.t.t.t.y.y.y.y.t.t.y.y.y.y.t.y.y.t.t.t.y.y.y.y.y.t.y.y.y.y.t.t.t.t.t.y.y.t.t.t.t.t.t.t.t.t.t.t.t.t.t.t.t.e.e.e.e.e.e.e.e.q.0.0.e.e.q.e.e.0.q.0.0.0.0.e.0.e.e.t.e.t.q.q.w.9.9.,.<.>.:.:.:.;.&.&.>.>.=.<.<.=.1.1.1.1.1.1.1.1.<.<.<.>.>.>.;.:.;.:.>.<.,.,.9.w.q.e.t.t.t.e.e.e.e.e.e.e.t.e.e.e.e.e.e.t.t.t.t.t.t.t.t.t.t.t.t.t.t.t.t.t.t.t.t.t.y.y.y.y.y.y.y.y.y.y.y.y.y.y.t.t.y.y.e.t.t.r.e.>.B.OX_././.).'././././././././././.`.[.L.U.U.K.K.P.P.K.[.I.K.I.I.K.K.K.K.`.`.K.K.`.K.K.K.K.`.K.K.I.'.`.P.P.U.U.K.U.U.L.L.U.L.L.L.L.L.L.L.L.L.L.U.L.L.L.L.L.L.L.L.L.L.L.L.L.L.L.L.L.L.L.L.L.L.L.L.L.L.Y.Y.L.L.Y.L.L.Y.U.U.U.U.L.U.U.L.L.L.L.L.U.L.L.U.U.L.L.L.Y.U.U.L.L.U.U.L.L.L.L.K.L.L.L.L.U.U.U.U.Y.Y.Y.U.U.U.Y.Y.U.Y.Y.Y.Y.Y.Y.Y.Y.Y.                ",
"                  M.M.M.Z.Z.M.M.M.M.M.Z.M.M.M.Z.z.z.z.z.M.Z.M.M.z.z.z.M.M.M.z.z.z.z.M.M.M.M.z.z.z.z.z.z.z.M.z.z.z.z.z.z.z.z.z.z.z.z.z.z.z.z.z.z.z.z.z.z.z.z.z.z.z.z.z.z.z.z.z.z.z.z.z.z.z.z.z.z.z.v.v.l.l.l.l.l.l.l.l.l.l.l.l.l.l.l.l.k.l.l.l.h.y.y.f.i.f.f.f.f.f.f.f.f.f.f.f.s.s.f.s.s.s.s.s.f.f.s.s.s.f.f.y.y.t.t.t.y.y.y.y.t.y.y.t.t.y.y.t.t.t.t.t.t.y.y.y.y.y.y.y.y.t.t.t.t.t.t.t.t.t.t.t.t.t.t.y.t.t.t.t.t.t.t.t.t.t.e.t.t.t.t.e.e.e.e.e.e.e.e.e.e.e.e.e.0.e.e.e.e.e.e.e.e.e.e.e.e.e.t.t.p.p.p.p.p.p.q.q.q.w.9.9.9.9.9.9.9.9.9.9.9.9.w.q.q.q.q.p.p.p.t.t.q.q.q.e.e.e.e.e.e.e.e.e.e.e.e.e.e.e.e.e.e.e.e.t.t.t.t.t.t.t.t.t.t.t.t.t.t.t.y.y.t.t.t.t.y.y.y.y.y.y.y.y.y.y.y.y.y.y.t.t.t.t.t.t.t.r.0.>.!.OX_.)./././.'.`././.`.`.`.`.`.`.`.[.K.K.U.P.K.P.P.K.P.K.K.K.[.P.K.K.K.K.`.`.K.K.`.`.K.K.K.K.'.I.P.'.].P.K.K.K.U.U.U.L.L.U.Y.L.L.L.L.L.L.K.L.L.L.L.L.L.L.L.L.L.L.L.L.L.L.L.L.L.L.L.L.L.L.L.L.L.L.Y.U.U.U.Y.Y.U.Y.L.L.Y.L.U.U.L.U.U.L.U.U.L.L.L.U.K.L.U.L.L.L.L.L.Y.U.L.L.L.L.L.L.L.K.K.L.P.U.U.].P.P.U.Y.Y.Y.Y.Y.Y.Y.U.Y.Y.Y.Y.Y.Y.Y.Y.Y.                ",
"                  M.M.M.M.M.M.M.M.M.M.Z.M.M.M.Z.Z.z.z.z.z.Z.Z.Z.M.M.z.M.M.M.Z.z.z.z.M.M.M.M.M.z.z.z.z.z.z.z.z.z.z.z.z.z.z.z.z.z.z.z.z.z.z.z.z.z.z.z.z.z.z.z.z.z.z.z.z.z.z.z.z.z.z.z.z.z.z.z.z.z.z.z.z.z.l.l.l.l.l.l.l.l.l.l.l.k.l.k.l.l.l.l.l.l.k.f.y.i.f.f.f.f.f.f.f.f.f.f.f.s.f.s.s.s.s.s.s.s.f.s.f.s.f.f.f.f.y.t.t.t.t.t.t.y.y.y.y.y.y.y.y.y.y.t.t.t.y.y.y.t.y.y.y.y.t.t.y.y.y.t.t.t.t.t.t.t.t.t.y.y.t.t.t.t.t.t.t.t.t.t.t.t.t.t.t.t.e.e.e.e.e.e.e.e.e.e.e.e.e.e.t.t.e.e.e.e.e.e.e.e.q.e.e.e.t.e.e.t.e.e.e.e.e.e.t.t.t.t.t.t.e.e.t.e.e.t.t.t.t.e.e.e.e.e.e.e.e.e.e.e.e.e.e.e.e.e.e.e.e.t.t.e.e.t.e.e.t.t.t.t.t.t.t.t.t.t.t.y.y.t.t.t.y.y.y.y.y.y.y.y.y.y.y.y.y.y.y.y.y.y.y.y.y.y.y.t.t.t.t.r.e.<.B.OX`.H././././././././.`././.`.`.`.[.[.K.K.P.P.K.P.P.K.K.K.P.P.P.K.K.K.K.K.`.`.`.K.`.`.K.`.K.K.'.`.K.].].P.K.K.U.U.L.U.U.U.U.Y.L.L.L.L.L.L.L.L.L.L.U.U.U.L.Y.L.L.L.L.L.L.L.L.L.L.L.L.L.L.L.L.L.L.L.Y.Y.U.U.Y.U.L.Y.Y.Y.Y.L.U.U.U.U.U.U.L.U.U.L.L.L.L.L.L.L.U.U.U.U.U.U.L.L.L.L.L.L.L.K.K.K.K.L.L.U.P.P.Y.Y.U.U.Y.Y.Y.Y.Y.Y.Y.Y.Y.Y.Y.Y.Y.Y.                ",
"                  M.M.M.M.M.Z.M.M.M.M.M.M.M.M.M.M.M.z.z.z.z.M.M.M.Z.Z.z.M.Z.Z.M.M.z.M.M.Z.Z.M.z.z.z.z.z.z.z.z.z.z.z.z.z.z.z.z.z.z.z.z.z.z.z.z.z.z.z.z.z.z.z.z.z.z.z.z.z.z.z.z.z.v.z.z.z.z.z.z.z.z.z.z.z.z.l.l.l.l.l.l.l.l.z.z.l.l.l.l.l.k.k.l.l.l.l.j.f.f.f.f.f.f.f.f.f.f.f.f.f.f.s.s.s.s.s.s.s.s.f.f.f.f.s.s.f.f.s.y.t.e.t.t.t.y.y.y.y.y.y.y.y.y.t.t.t.t.y.t.t.y.t.y.y.y.y.y.t.t.t.t.y.y.t.t.t.t.t.t.t.t.y.y.t.y.y.t.t.t.t.t.t.t.t.t.t.t.t.t.e.e.e.e.e.e.e.e.e.e.t.t.t.t.e.e.e.e.t.t.t.t.t.e.e.e.e.e.e.e.e.e.e.e.e.e.e.e.e.e.e.e.e.e.e.e.e.e.t.e.e.e.e.e.e.e.q.e.e.e.e.e.e.e.e.e.t.t.t.t.t.t.t.t.t.t.e.t.t.t.t.t.t.t.t.t.t.y.y.t.t.t.t.y.y.y.y.y.y.y.y.y.y.y.y.y.y.y.y.y.y.y.y.y.y.y.t.e.e.y.e.>.!.OX).F.'.`./././././././././.`.`.[.[.].P.K.K.P.P.P.P.K.K.K.K.P.P.K.K.`.`.`.`.`.`.`.K.`.K.'.].K.K.].].P.K.K.K.L.L.U.L.L.U.U.L.L.L.L.L.L.L.L.L.L.L.L.L.L.L.L.L.L.L.L.L.L.L.L.L.L.L.L.L.L.L.L.L.L.L.L.L.U.Y.Y.U.Y.U.U.Y.L.L.U.Y.L.U.U.U.U.U.U.L.L.L.U.U.L.L.U.U.L.U.U.U.U.Y.L.L.L.L.L.].L.K.L.K.U.L.L.U.U.P.P.P.U.P.U.Y.Y.Y.Y.Y.Y.Y.Y.Y.Y.Y.Y.Y.                ",
"                    M.M.M.M.Z.M.M.M.M.M.M.M.M.M.M.M.Z.z.z.z.M.M.z.z.Z.M.M.M.z.M.z.z.z.z.z.Z.M.M.Z.z.z.z.z.z.z.z.z.z.z.z.z.z.z.z.z.M.z.v.z.z.z.z.z.z.z.z.z.z.z.z.z.z.z.z.z.z.z.z.v.v.v.z.z.z.z.z.z.z.z.z.z.l.z.l.l.l.l.l.l.l.z.l.l.l.l.l.l.l.l.l.k.l.l.g.f.y.f.f.f.f.f.f.f.f.f.f.s.s.s.f.f.s.s.s.s.f.f.f.f.s.s.s.s.s.f.s.t.e.e.t.y.t.t.t.y.y.y.y.y.t.t.t.t.t.t.t.t.t.t.y.y.t.t.t.y.y.y.y.y.y.t.t.t.t.t.t.t.t.t.t.y.t.t.t.t.t.t.t.t.t.t.t.t.t.t.t.t.t.e.t.e.t.e.e.t.t.t.t.t.t.t.t.t.t.t.t.t.t.t.t.t.t.e.e.e.t.t.t.t.e.e.e.e.e.e.e.e.e.e.e.e.e.e.e.e.e.e.e.e.e.e.e.e.t.t.t.e.t.t.t.t.t.t.t.t.t.e.t.t.t.t.t.t.t.t.t.t.t.t.t.y.y.y.y.y.t.t.y.y.y.y.y.y.y.y.y.y.y.y.y.y.y.y.y.y.y.y.y.y.y.y.t.e.e.e.>.B.OX)././.`.)./.`.`././././.`.`.`.[.[.`.`.K.K.K.K.K.K.K.K.K.P.K.K.K.P.P.K.`.`.`.`.K.`.`.P.].].P.K.`.].P.P.K.K.K.L.L.L.U.U.L.U.U.U.L.L.L.L.L.L.L.L.L.L.L.L.L.L.L.L.L.L.L.L.L.L.L.L.L.L.L.L.L.L.L.L.L.L.Y.U.U.U.U.Y.U.U.Y.L.L.U.U.U.U.U.U.U.U.U.U.U.U.U.U.L.L.U.L.Y.U.L.U.U.Y.L.L.L.L.U.L.L.K.K.L.L.L.L.P.P.P.P.P.P.P.P.Y.Y.Y.Y.Y.Y.Y.Y.Y.Y.Y.Y.                  ",
"                    M.M.M.M.M.M.M.M.M.M.M.M.M.M.M.M.M.M.z.z.M.z.z.z.z.M.M.M.M.M.z.z.M.M.M.M.Z.M.Z.M.z.z.z.z.z.z.z.z.z.z.z.z.z.z.z.M.z.z.z.z.z.z.z.z.z.z.z.z.z.z.z.z.z.z.z.z.z.z.v.v.z.z.z.z.z.z.z.z.z.z.z.z.l.l.l.l.l.l.l.l.z.z.l.l.l.l.l.l.l.l.l.l.l.l.h.f.y.f.f.f.f.f.f.f.f.f.f.f.f.f.f.f.f.s.s.f.s.s.s.s.f.s.s.s.s.f.f.y.t.e.e.t.t.t.t.t.t.y.y.y.y.y.t.t.t.t.t.t.t.t.y.t.t.t.y.y.y.y.y.y.y.y.y.y.y.t.t.t.t.t.y.y.t.t.t.t.t.t.t.t.t.t.t.t.t.t.t.t.t.t.t.t.t.t.t.t.t.t.t.t.t.t.t.t.t.t.e.t.t.t.t.t.t.t.t.t.e.t.e.e.e.e.t.e.e.t.e.e.t.t.e.t.t.t.e.e.e.e.e.t.t.t.t.t.t.t.t.t.e.t.t.t.t.t.t.t.t.t.t.t.t.t.t.t.t.t.t.t.t.y.y.y.y.y.y.y.y.y.y.y.y.y.y.y.y.y.y.y.y.y.y.y.y.y.y.y.y.y.y.r.e.y.r.e.>.c.OX_.F./.).'.`./././././.`.`.`.`.[.[.[.[.K.K.K.K.K.K.K.K.I.P.P.K.K.K.P.].[.K.].`.`.`.[.K.K.'.P.P.K.K.P.P.P.P.K.K.L.L.L.U.U.L.U.U.U.U.U.L.L.L.L.L.L.L.L.L.L.L.L.L.L.L.L.L.L.L.L.L.L.L.L.L.L.L.L.L.L.L.L.U.L.L.U.U.L.L.L.L.L.L.L.U.U.U.L.U.L.L.U.U.U.U.U.L.L.L.U.L.U.U.U.U.U.U.U.U.U.L.U.L.K.K.K.L.L.L.K.K.K.P.P.P.P.P.Y.Y.Y.Y.Y.Y.Y.Y.Y.Y.Y.Y.Y.                  ",
"                    M.M.M.M.M.M.M.M.M.M.M.M.M.M.M.M.M.M.M.M.z.z.z.z.z.z.z.z.z.M.z.z.M.M.M.M.M.M.M.M.z.z.z.z.z.z.z.z.z.z.z.z.z.z.z.z.z.z.z.z.z.z.z.z.z.z.z.z.z.z.z.z.z.z.z.z.z.z.z.z.z.z.z.z.z.z.z.z.z.z.z.z.l.l.z.l.l.l.l.l.l.z.l.l.l.l.l.l.l.k.l.l.l.k.l.l.g.f.f.f.f.f.f.f.f.f.f.f.f.f.f.f.f.f.f.f.s.s.s.s.s.s.f.f.s.s.s.f.f.y.e.e.t.t.t.y.y.y.t.t.y.y.y.t.t.y.y.y.y.t.y.y.y.t.y.y.y.y.y.y.y.y.y.y.y.y.y.y.y.t.t.t.t.t.t.t.t.t.t.t.t.t.t.t.t.t.t.t.t.t.t.t.t.t.t.t.t.t.t.t.t.t.y.t.t.t.t.t.t.t.t.t.t.t.t.t.t.t.t.t.t.t.t.t.t.t.t.t.t.t.t.t.t.t.t.t.t.t.t.t.t.t.t.t.t.t.t.t.t.e.t.t.t.t.t.t.t.t.t.t.t.t.t.t.t.t.t.t.t.y.t.y.y.y.y.y.y.y.y.y.y.y.y.y.y.y.y.y.y.y.y.y.y.y.y.y.y.t.y.y.u.r.e.>.c.OX XG.)././././.`./././.`.`.`.`.[.[.`.K.K.P.K.K.P.K.K.K.K.I.P.P.P.K.K.].].`.K.'.K.`.`.K.P.P.`.P.P.I.P.P.P.K.K.K.L.U.U.L.U.L.L.U.L.U.U.L.L.L.L.L.L.L.L.L.L.L.L.L.L.L.L.L.L.L.L.L.L.L.L.L.L.L.L.L.L.L.L.L.L.L.L.Y.L.L.L.L.L.L.L.U.U.L.L.L.U.L.L.U.U.U.U.U.L.L.U.U.U.L.L.L.L.Y.U.U.U.L.L.L.L.L.L.L.L.L.K.P.K.U.P.P.P.P.Y.Y.P.Y.Y.Y.Y.Y.Y.Y.Y.Y.Y.Y.                  ",
"                      M.M.M.M.M.M.M.M.M.M.M.M.M.M.M.M.M.M.M.z.z.M.M.z.z.z.z.M.M.M.M.M.z.z.z.z.Z.M.M.M.z.z.z.z.z.z.z.z.z.z.z.z.z.z.z.z.z.z.z.z.z.z.z.z.z.z.z.z.z.z.z.z.z.z.z.z.z.z.v.z.z.z.z.z.z.z.z.z.z.z.z.z.z.l.z.l.l.l.l.l.l.z.l.l.l.l.l.l.l.l.l.l.l.k.l.l.h.f.y.f.f.f.f.f.f.f.f.f.f.f.f.f.f.s.s.s.s.s.s.s.s.s.s.s.f.s.f.f.f.f.y.e.e.t.y.y.t.t.t.y.y.y.y.y.y.y.y.t.y.t.y.y.y.y.y.y.y.y.y.y.y.y.y.y.y.y.y.t.y.y.t.t.t.y.t.t.t.t.t.t.t.t.t.t.t.t.t.t.t.t.t.t.t.t.t.t.t.t.t.y.t.t.t.t.t.t.t.t.t.t.t.t.t.t.t.t.t.t.t.t.t.t.t.t.t.t.t.t.t.t.t.t.t.t.t.t.t.t.t.t.t.e.e.t.t.t.t.t.t.t.t.t.t.t.t.t.t.t.t.t.t.y.t.t.t.t.t.y.y.y.y.y.y.y.y.y.y.y.y.y.y.y.y.y.y.y.y.y.y.y.y.y.y.y.y.y.t.t.e.r.t.<.!.OX_.G.`.`./.`.`./.`./././.`./.`.[.`.`.`.K.P.K.K.P.P.K.K.K.K.K.P.P.].'.'.K.K.'.'.'.P.].I.K.K.P.K.K.].P.P.P.P.K.K.L.L.Y.Y.L.U.U.U.L.U.U.L.L.L.L.L.L.L.L.L.L.L.L.L.U.L.L.L.L.L.L.L.L.L.L.L.L.L.L.L.L.L.L.L.L.L.L.L.U.Y.L.L.L.L.L.U.U.L.L.U.U.U.U.U.U.L.L.U.L.U.L.L.U.L.U.U.L.L.L.Y.U.U.L.L.K.K.L.L.L.K.K.K.K.P.P.P.P.P.P.Y.Y.P.Y.Y.Y.Y.U.U.Y.Y.Y.Y.                    ",
"                      M.M.M.M.M.M.M.M.M.M.M.M.M.M.M.M.M.M.M.M.z.z.z.M.z.z.z.Z.M.M.M.M.M.z.z.z.M.M.M.M.M.M.M.z.z.z.z.z.z.z.z.z.z.z.z.z.z.z.z.z.z.z.z.z.z.z.z.z.z.z.z.z.z.z.z.z.z.z.z.z.z.z.z.z.z.z.z.z.z.z.z.z.z.z.z.z.z.z.z.l.l.z.z.z.l.l.l.l.l.k.k.k.k.k.k.k.l.k.f.s.i.f.f.f.f.f.f.f.f.f.f.f.f.s.s.f.f.s.s.s.s.s.s.s.s.f.f.f.f.f.f.f.y.e.e.e.t.y.y.y.y.y.y.y.y.y.y.y.y.y.y.y.y.y.y.y.y.y.y.y.y.y.y.y.t.y.y.t.y.y.y.y.t.t.t.t.t.t.t.t.t.t.t.t.t.y.y.t.t.t.t.t.t.y.y.t.t.y.y.y.y.y.t.t.y.t.t.t.t.t.t.t.t.y.t.t.t.t.t.t.t.t.t.t.t.t.t.t.t.t.t.e.t.t.e.e.t.t.t.t.t.t.y.t.y.y.t.t.t.t.t.t.t.t.t.t.t.t.t.t.t.t.t.t.t.t.t.y.y.y.y.y.y.y.y.y.y.y.y.y.y.y.y.y.y.y.y.y.y.y.y.y.y.y.y.y.t.t.e.e.>.!.OX_.I././.)./.`.`./././.`./.`.`.`.[.K.K.K.K.P.P.P.P.P.K.K.K.K.K.U.K.`.`.K.K.K.'.'.'.].P.K.K.[.].U.K.U.U.K.K.K.L.L.L.L.L.L.L.U.U.U.U.L.L.L.L.L.L.L.L.L.L.L.L.L.L.L.U.L.L.L.L.L.L.L.L.L.L.L.L.L.L.L.L.L.L.L.L.L.L.L.U.Y.L.L.L.L.L.U.U.U.L.L.U.U.U.U.U.L.L.U.L.L.L.L.U.L.L.U.U.U.L.L.U.U.L.L.K.L.L.U.L.K.K.K.K.P.P.P.P.P.P.Y.Y.P.Y.Y.Y.Y.Y.Y.Y.Y.Y.Y.                    ",
"                        M.M.M.M.M.M.M.M.M.M.M.M.M.M.M.M.M.M.M.M.z.z.z.z.z.z.z.z.Z.M.M.z.z.z.z.M.M.M.M.M.Z.M.M.M.z.z.z.z.z.z.z.z.z.z.z.z.z.z.z.z.z.z.z.z.z.z.z.z.z.z.z.z.z.z.z.z.z.z.z.z.z.z.z.z.z.z.z.z.l.l.z.z.z.z.z.z.z.z.z.l.z.z.z.l.l.l.l.l.l.l.k.l.k.k.k.k.k.k.h.f.y.f.f.f.f.j.f.f.f.f.s.s.s.s.s.f.f.f.s.s.s.s.s.s.f.f.f.f.s.f.f.g.f.y.t.e.e.t.y.y.t.t.t.t.t.y.y.y.y.y.y.y.y.y.y.y.y.y.y.y.y.y.y.t.y.y.y.y.y.y.y.y.t.t.y.t.y.y.t.t.t.t.y.y.y.y.t.y.y.t.t.t.y.y.y.t.t.y.y.t.y.t.t.y.y.t.t.t.t.t.t.t.t.t.t.t.t.t.t.t.t.t.t.t.t.t.t.t.t.t.t.t.t.t.t.t.y.y.y.y.y.y.y.t.y.y.t.y.t.t.t.t.t.y.y.y.t.t.t.t.t.y.t.t.t.t.t.t.y.y.y.y.t.t.y.y.y.y.y.y.y.y.y.y.y.y.y.y.y.y.y.y.y.y.y.e.r.t.>.c.OX_.H./.`.'.`.'./././././.`.`.`.[.K.K.K.K.K.K.K.P.K.K.P.K.K.K.P.K.L.K.`.`.K.`.'.K.'.].].P.U.P.I.K.K.K.U.L.L.K.L.L.L.L.L.L.L.L.L.L.U.U.L.L.L.L.L.L.L.L.L.L.L.L.L.L.L.Y.L.L.L.L.L.L.L.L.L.L.L.L.L.L.L.L.L.L.L.L.L.L.L.L.U.L.L.L.L.L.U.L.U.L.L.L.U.L.U.U.U.U.U.U.U.U.L.L.U.L.U.U.U.Y.U.U.U.U.U.U.U.L.U.U.K.K.P.P.U.Y.P.P.P.P.Y.Y.P.Y.Y.Y.Y.Y.Y.Y.Y.Y.                      ",
"                        M.M.M.M.M.M.M.M.M.M.M.M.M.M.M.M.M.M.M.M.M.M.z.z.M.z.z.z.M.z.z.z.z.z.z.z.M.M.M.M.Z.Z.M.z.z.z.z.z.z.z.z.z.z.z.z.z.z.z.z.z.z.z.z.z.z.z.z.z.z.z.z.z.z.z.z.z.z.z.z.z.z.z.z.z.z.z.z.z.z.z.z.z.z.z.v.z.z.z.z.l.l.z.z.l.z.z.l.l.l.l.l.l.k.l.l.l.l.k.l.l.h.s.y.f.f.f.f.f.f.f.s.s.s.s.s.f.f.f.j.f.s.s.s.s.s.s.s.s.s.s.f.f.f.f.f.s.t.e.e.t.y.y.t.t.t.t.t.y.y.y.y.y.y.y.y.y.y.y.y.y.y.y.y.t.y.y.y.y.y.y.y.y.y.y.y.t.y.y.y.t.t.y.y.y.y.y.y.y.y.y.y.t.t.y.y.y.y.y.y.t.t.y.y.y.y.t.t.t.y.y.y.y.t.t.y.t.y.t.t.t.t.y.y.y.y.t.y.t.t.t.y.t.t.t.y.y.t.y.y.y.t.t.y.y.y.y.y.y.y.y.y.t.y.y.y.t.y.y.y.t.t.t.t.y.t.t.t.t.y.y.y.y.t.t.t.y.y.y.y.y.y.y.y.y.y.y.y.y.y.y.y.y.y.y.y.r.e.>.c.OX_.H./.`.'.`.`./././.`.`.`.`.`.`.[.[.K.K.K.P.K.K.K.P.P.'.'.K.K.].].].P.K.`.`.`.'.I.].[.K.P.P.I.K.K.K.K.K.L.L.L.L.U.L.L.L.L.L.L.U.L.L.L.L.L.L.L.L.L.L.L.L.L.L.L.L.L.L.L.L.L.L.L.L.L.L.L.L.L.L.L.L.L.L.L.L.L.L.L.L.L.L.L.L.L.L.L.L.L.L.L.U.U.L.L.U.U.U.U.U.U.U.U.U.U.U.L.U.U.L.L.L.U.U.L.L.U.U.U.L.L.L.L.U.K.K.P.U.U.P.P.P.P.P.U.Y.Y.Y.Y.Y.Y.Y.Y.Y.Y.                      ",
"                        M.M.M.M.M.M.Z.M.M.M.M.M.M.M.M.M.M.M.M.M.M.M.z.z.z.z.M.M.M.z.z.z.M.M.M.z.M.M.M.Z.Z.Z.Z.M.z.z.z.z.z.z.z.z.z.z.z.z.z.z.z.z.z.z.z.M.M.z.z.z.z.z.z.z.z.z.z.z.z.z.z.z.z.z.z.z.z.z.z.z.z.z.z.z.z.z.z.z.z.l.l.l.l.l.l.z.z.l.l.l.l.l.l.l.l.l.l.l.l.k.k.l.l.l.g.s.s.f.f.f.f.f.f.f.s.s.s.s.f.f.j.f.f.s.s.s.s.s.s.s.s.s.s.s.s.s.s.g.f.f.y.e.t.t.t.y.y.t.t.y.y.y.y.t.y.y.y.y.y.y.y.y.y.y.y.y.y.y.y.y.y.y.y.y.y.y.y.t.y.y.y.y.y.y.y.y.y.y.t.t.t.y.y.y.t.t.y.y.y.y.t.t.t.y.y.y.y.y.y.y.y.y.t.t.t.y.y.y.y.y.y.y.y.y.y.y.t.t.y.t.t.y.t.t.t.t.y.y.y.y.y.y.t.y.y.y.y.y.y.y.y.y.y.t.t.t.t.t.t.y.y.t.y.y.t.y.y.y.y.y.y.y.y.y.t.t.y.y.y.y.y.y.y.y.y.y.y.y.y.y.y.y.y.y.y.t.r.e.>.c.OX XH.`.`.'.'.'./././.`.`.`.`.`.`.`.K.`.K.K.P.P.P.P.P.P.].P.K.P.'.'.`.'.[.`.`.`.`.[.'.'.K.K.K.U.U.L.L.U.U.U.L.L.L.U.U.L.U.U.L.L.L.Y.Y.L.L.L.L.L.L.L.L.L.L.L.L.L.L.L.L.L.L.L.L.L.L.L.L.L.L.L.L.L.L.L.L.L.L.L.L.L.L.L.L.L.L.L.L.Y.Y.L.L.L.L.L.Y.L.L.U.U.U.U.U.U.U.L.L.U.U.U.U.L.L.L.L.Y.U.L.L.U.U.U.L.U.K.K.K.K.L.L.U.U.P.P.P.P.P.Y.Y.Y.Y.Y.Y.Y.Y.Y.Y.Y.                      ",
"                          M.M.M.M.M.M.Z.M.M.M.M.M.M.M.M.M.M.M.M.M.Z.M.z.z.z.M.M.M.z.z.z.M.M.z.z.z.z.M.M.Z.Z.Z.Z.z.z.z.z.z.z.z.z.z.z.z.z.z.z.z.z.z.z.z.z.z.z.z.z.z.z.z.z.z.z.z.z.z.z.z.z.z.z.z.z.z.z.z.z.z.z.z.z.z.z.z.z.z.z.l.l.l.l.l.l.l.l.l.v.l.l.l.l.l.l.k.k.k.k.k.k.k.v.v.h.s.s.f.f.f.f.f.s.s.s.s.s.f.f.f.f.j.f.f.s.s.s.s.s.s.s.s.s.s.s.s.s.f.g.g.s.y.t.e.e.t.t.t.t.t.y.y.t.y.y.y.t.y.t.y.y.y.y.y.y.y.y.y.y.y.y.y.y.y.y.y.y.y.t.y.y.t.y.y.y.t.y.t.y.y.y.y.y.t.t.y.y.y.y.t.t.y.y.y.y.y.y.y.y.y.y.t.t.y.y.y.y.y.y.y.y.t.t.y.y.t.t.y.y.y.t.y.y.t.t.y.y.y.y.y.y.y.y.y.t.y.y.t.t.t.y.y.y.y.y.y.y.y.y.y.y.y.y.t.t.t.t.y.y.y.y.y.y.y.y.y.y.y.y.y.y.y.y.y.y.y.y.y.y.y.y.y.y.y.r.t.<.B.OX XH.'./.'.`.'.`./.`.`.`.`.`.`.`.`.[.`.K.K.'.K.K.].P.].`.K.K.K.[.`.`.`.K.`.K.`.[.`.K.P.P.K.K.K.U.U.U.U.U.U.U.L.L.U.U.U.L.L.L.U.U.L.L.L.L.L.L.L.L.L.L.L.L.L.L.L.L.L.L.L.L.L.L.L.L.L.L.L.L.L.L.L.L.L.L.L.L.L.L.L.L.L.L.L.L.L.L.L.U.Y.Y.L.L.L.L.U.L.L.U.U.U.U.L.L.L.L.U.L.U.U.L.L.L.L.L.U.U.U.U.L.U.U.U.U.L.U.U.K.U.U.K.L.P.K.U.U.U.Y.Y.Y.Y.Y.Y.Y.Y.Y.Y.                        ",
"                          M.M.M.M.M.M.M.M.M.M.M.M.M.M.M.M.M.M.M.M.M.M.M.z.z.z.z.z.z.z.z.M.M.M.z.z.z.z.z.M.z.M.M.M.z.z.z.z.z.z.z.z.z.z.z.z.z.z.z.z.z.z.z.z.M.M.z.z.z.z.z.z.z.z.z.z.z.z.z.z.z.z.z.z.z.z.z.z.z.z.z.z.z.z.z.z.z.z.z.z.z.z.z.l.l.l.z.z.l.l.l.l.l.l.l.k.l.l.l.l.l.l.l.l.g.s.s.s.f.f.f.f.f.f.f.s.s.s.f.f.f.f.f.s.s.s.s.s.s.s.s.s.s.s.s.f.f.f.g.f.s.s.y.e.e.t.y.y.y.y.t.y.y.y.y.y.y.y.y.y.y.y.y.y.y.y.y.y.y.y.y.t.t.t.y.t.y.y.y.y.y.t.t.t.t.t.y.y.y.y.y.t.t.y.y.y.y.y.y.y.y.y.y.y.y.y.y.y.t.t.y.y.y.y.y.y.y.y.t.t.t.t.t.y.y.y.t.y.y.y.y.y.t.y.y.y.y.y.y.y.y.t.t.y.y.t.t.t.t.t.y.y.y.y.y.y.t.y.t.y.y.y.t.t.y.y.y.y.y.y.y.y.t.y.y.y.y.y.y.y.y.y.y.y.y.y.y.y.y.r.e.y.y.,.c.OX_.K.`.).'.`.`.`.`./.`.`.`.`.`.[.K.K.`.[.K.P.].I.I.I.K.P.I.K.[.[.[.`.`.`.`.`.`.`.].].K.K.U.L.L.U.U.U.U.U.U.U.U.U.U.U.L.L.U.U.Y.L.L.Y.Y.L.L.L.L.L.L.Y.L.L.L.L.L.L.L.L.L.L.L.L.L.L.L.L.L.L.L.L.L.L.L.Y.Y.Y.Y.Y.L.L.L.L.L.L.L.L.Y.U.L.Y.U.L.L.L.L.U.L.L.U.U.U.U.L.L.U.L.L.L.U.Y.L.L.L.Y.U.L.L.U.U.U.U.U.P.P.L.U.K.K.U.P.U.P.P.U.U.U.U.Y.Y.P.P.Y.Y.Y.Y.Y.Y.                        ",
"                            M.M.M.M.M.M.M.M.M.M.M.M.M.M.M.M.M.M.M.M.M.M.M.M.z.z.z.z.z.z.M.M.M.z.z.z.z.z.z.M.M.M.M.M.M.z.z.z.z.z.z.z.z.z.z.M.M.z.M.z.z.z.z.M.M.z.z.z.z.z.z.z.z.z.z.z.z.z.z.z.z.z.z.z.z.z.z.z.z.z.z.z.z.z.z.z.z.z.z.z.z.z.z.l.l.l.l.l.l.l.l.l.l.l.l.l.l.l.l.l.l.l.l.l.k.f.y.y.s.s.f.f.f.f.s.f.s.f.f.f.f.f.s.s.s.s.s.s.s.s.s.s.f.s.s.s.f.f.f.g.g.g.s.y.y.t.t.t.y.y.y.y.y.y.y.y.t.y.y.y.y.y.y.y.y.y.y.y.t.t.t.t.t.t.y.y.y.y.y.y.y.t.y.y.y.y.y.y.y.y.y.y.y.y.y.y.y.y.y.y.y.y.y.y.y.y.y.t.y.y.y.y.y.y.y.y.y.t.t.t.t.t.y.y.y.t.t.y.y.y.y.y.y.y.y.y.y.y.y.t.t.y.y.y.t.t.t.t.t.t.t.t.t.t.t.t.t.t.t.y.y.y.y.y.y.y.y.y.y.y.y.t.y.y.y.y.y.y.y.y.y.y.y.y.y.y.r.e.t.r.y.,.c.OX_.).)././.`.`././././.`.`.[.[.`.`.`.`.K.K.K.K.K.K.K.K.K.`.P.K.[.[.`.`.`.`.`.`.`.'.K.`.].U.U.L.U.U.U.L.L.L.U.U.U.U.L.U.U.U.U.U.Y.L.L.L.L.L.L.L.L.L.L.L.L.L.L.L.L.L.L.L.L.L.L.L.L.L.L.L.L.L.L.L.L.L.L.L.L.L.Y.Y.L.L.L.L.L.L.L.L.L.U.Y.Y.U.L.L.L.U.U.L.L.L.L.U.U.L.U.U.L.U.U.U.L.L.L.L.L.U.U.L.L.L.Y.U.U.P.K.K.K.P.P.U.P.U.P.P.U.U.U.Y.Y.Y.P.Y.Y.Y.Y.Y.Y.                          ",
"                            M.M.M.M.M.M.M.M.M.M.M.M.M.M.M.M.M.M.M.M.M.M.M.M.z.z.z.z.M.M.M.M.z.z.M.M.z.z.z.M.M.M.M.M.M.M.v.z.z.z.z.z.z.z.z.M.M.M.z.z.z.z.z.z.z.z.z.z.z.z.z.z.z.z.z.z.z.z.z.z.z.z.z.z.z.z.z.z.z.z.z.z.z.z.z.z.z.z.z.z.z.z.z.l.l.l.l.z.l.l.l.l.l.l.l.l.l.l.l.k.l.l.l.l.l.l.h.s.y.s.f.f.f.f.f.f.f.f.f.f.f.f.s.s.s.s.f.s.s.s.s.s.s.s.s.f.f.f.f.f.f.g.g.g.f.y.y.t.e.t.t.y.y.y.y.y.y.y.y.y.y.y.y.y.y.y.y.t.y.y.t.y.y.t.t.t.y.y.y.y.y.y.y.y.y.y.y.y.y.y.y.y.y.y.y.y.y.y.y.y.y.y.y.y.y.y.y.y.y.y.y.y.y.y.y.y.y.t.y.y.y.y.y.y.y.y.y.y.y.y.y.y.y.y.y.t.t.t.t.y.t.t.t.t.y.t.t.t.t.t.t.t.t.t.t.t.t.y.y.y.y.y.y.y.y.y.y.y.y.y.y.y.y.y.y.y.y.y.y.y.y.y.t.y.y.y.e.y.y.y.<.b.OX X).)./././.`.`././.`./.`.[.[.`.`.`.`.'.K.K.`.`.K.K.K.].`.'.'.K.[.[.[.`.`.`.`.`.'.].K.`.P.L.L.U.U.U.U.L.L.L.L.U.U.L.L.L.L.U.Y.L.L.Y.L.L.L.L.L.L.L.L.L.L.L.L.L.L.L.L.L.L.L.L.L.L.L.L.L.L.L.L.L.L.L.L.L.L.L.L.L.L.L.L.L.L.L.L.U.U.L.L.Y.U.Y.L.L.U.U.L.L.L.L.L.L.L.U.U.L.L.U.U.L.L.L.L.L.U.U.U.L.L.L.L.U.U.U.L.P.U.L.L.P.U.P.P.P.U.U.U.P.P.Y.Y.Y.Y.Y.Y.Y.Y.                          ",
"                              M.M.M.M.M.M.M.M.M.M.M.M.M.M.M.M.M.M.M.M.M.M.M.M.z.z.z.z.M.z.M.z.z.z.z.z.z.z.M.M.M.M.M.M.z.z.v.z.z.z.z.z.z.z.z.z.z.M.z.z.z.z.z.z.z.z.z.z.z.z.z.z.z.z.z.z.z.z.z.z.z.z.z.z.z.z.z.z.z.z.z.z.z.z.z.z.z.z.z.z.z.z.z.z.l.l.z.z.l.l.l.l.l.l.l.l.l.l.k.l.k.l.l.l.l.z.l.g.s.s.f.f.f.f.f.f.f.f.f.f.f.f.f.s.s.s.s.s.s.s.s.s.s.s.f.f.f.s.f.f.f.f.f.f.g.g.f.y.y.t.t.t.y.y.y.y.t.y.t.t.t.y.t.y.y.y.y.y.y.t.y.y.y.t.y.y.y.y.y.y.y.y.t.t.y.y.y.y.y.y.y.y.y.y.y.y.y.y.y.y.y.y.y.y.y.y.y.y.y.y.y.y.y.y.y.y.y.y.y.y.y.y.y.y.y.y.y.y.y.y.y.y.y.y.t.t.t.y.y.t.t.t.t.y.y.t.t.t.y.y.y.y.y.t.t.y.t.y.y.y.y.y.y.y.y.y.y.y.y.y.y.y.y.y.y.y.y.y.y.y.e.y.y.y.s.f.f.j.,.c.OX XF./././.`././././.`.`.[.[.[.[.`.`.`.K.P.K.K.K.K.I.I.K.K.K.'.'.`.[.[.`.`.`.[.[.'.'.].P.K.K.L.L.L.L.U.U.Y.L.L.L.U.L.L.Y.U.L.U.U.U.U.Y.L.L.L.L.L.L.L.L.L.L.L.L.L.L.L.L.L.L.L.L.L.L.L.L.L.L.L.L.L.L.L.L.L.L.L.L.L.L.L.L.L.L.L.L.U.L.L.L.U.U.Y.L.L.U.U.L.L.L.Y.U.L.L.U.L.U.U.U.U.U.U.U.U.L.Y.U.U.L.L.L.L.L.K.P.U.U.U.U.U.U.U.U.P.P.U.U.U.P.P.Y.Y.Y.Y.Y.Y.Y.                            ",
"                              M.M.M.M.M.M.M.M.M.M.M.M.M.M.M.M.M.M.M.M.M.M.M.M.M.z.z.M.z.z.z.z.z.M.M.z.z.z.M.M.z.z.M.M.z.M.Z.z.z.z.z.z.z.z.z.z.z.z.M.M.M.z.z.z.z.z.z.z.z.z.z.z.z.z.z.z.z.z.z.z.z.z.z.z.z.z.z.z.z.z.z.z.z.z.z.z.z.z.z.z.z.z.z.z.z.l.l.z.l.l.l.l.l.l.l.l.l.l.l.l.l.l.l.l.l.k.l.z.l.g.s.s.f.f.f.f.f.f.f.f.f.f.f.s.s.s.s.s.s.s.s.s.s.s.s.f.f.s.s.f.f.f.f.f.f.f.g.g.j.f.y.y.t.t.t.t.t.y.t.y.y.y.y.y.y.t.y.y.y.y.y.y.y.y.y.y.y.y.y.y.t.t.y.y.y.y.y.y.y.y.y.y.y.y.y.y.y.y.y.y.y.y.y.y.y.y.y.y.y.y.y.y.y.y.y.y.y.y.y.y.y.y.y.y.y.y.y.y.y.y.y.y.y.y.y.y.y.y.y.y.y.t.y.t.t.t.t.y.t.y.y.y.y.y.y.y.y.y.y.y.y.y.y.y.y.y.y.y.y.y.y.y.y.y.y.y.y.y.r.y.s.f.g.f.f.d.h.9.N.OX_.F.'.)././././././.`.`.[.[.].`.K.`.`.K.P.P.K.K.K.K.K.K.K.K.'.'.`.[.[.`.`.`.[.[.[.].'.].P.U.L.U.U.U.Y.Y.U.U.L.L.L.L.L.U.U.U.Y.L.U.U.U.L.L.L.L.L.L.L.L.L.L.L.L.L.L.L.L.L.L.L.L.L.L.L.L.L.L.L.L.L.L.L.L.L.L.L.L.L.L.L.L.L.L.L.L.L.U.L.L.L.Y.U.U.L.L.U.L.L.L.Y.U.L.L.L.L.L.U.U.U.U.L.U.Y.L.L.U.U.U.Y.L.L.L.L.K.P.P.U.U.U.U.U.U.P.U.P.U.U.U.P.P.Y.Y.Y.Y.Y.Y.Y.                            ",
"                                M.M.M.M.M.M.M.M.M.M.M.M.M.M.M.M.M.M.M.M.M.M.M.Z.M.z.M.M.z.z.z.z.M.M.z.z.z.z.M.z.z.M.M.z.M.Z.M.z.z.z.z.z.z.z.z.z.z.z.z.M.z.z.z.M.z.z.z.z.z.z.z.z.z.z.z.z.z.z.z.z.z.z.z.z.z.z.z.z.z.z.z.z.z.z.z.z.l.z.z.z.z.z.z.z.l.z.z.v.l.l.l.l.l.l.l.l.l.l.l.l.l.l.l.l.l.k.l.l.l.k.g.s.y.f.f.f.f.f.f.f.f.f.f.f.s.g.g.s.s.s.s.s.s.f.f.f.s.s.s.f.f.f.f.f.f.f.f.f.g.g.j.f.y.y.e.e.t.t.t.t.y.y.y.y.y.y.y.y.y.y.y.y.y.t.y.y.y.y.y.y.t.y.y.y.y.y.y.y.y.y.y.y.y.y.y.y.y.y.y.y.y.y.y.y.y.y.y.y.y.y.y.y.y.y.y.y.y.y.y.y.y.y.y.y.y.y.t.y.y.y.y.y.y.y.y.y.y.y.y.y.y.y.t.t.y.y.y.y.y.y.y.y.t.y.y.y.y.y.y.y.y.y.y.y.y.y.y.y.y.y.y.y.y.y.y.y.y.f.g.g.g.g.g.d.g.9.c.OX_.).`./.).`.`./.).).`.`.[.[.[.[.`.K.K.K.P.P.I.K.K.K.K.K.K.K.`.`.`.`.[.[.K.`.`.[.[.[.[.].].K.L.U.U.U.Y.U.U.U.U.L.L.L.L.Y.Y.U.U.L.U.U.L.L.L.L.L.L.L.L.L.L.L.L.L.L.L.L.L.L.L.L.L.L.L.L.L.L.L.L.L.L.L.L.L.L.L.L.L.L.L.L.L.L.L.L.L.L.L.U.U.L.L.Y.Y.Y.L.L.U.L.L.L.L.Y.L.L.L.U.U.U.U.U.U.U.L.L.Y.U.U.L.U.Y.L.L.L.L.[.K.K.L.U.U.U.U.U.U.U.P.P.P.U.P.P.Y.Y.Y.Y.Y.Y.                              ",
"                                M.M.M.M.M.M.M.M.M.M.M.M.M.M.M.M.M.M.M.M.M.M.M.M.M.M.M.M.z.z.z.z.M.M.Z.M.z.z.z.z.z.z.z.M.z.M.Z.z.z.z.z.z.z.z.z.z.z.z.z.z.M.M.M.M.z.z.z.z.z.z.z.z.z.z.z.z.z.z.z.z.z.z.z.z.z.z.z.z.z.z.z.z.z.z.z.z.z.z.z.z.z.z.l.l.l.l.l.l.l.l.l.l.l.l.l.l.l.l.l.l.l.l.l.l.l.l.l.l.l.l.l.k.f.s.s.f.f.f.f.f.f.f.f.f.f.f.f.s.s.s.s.s.g.g.f.f.f.f.f.f.f.f.f.f.f.f.f.f.g.f.g.g.j.j.f.s.y.t.t.t.t.t.t.y.y.t.y.y.y.y.y.y.y.y.y.y.y.y.y.y.y.y.y.y.t.y.y.y.y.y.y.y.y.y.y.y.y.y.y.y.y.y.y.y.y.y.y.y.y.y.y.y.y.y.y.y.y.y.y.y.y.y.y.y.y.y.y.y.y.y.y.y.y.y.y.y.y.y.y.t.y.y.y.y.y.y.t.y.y.y.y.t.y.y.y.y.y.y.y.y.y.y.y.y.y.y.y.y.t.t.t.y.y.s.f.g.g.g.g.g.g.d.f.g.,.d.OX XF././././.`.`.`.).'.[.[.[.[.].[.K.K.K.P.P.P.P.K.P.P.K.K.K.K.`.`.K.`.[.K.`.`.`.`.[.[.K.U.P.K.K.L.U.U.U.U.U.U.U.L.L.L.Y.Y.U.L.U.U.L.L.L.L.L.Y.L.L.L.Y.L.L.L.Y.U.L.L.L.L.L.L.L.L.L.L.L.L.L.L.L.L.L.L.L.L.L.L.L.L.L.L.L.L.L.L.L.L.L.U.L.L.L.U.U.U.U.L.L.L.L.L.L.L.L.L.L.L.U.U.L.L.U.U.U.L.L.L.U.Y.L.L.L.L.L.L.L.P.P.U.U.U.U.U.U.U.U.U.P.P.P.P.Y.Y.Y.Y.Y.Y.Y.Y.                              ",
"                                  M.M.M.M.M.M.M.M.M.M.M.M.M.M.M.M.M.M.M.M.M.M.M.M.M.M.z.z.z.z.z.M.M.M.M.z.M.M.z.z.z.z.z.z.M.M.z.z.z.z.z.z.z.z.z.z.z.z.z.z.M.M.M.z.z.z.M.z.z.z.z.z.z.z.z.z.z.z.z.z.z.z.z.z.z.z.z.z.z.z.z.z.z.z.z.z.z.z.z.z.z.z.l.l.l.l.l.l.l.l.l.l.l.l.l.l.l.l.l.l.l.l.l.l.l.l.l.l.l.l.l.l.k.g.s.s.f.f.f.f.f.f.f.f.f.f.s.g.f.f.s.s.s.d.s.f.f.f.f.f.f.f.f.f.f.f.f.g.f.f.g.f.g.g.g.g.j.f.y.y.t.t.t.t.t.y.y.y.y.y.y.y.y.y.y.y.y.y.y.y.y.y.y.y.y.y.y.y.y.y.y.y.y.y.y.y.y.y.y.y.y.y.y.y.y.y.y.y.y.y.y.y.y.y.y.y.y.y.y.y.y.y.y.y.y.y.y.y.y.y.y.y.y.y.y.y.y.y.y.t.y.y.y.y.y.y.y.y.y.y.y.y.y.y.y.y.y.y.y.y.y.y.y.t.t.y.y.t.y.f.f.j.g.g.g.g.g.g.g.f.g.g.9.c.OX XF.)./././.`././.`.`.`.[.[.[.[.].[.K.P.P.K.K.P.P.].P.P.K.K.K.`.[.K.K.`.`.K.`.`.[.[.[.[.K.U.P.P.U.U.U.U.U.U.U.U.L.L.L.U.Y.Y.U.L.U.U.L.L.L.L.L.L.U.L.L.Y.L.L.L.L.U.L.L.L.L.L.L.L.L.L.L.L.L.L.L.L.L.L.L.L.L.L.L.L.L.L.L.L.L.Y.L.L.U.Y.U.U.U.L.U.U.U.U.L.L.L.L.L.U.L.L.L.U.L.L.L.L.L.U.U.L.L.L.L.Y.Y.L.L.L.L.L.L.L.P.P.U.U.U.U.U.U.U.U.U.P.P.P.U.Y.Y.Y.P.P.Y.Y.                                ",
"                                  M.M.M.M.M.M.M.M.M.M.M.M.M.M.M.M.M.M.M.M.M.M.M.M.M.Z.Z.z.z.z.z.z.z.M.z.z.M.M.z.M.M.M.M.M.M.Z.M.M.z.v.z.z.z.z.z.z.z.z.z.z.z.z.z.z.z.M.M.M.z.z.z.z.z.z.z.z.z.z.z.z.z.z.z.z.z.z.z.z.z.z.z.z.z.z.z.z.z.z.z.z.z.z.z.z.l.l.z.l.l.z.z.l.l.l.l.l.l.l.l.l.l.l.l.l.l.l.l.l.l.l.l.l.z.l.h.g.s.s.f.f.j.f.f.f.f.f.g.g.f.f.f.f.f.f.s.f.f.f.f.f.f.f.f.f.f.f.f.f.f.g.g.g.g.f.f.g.g.g.g.j.f.y.y.y.y.t.t.t.t.y.y.y.y.y.y.y.y.y.y.y.y.y.y.y.y.y.y.y.y.y.y.y.y.y.y.y.y.y.y.y.y.y.y.y.y.y.y.y.y.y.y.y.y.y.y.y.y.y.y.y.y.y.y.y.y.y.y.y.y.t.y.y.y.y.y.y.y.y.y.y.y.y.y.y.i.y.t.t.t.y.y.y.y.y.y.y.y.y.y.y.y.y.y.y.f.f.f.j.j.g.g.g.g.g.g.g.g.g.f.d.h.w.c.OX XF.`./.^./.`.`./.`.`.`.'.`.`.[.].[.`.K.P.P.K.K.P.P.].K.K.].K.K.[.[.K.`.`.[.[.`.`.`.[.[.P.[.U.P.P.U.U.U.U.U.L.L.L.L.L.L.U.L.L.U.U.U.L.L.L.L.L.L.Y.L.L.Y.Y.L.L.L.L.L.L.L.L.L.L.L.L.L.L.L.L.L.L.L.L.L.L.L.L.L.L.L.L.L.L.L.L.L.U.L.L.U.U.U.U.U.U.U.U.L.U.L.L.L.L.L.U.L.L.Y.Y.L.U.U.L.L.U.U.U.L.L.L.L.L.L.L.L.L.L.K.L.P.U.U.U.U.U.U.U.U.U.P.P.P.P.U.P.Y.Y.P.P.Y.Y.                                ",
"                                    M.M.M.M.M.M.M.M.M.M.M.M.M.M.M.M.M.M.M.M.M.M.M.M.Z.Z.M.M.z.z.z.z.M.z.z.M.M.M.M.M.M.M.Z.Z.Z.M.M.M.M.z.z.z.z.z.z.z.z.z.z.z.z.z.z.z.z.z.M.z.z.z.z.z.z.z.z.z.z.z.z.z.z.z.z.z.z.z.z.z.z.z.z.z.z.z.z.z.z.z.z.z.z.z.z.l.l.z.l.l.l.l.z.l.l.l.l.l.l.l.l.l.l.l.l.l.l.l.l.l.l.l.l.k.l.l.l.k.g.s.f.f.f.f.f.f.f.s.s.f.g.f.f.f.f.f.f.f.f.f.f.f.f.f.f.f.f.f.f.g.f.g.g.g.g.f.g.j.j.g.g.g.g.j.j.f.i.y.y.t.e.t.t.t.t.t.y.y.y.y.y.y.y.y.y.y.y.y.y.y.y.y.y.y.y.y.y.y.y.y.y.y.y.y.y.y.y.y.y.y.y.y.y.y.y.y.y.y.y.y.y.y.y.y.y.y.y.y.y.y.y.y.y.y.y.y.y.y.y.y.y.y.y.y.y.y.y.y.y.y.y.y.y.y.y.y.y.y.y.y.y.s.f.j.j.j.j.j.g.g.g.g.g.g.g.g.g.g.g.g.g.w.c.XX XH./././././.`./.`.`.`.`.'.`.`.I.'.K.K.P.P.P.K.P.P.P.K.].K.P.'.[.[.[.`.'.`.`.`.`.`.[.[.].P.K.U.P.P.L.U.U.U.U.L.L.L.L.U.U.L.L.L.U.U.U.L.L.L.L.L.Y.Y.Y.U.Y.Y.Y.L.L.L.L.L.L.L.L.L.L.L.L.L.L.L.L.L.L.L.L.L.L.L.L.L.L.L.L.L.L.L.Y.L.L.L.U.L.L.U.U.Y.U.U.U.U.U.U.U.Y.Y.U.L.L.Y.Y.L.U.U.L.L.L.L.L.L.L.L.L.L.L.U.U.U.U.P.U.U.U.U.Y.U.P.U.U.P.P.P.P.U.P.U.P.P.Y.P.P.P.                                  ",
"                                      M.M.M.M.M.M.M.M.M.M.M.M.M.M.M.M.M.M.M.M.M.M.M.M.M.M.z.z.z.z.z.M.M.M.M.M.M.M.M.z.M.M.M.M.M.M.M.M.v.v.v.z.z.z.z.M.z.z.z.z.z.z.z.z.M.M.z.z.z.z.z.z.z.z.z.z.z.z.z.z.z.z.z.z.z.z.z.z.z.z.z.z.z.z.z.z.z.z.z.z.z.z.z.l.l.l.l.z.l.l.z.l.l.l.l.l.l.l.l.l.l.l.l.l.l.l.l.l.l.l.l.l.l.l.v.l.h.g.s.s.f.f.f.f.s.f.s.s.f.f.f.f.f.f.f.f.f.f.f.f.f.f.s.g.d.s.s.f.g.g.g.f.f.g.j.j.f.f.j.g.j.g.g.g.g.g.j.f.y.y.t.t.e.e.e.e.t.y.y.y.y.y.y.y.y.y.y.y.y.y.y.y.y.y.y.y.y.y.y.y.y.y.y.y.y.y.y.y.y.y.y.y.y.y.y.y.y.y.y.y.y.y.y.y.y.y.y.y.y.y.y.y.y.t.y.y.y.y.y.y.y.y.y.y.t.t.t.y.y.y.y.y.y.i.s.f.j.j.j.f.f.f.j.g.g.g.g.g.g.g.g.g.g.g.g.g.h.9.c.OX XF.)./.).`./.`.`.`.`.`.`./.`.[.`.K.I.K.K.P.P.P.P.K.P.P.P.[.P.I.`.K.K.`.].[.[.[.[.`.[.[.[.P.].K.U.K.K.U.L.L.L.L.L.Y.U.L.L.Y.U.U.U.U.L.L.L.L.U.L.L.Y.U.L.L.U.L.Y.Y.L.L.L.L.L.L.L.L.L.L.L.L.L.L.L.L.L.L.L.L.L.L.L.L.L.L.L.L.L.L.L.L.L.L.U.L.L.U.U.U.U.U.U.U.U.U.U.Y.U.U.L.L.L.L.U.U.U.U.L.L.L.L.L.L.L.L.L.L.L.L.L.L.P.U.U.U.L.U.U.P.U.U.P.].P.U.U.P.P.P.P.P.P.P.                                    ",
"                                      M.M.M.M.M.M.M.M.M.M.M.M.M.M.M.M.M.M.M.M.M.M.M.M.M.M.Z.z.z.z.z.M.z.z.M.M.M.M.z.z.M.M.M.v.z.z.M.Z.Z.M.z.z.z.z.z.z.z.z.M.z.z.z.z.M.M.z.z.z.z.z.z.z.z.z.z.z.z.z.z.z.z.z.z.z.z.z.z.z.z.v.z.z.z.z.z.z.z.z.z.z.z.z.z.z.l.l.l.z.z.l.l.v.l.l.l.l.l.l.l.l.l.l.l.l.l.l.l.l.l.l.l.l.l.l.l.l.l.l.k.g.f.s.s.f.f.f.f.f.f.f.f.f.f.f.f.f.f.g.g.f.f.f.s.g.g.g.s.f.f.d.g.g.g.g.f.f.g.g.g.g.g.g.j.j.j.f.g.g.g.g.j.j.f.s.y.y.y.e.e.e.t.t.t.t.y.y.y.y.y.y.y.y.y.y.y.y.y.y.y.y.y.y.y.y.y.y.y.y.y.y.y.y.y.y.y.y.y.y.y.y.y.y.y.y.y.y.y.y.y.y.y.y.y.y.y.y.t.t.t.y.y.y.y.y.y.y.y.y.i.f.f.j.j.j.j.j.j.f.f.f.j.g.g.g.g.g.g.g.g.g.g.g.g.d.j.g.,.4.OX XF.).)./././.`.`.`.`.`.`.`.`.`.K.K.K.K.K.K.P.K.K.P.].'.P.P.P.`.`.K.I.'.'.'.].[.[.`.`.[.[.K.K.].U.U.L.L.U.U.L.L.U.L.L.U.U.L.L.U.U.U.L.L.L.L.L.Y.L.L.U.Y.L.L.L.L.L.L.L.L.L.L.L.L.L.L.L.L.L.L.L.L.L.L.L.L.L.L.L.L.L.L.L.Y.L.L.L.L.L.L.L.L.L.L.Y.L.U.U.L.U.U.U.Y.L.L.L.U.U.L.L.L.U.U.U.U.U.L.L.L.L.L.L.L.L.L.L.L.L.L.U.P.U.].U.U.].U.U.].U.P.].P.P.U.U.P.P.P.P.P.P.                                    ",
"                                        M.M.M.M.M.M.M.M.M.M.M.M.M.M.M.M.M.M.M.M.M.M.M.M.M.Z.M.z.z.z.M.z.z.z.M.M.M.M.z.M.M.z.z.z.M.z.z.z.M.M.M.z.z.z.z.z.z.M.z.z.z.M.M.M.z.z.M.M.z.z.z.z.z.z.z.z.z.z.z.z.z.z.z.z.z.z.z.z.v.z.z.z.z.z.z.l.z.z.z.z.z.z.z.z.z.l.z.z.l.l.z.l.l.l.l.l.l.l.l.l.l.l.l.l.l.l.l.l.l.l.l.l.l.l.k.k.l.l.l.l.h.g.s.s.s.s.g.f.f.f.f.f.f.f.f.f.f.f.f.f.f.g.g.g.s.g.f.f.g.d.f.f.g.f.f.g.g.g.g.g.g.f.f.f.g.g.g.g.g.g.g.g.g.g.g.g.f.f.f.y.y.y.y.t.t.t.t.t.t.t.y.y.y.y.y.y.y.y.y.y.y.y.y.y.y.y.y.y.y.y.y.y.y.y.y.y.y.y.y.y.y.y.y.y.y.y.y.y.y.t.t.y.y.t.t.y.y.y.y.f.f.f.j.j.f.j.j.g.g.g.f.f.f.f.f.f.f.g.g.g.g.g.g.g.g.h.g.h.h.h.g.g.g.g.9.u.OX XF.).).)././.`.`.`.`.`.`.`.`.`.[.[.[.'.'.P.P.K.P.P.P.P.I.K.P.I.K.`.[.K.`.[.`.`.[.`.`.[.[.[.K.P.K.U.U.L.U.U.U.U.U.U.L.L.L.U.L.L.U.U.U.L.L.L.L.L.L.L.L.U.U.L.L.L.L.L.L.L.L.L.L.L.L.L.L.L.L.L.L.L.L.L.L.L.L.L.L.L.L.L.L.L.L.L.L.L.L.L.L.L.L.L.U.U.L.L.Y.U.U.U.U.U.U.L.L.Y.L.L.L.L.U.U.U.U.Y.L.L.L.U.L.L.L.L.L.L.L.L.U.].P.].U.].U.U.].U.U.].P.U.U.U.U.P.P.P.P.P.P.                                      ",
"                                          M.M.M.M.M.M.M.M.M.M.M.M.M.M.M.M.M.M.M.M.M.M.M.M.M.M.M.z.z.M.M.z.z.z.z.z.M.z.M.M.z.z.z.z.z.z.z.M.Z.M.z.z.z.z.z.z.z.z.M.M.M.z.M.z.z.z.M.M.M.z.z.z.z.z.z.z.z.z.z.z.z.z.z.z.z.z.z.z.z.v.z.z.z.z.l.z.z.z.z.z.z.z.z.z.z.z.z.z.z.l.l.l.l.l.l.l.l.l.l.l.l.l.l.l.l.l.l.l.l.l.l.l.l.l.k.l.l.k.l.l.l.k.g.s.s.s.f.f.f.f.f.f.f.f.f.f.f.f.f.g.f.f.f.f.f.g.g.g.g.s.s.f.f.g.g.g.f.f.g.g.f.g.g.g.g.g.g.g.f.f.j.g.g.g.g.g.g.g.g.j.j.j.j.j.f.f.y.y.y.y.y.y.y.y.y.y.y.t.t.t.y.t.y.y.y.y.y.y.y.y.y.y.y.y.y.y.y.y.y.y.y.y.y.y.y.y.y.y.y.y.f.s.f.f.f.j.j.j.j.j.g.g.g.g.j.j.f.f.f.f.f.f.f.f.g.g.g.g.h.h.g.g.g.g.g.g.h.h.h.h.g.j.w.c.OX XF./.`.).).`.`.`.`.`.`.`.'.`.`.`.`.[.].K.`.K.K.K.K.P.P.P.K.].`.K.K.K.[.`.`.`.[.[.[.`.K.K.].].K.K.K.K.K.U.U.L.U.U.U.L.L.L.L.L.U.U.U.L.L.L.L.L.L.L.L.L.L.U.Y.L.Y.Y.U.L.L.L.L.L.L.L.L.L.L.L.L.L.L.L.L.L.L.L.L.L.L.L.L.L.L.L.L.L.L.L.L.L.L.L.L.L.U.L.L.L.L.L.U.U.L.L.U.L.L.L.L.L.L.L.L.U.U.U.U.L.U.U.L.L.L.L.L.L.L.U.U.U.U.K.U.U.U.P.U.].U.U.U.U.U.U.U.U.P.P.P.P.U.                                        ",
"                                          M.M.M.M.M.M.M.M.M.M.M.M.M.M.M.M.M.M.M.M.M.M.M.M.M.M.M.M.z.z.M.z.z.z.z.z.M.M.M.z.z.M.M.M.z.Z.M.z.M.z.v.z.z.z.z.M.z.z.z.z.z.z.z.M.M.M.M.M.z.z.z.z.z.z.z.z.z.z.z.z.z.z.z.z.z.z.z.z.z.z.z.z.z.z.z.z.z.z.z.z.z.z.z.z.z.z.l.z.z.z.l.l.l.l.l.l.l.l.l.l.l.l.l.l.l.l.l.l.l.l.l.l.l.l.l.l.l.k.l.l.l.l.l.k.h.f.s.s.s.f.f.f.f.f.f.f.f.f.f.d.g.j.f.f.f.g.g.g.f.f.s.s.f.g.f.f.f.f.g.f.f.g.g.g.f.g.g.g.j.f.f.f.g.g.f.f.f.f.j.g.j.j.g.g.g.g.g.g.g.g.j.j.j.j.f.f.f.f.f.f.f.f.f.f.f.f.s.y.y.i.s.s.s.s.f.f.f.f.f.f.j.f.f.j.j.j.j.g.g.j.j.g.g.g.j.g.g.f.f.f.f.f.f.g.g.f.f.j.j.j.f.g.g.g.g.g.g.g.g.h.g.h.g.g.g.g.h.h.h.h.h.q.d.OX XF.).^.).).).`.`.`.`.`.`.`.`.`.[.`.`.'.'.K.`.P.K.K.K.P.P.P.K.K.`.`.`.[.`.`.`.`.[.[.[.[.K.K.].].P.K.K.K.L.U.U.L.L.U.L.L.U.U.L.L.L.U.L.L.L.Y.L.U.U.L.Y.L.L.Y.Y.Y.Y.Y.Y.L.L.L.L.L.L.L.L.L.L.L.L.L.L.L.L.L.L.L.L.L.L.L.L.L.L.L.L.L.L.L.L.L.L.L.L.L.L.L.L.L.L.Y.U.U.U.U.Y.L.L.U.U.L.L.L.U.U.L.U.L.L.L.L.L.L.L.L.L.L.L.L.L.L.U.U.U.U.U.P.L.U.U.].].].].].].P.P.P.P.P.P.                                        ",
"                                            M.M.M.M.M.M.M.M.M.M.M.M.M.M.M.M.M.M.M.M.M.M.M.Z.M.M.M.M.z.z.M.z.z.z.z.M.M.M.z.z.M.M.z.z.z.M.z.z.M.v.z.z.z.z.z.z.z.z.z.z.z.z.M.M.M.M.M.M.M.z.z.z.z.z.z.z.z.z.z.z.z.z.z.z.z.z.z.z.z.z.z.z.z.z.l.z.z.z.z.z.z.z.z.z.z.z.z.z.z.z.z.l.l.l.z.l.l.l.l.l.l.l.l.l.z.z.l.l.l.l.l.l.l.l.k.l.l.l.k.k.l.l.l.l.l.h.g.f.s.f.f.f.f.g.f.f.f.f.g.g.f.f.f.g.f.g.g.g.g.f.f.f.f.f.f.f.f.f.f.f.g.g.f.f.f.f.g.g.g.g.f.f.g.f.g.g.f.f.j.f.f.f.j.j.g.g.g.g.j.g.j.j.g.g.g.g.g.g.g.g.g.g.g.g.g.f.f.j.j.j.g.g.g.g.g.g.g.g.g.g.j.g.g.j.g.j.j.g.f.j.j.j.j.f.f.f.f.f.f.f.f.f.f.g.f.j.g.g.g.g.g.g.g.g.g.g.g.h.h.h.h.h.h.h.g.g.h.h.h.q.d.XX XF.)./.).).).).`.`.`.`.`.`.`.[.K.P.K.`.'.K.K.K.K.K.K.P.K.K.].I.[.[.`.[.[.`.[.[.[.`.`.`.].].K.K.K.K.K.L.L.U.L.L.L.L.U.U.Y.L.L.L.L.L.L.L.L.L.L.L.L.L.U.L.U.U.L.L.L.L.L.L.L.L.L.L.L.L.L.L.L.L.L.L.L.L.L.L.L.L.L.L.L.L.L.L.L.L.L.L.L.L.L.L.L.L.L.L.L.L.L.L.L.L.U.L.L.Y.U.U.U.Y.U.Y.L.L.L.L.U.U.U.L.L.L.L.L.L.L.L.L.L.U.L.L.L.U.U.U.U.].U.K.U.U.U.].].].U.U.].P.P.P.P.                                          ",
"                                              M.M.M.M.M.M.M.M.M.M.M.M.M.M.M.M.M.M.M.M.M.M.M.M.M.M.Z.Z.z.M.z.z.z.z.M.z.M.M.z.z.M.Z.z.z.M.z.M.M.M.z.z.M.z.z.z.z.z.z.z.z.z.z.z.z.M.M.M.M.M.M.z.z.z.z.z.z.z.z.z.z.z.z.z.z.z.z.z.z.z.z.z.z.z.z.l.l.l.z.z.z.z.z.z.z.z.z.z.z.z.z.l.l.l.l.l.l.l.l.l.l.l.l.l.z.z.l.l.l.l.l.l.l.l.k.k.l.l.k.k.k.l.k.l.l.l.l.k.h.g.f.f.s.f.f.f.s.f.g.f.f.f.f.s.g.g.g.g.f.f.j.j.f.j.j.j.g.f.f.f.g.g.g.g.g.g.g.g.g.g.f.g.g.g.g.g.g.g.g.g.g.g.j.j.j.j.g.g.g.j.g.g.j.j.j.j.j.j.g.g.f.f.j.f.f.g.g.g.j.j.j.j.j.j.j.j.j.j.j.f.f.j.f.f.f.f.j.j.j.j.j.j.f.f.f.f.g.f.j.j.f.f.j.g.g.g.g.g.g.g.g.g.g.g.h.h.h.h.h.h.h.h.h.h.h.g.h.h.q.u..X X^././././.'.`./.`.`.`.`.`.`.`.`.K.P.P.`.[.K.K.K.K.K.P.K.K.K.K.'.].K.[.[.`.`.[.[.[.[.`.`.[.].P.K.K.P.U.L.L.U.L.L.L.L.U.U.L.L.L.L.L.L.L.L.L.L.L.L.L.L.U.L.L.U.L.L.L.L.L.L.L.L.L.L.L.L.L.L.L.L.L.L.L.L.L.L.L.L.L.L.L.L.L.L.L.L.L.L.L.L.Y.L.L.L.L.L.L.L.L.L.L.Y.U.L.L.L.U.U.U.U.U.L.L.L.L.L.U.U.U.Y.L.L.L.L.L.L.L.L.L.U.U.L.U.U.K.].].].].].U.U.U.U.P.U.U.U.U.U.P.P.                                            ",
"                                              M.M.M.M.M.M.M.M.M.M.M.M.M.Z.M.M.M.M.M.M.M.M.M.M.M.M.M.Z.Z.M.z.z.z.z.z.z.z.z.z.z.M.z.M.z.z.z.z.M.M.M.z.M.M.z.z.z.z.z.z.z.z.z.z.z.z.z.z.z.M.M.M.z.z.z.z.z.z.z.z.z.z.z.z.z.z.z.z.z.z.z.z.z.z.z.z.z.z.z.z.z.z.z.z.z.z.z.z.z.z.z.z.z.z.l.l.l.l.l.l.l.l.l.l.z.l.l.l.l.l.l.l.l.l.l.l.l.l.k.k.l.l.k.k.k.k.k.l.l.l.k.h.f.f.s.s.f.g.f.g.g.f.g.f.f.f.f.f.f.g.g.g.g.g.g.j.g.g.g.j.g.g.j.g.g.g.g.g.g.g.f.g.g.g.g.g.g.g.g.g.g.g.j.j.g.g.g.g.g.g.g.g.g.g.g.g.g.g.g.g.f.f.j.f.g.g.g.g.g.j.j.j.j.j.g.g.g.g.j.j.j.j.g.g.j.j.j.j.j.j.f.j.f.f.f.g.f.j.j.j.g.g.g.g.g.h.h.h.h.h.g.g.h.h.h.h.h.h.h.h.h.h.h.g.h.h.k.q.a..X X^./././././.`.`.`.`.`.`.`.`.`.`.K.K.P.].I.K.K.'.].K.K.'.K.K.'.I.].].].[.[.`.`.[.[.`.[.[.`.[.P.P.K.P.L.U.L.L.U.U.U.L.L.U.L.L.L.L.L.L.L.L.L.L.L.L.L.L.L.U.L.L.U.L.L.L.L.L.L.L.L.L.L.L.L.L.L.L.L.L.L.L.L.L.L.L.L.L.L.L.L.L.L.L.L.L.L.L.L.U.L.L.L.L.L.L.L.L.L.L.L.Y.L.L.U.U.U.L.Y.U.L.L.L.L.U.U.Y.Y.Y.Y.U.Y.Y.U.L.L.L.L.U.U.L.U.U.U.].].].].].U.U.].U.U.U.U.U.U.U.P.U.                                            ",
"                                                M.M.M.M.M.M.M.M.M.M.M.M.Z.M.M.M.M.M.M.M.M.M.M.M.M.M.M.M.M.z.M.z.z.z.z.z.z.z.M.M.z.z.z.z.M.M.M.M.z.M.M.M.z.z.z.z.M.z.M.M.z.z.z.z.M.M.M.M.M.M.z.z.z.z.z.z.z.z.z.z.z.z.z.z.z.z.z.z.z.z.z.z.z.z.l.z.z.z.z.z.z.z.z.z.z.z.z.z.z.z.z.z.z.z.l.l.l.l.l.l.l.l.l.l.l.z.l.l.l.l.l.l.l.l.l.k.l.k.k.l.l.l.k.l.k.k.k.l.l.l.l.k.h.g.g.f.f.f.g.f.g.g.f.f.f.f.f.g.g.g.g.j.j.g.j.g.j.g.g.g.f.g.g.g.g.g.g.g.g.g.f.f.g.g.g.g.g.g.g.g.g.g.g.g.g.g.g.g.g.g.j.g.g.j.g.g.g.j.f.j.j.j.f.j.g.f.j.j.j.j.j.g.g.g.g.g.g.j.j.j.g.j.f.f.j.f.f.f.f.f.f.f.g.g.g.g.g.g.g.g.g.g.h.h.h.h.h.h.h.h.h.h.h.h.h.h.h.h.h.h.h.g.d.h.p.d..X XF.`.).).`.`.`.`.`.`.`.`.`.`.`.[.[.K.].`.'.P.K.K.].].K.K.K.I.'.`.[.K.`.[.[.[.[.[.`.[.K.`.[.[.P.U.L.L.L.L.U.U.L.L.U.U.U.U.L.L.L.L.L.L.L.L.L.L.L.L.L.L.L.L.U.L.L.L.L.L.L.L.L.L.L.L.L.L.L.L.L.L.L.L.L.L.L.L.L.L.L.L.L.L.L.L.L.L.L.L.L.L.L.L.L.L.L.L.L.L.L.L.L.L.L.L.Y.L.L.Y.U.U.U.L.Y.U.L.L.U.U.U.U.Y.Y.L.L.L.L.L.L.L.L.L.U.U.L.U.].].].].U.].P.].].P.P.U.U.P.].U.U.P.                                              ",
"                                                  M.M.M.M.M.M.M.M.M.M.M.M.Z.Z.M.M.M.M.M.M.M.M.M.M.M.M.M.M.M.z.z.z.z.z.z.z.z.M.M.z.z.M.z.z.z.M.M.z.z.M.M.z.z.z.z.z.z.M.M.M.z.z.z.z.z.z.M.z.M.M.z.z.z.z.z.z.z.z.z.z.z.z.z.z.z.z.z.z.z.z.z.z.z.l.l.z.z.z.z.z.z.z.z.z.z.z.z.z.z.z.z.z.z.z.l.l.l.l.l.l.l.l.l.l.l.l.l.z.l.l.l.l.l.l.k.l.l.k.l.l.l.k.l.l.l.k.k.k.l.l.l.l.l.k.h.g.s.s.s.f.f.f.f.f.f.f.j.j.g.j.j.j.j.g.g.j.j.g.g.g.g.g.g.g.g.g.g.g.g.f.g.g.g.g.g.g.g.j.j.g.g.g.g.j.j.g.g.g.g.g.g.j.j.j.j.j.j.f.j.j.f.f.j.f.j.j.j.j.j.j.g.g.g.j.g.g.j.j.g.g.f.g.g.j.f.f.f.f.f.g.g.g.g.g.g.h.h.g.g.h.h.h.g.h.h.h.h.k.k.h.h.h.h.h.h.h.h.h.g.h.g.k.q.u.OX XF.)./.`.'.)./.`.`.`.`.`.'.[.K.K.P.P.P.].'.K.K.I.K.K.K.K.K.'.'.`.`.[.K.`.[.[.`.[.[.'.].].'.[.K.K.L.U.U.U.U.L.L.L.L.U.U.U.L.L.L.L.L.L.L.L.L.L.L.L.L.L.L.L.L.U.L.L.L.L.L.L.L.L.L.L.L.L.L.L.L.L.L.L.L.L.L.L.L.L.L.L.L.L.L.L.L.L.L.L.L.L.L.L.L.Y.L.L.L.L.L.L.L.L.L.L.L.Y.L.L.L.U.U.U.Y.U.L.L.L.U.L.K.U.U.L.L.L.L.L.L.L.L.L.U.U.U.L.U.].U.].].U.].P.].].U.P.P.P.P.U.U.U.                                                ",
"                                                    M.M.M.M.M.M.M.M.M.M.M.M.M.M.M.M.M.M.M.M.M.M.M.M.M.M.M.M.M.z.z.z.z.M.z.z.M.z.z.M.M.z.z.z.z.z.z.z.M.Z.z.z.z.z.z.z.z.M.z.z.z.z.z.z.z.M.z.z.z.z.z.z.z.z.z.z.z.z.z.z.z.z.z.z.z.z.z.z.z.z.z.z.z.z.z.z.z.z.z.z.z.z.z.z.z.z.z.z.z.z.z.z.z.z.l.l.l.l.l.l.l.l.z.z.l.l.z.l.l.l.l.l.l.l.l.l.l.k.k.l.l.l.l.l.k.k.l.l.k.k.l.l.l.l.l.k.k.g.g.f.s.f.f.j.j.j.j.g.g.g.j.j.f.g.g.g.g.j.g.g.g.g.g.g.g.g.g.g.g.f.g.g.g.g.j.j.j.f.g.g.g.g.j.j.j.g.g.g.g.j.j.f.j.g.g.g.j.f.g.f.g.g.g.g.g.g.g.g.g.g.f.f.g.g.g.f.g.g.f.g.g.g.g.j.g.g.g.g.g.g.g.h.h.h.h.g.g.h.h.h.h.h.h.h.h.k.h.h.h.h.h.h.h.h.h.g.g.h.g.k.q.u..X XH./._.).`.`././.).).`.[.`.`.K.K.P.P.P.K.K.P.P.K.'.'.K.K.K.'.].'.`.[.[.[.[.`.`.[.[.[.].].].K.K.L.L.L.U.L.U.U.U.U.U.Y.U.U.U.U.U.L.L.L.L.L.L.L.L.L.L.L.L.L.L.L.L.L.L.L.L.L.L.L.L.L.L.L.L.L.L.L.L.L.L.L.L.L.L.L.L.L.L.L.L.L.L.L.L.L.L.L.L.L.L.L.L.L.U.L.L.L.L.L.Y.U.Y.Y.L.L.L.L.U.U.U.U.U.L.L.U.U.L.L.U.L.L.L.U.U.U.U.U.U.U.U.Y.L.U.U.U.].].U.U.U.].].U.U.P.'.].P.P.U.                                                  ",
"                                                      M.M.M.M.M.M.M.M.M.M.M.M.M.M.M.M.M.M.M.M.M.M.M.M.M.M.M.Z.z.z.z.z.M.z.z.M.z.M.z.M.z.z.z.z.z.z.z.Z.Z.M.Z.z.z.z.z.z.M.z.z.z.z.z.z.z.z.z.z.z.z.z.z.z.z.z.z.z.z.z.z.z.z.z.z.z.z.z.z.z.z.z.z.z.z.z.z.z.z.z.z.z.z.z.z.z.z.z.z.z.z.z.z.z.z.z.l.l.l.l.l.l.l.z.l.z.l.z.z.l.l.l.l.l.l.l.l.l.l.k.l.l.l.l.l.l.l.l.l.l.l.l.l.l.l.l.l.l.l.l.k.h.h.g.g.f.j.j.j.g.g.g.g.g.g.g.g.g.g.g.g.g.g.g.g.g.g.g.g.g.g.g.g.g.j.j.j.g.j.g.j.j.g.g.j.j.g.g.g.g.g.g.g.g.g.g.g.g.g.g.g.g.g.g.g.g.g.g.g.g.g.g.g.g.g.g.g.g.g.g.g.g.g.g.g.g.g.h.h.h.h.g.h.h.g.h.h.h.h.h.h.h.k.l.k.h.h.h.h.h.h.h.h.h.h.h.g.g.g.h.q.0..XXX^./././.`.`.`.`.`.'.I.`.K.[.[.K.K.P.P.K.K.P.P.P.'.K.K.].'.K.K.`.[.[.[.`.`.[.[.[.`.'.].].'.K.P.L.U.U.U.U.U.U.U.U.U.L.L.U.U.U.U.L.L.L.L.L.L.L.L.L.L.L.L.L.L.L.L.L.L.L.L.L.L.L.L.L.L.L.L.L.L.L.L.L.L.L.L.L.L.L.L.L.L.L.L.L.L.L.L.L.L.L.L.L.L.L.L.L.L.U.L.L.L.L.Y.Y.Y.Y.Y.L.L.Y.L.U.Y.U.Y.U.L.L.L.L.L.U.L.L.L.Y.U.U.U.U.L.L.U.U.L.U.].].].].].U.U.U.P.K.U.U.P.P.P.U.U.                                                    ",
"                                                      M.M.M.M.M.M.M.M.M.M.M.M.M.M.M.M.M.M.M.M.M.M.M.M.M.M.M.M.M.z.z.z.z.M.M.z.z.Z.M.z.z.z.M.z.z.M.M.Z.M.M.Z.M.M.z.z.z.z.z.z.z.z.z.z.z.M.M.M.M.M.z.z.z.z.z.z.z.z.z.z.z.z.z.z.z.z.z.z.z.z.z.z.z.z.z.z.z.z.z.z.z.z.z.z.z.z.z.z.z.z.z.z.z.z.z.z.l.l.l.l.z.z.l.l.l.l.z.z.l.l.l.l.l.l.l.l.l.l.l.l.l.l.l.l.l.l.l.l.l.l.l.k.k.l.l.k.k.l.l.l.l.l.k.k.h.h.g.j.g.g.g.g.g.g.g.g.g.g.g.g.g.g.g.g.g.g.g.g.g.g.g.g.j.j.g.j.g.j.j.j.j.j.j.j.g.g.j.g.g.j.g.g.g.g.g.g.g.g.g.g.g.g.g.g.g.g.g.g.g.g.g.g.g.g.g.g.g.g.g.g.g.g.g.g.g.g.h.h.h.h.g.g.h.h.k.k.l.l.l.l.l.l.k.h.h.h.h.h.h.h.h.h.h.h.h.h.h.k.q.u..X XF.'.'./././.`.'.`.'.'.`.K.K.].K.K.K.P.P.K.P.P.P.K.'.K.K.'.'.'.`.K.K.[.`.`.[.[.].].'.'.'.].P.P.U.U.U.U.U.Y.U.U.U.L.U.U.U.U.U.L.L.L.L.L.L.L.L.L.L.L.L.L.L.L.L.L.L.L.L.L.L.L.L.L.L.L.L.L.L.L.L.L.L.L.L.L.L.L.L.L.L.L.L.L.L.L.L.L.L.L.Y.L.L.L.L.L.L.L.Y.Y.L.L.L.L.L.L.L.L.L.U.U.U.U.U.U.U.U.U.U.U.L.L.L.U.U.L.L.L.U.U.U.U.L.L.L.L.L.U.].U.U.].].U.U.].P.K.P.U.U.U.U.U.U.                                                    ",
"                                                        M.M.M.M.M.M.M.M.M.M.M.M.M.M.M.M.M.M.M.M.M.M.M.M.M.M.M.M.M.z.z.z.z.z.z.M.M.M.z.z.z.z.M.M.z.M.Z.M.z.Z.M.Z.M.z.z.z.z.z.z.z.z.z.z.z.z.z.z.z.z.z.z.z.z.z.z.z.z.z.z.z.z.z.z.z.z.z.z.z.z.z.z.z.z.z.z.z.z.z.z.z.z.z.z.z.z.z.z.z.z.z.z.z.z.z.z.l.l.l.l.z.l.l.l.l.l.z.l.l.l.l.l.l.l.l.l.l.l.l.l.l.l.l.l.l.l.l.l.l.l.l.l.l.k.k.k.k.k.k.k.l.l.l.l.l.l.k.k.h.g.g.g.g.j.j.g.g.g.g.g.g.g.g.g.g.g.g.g.g.g.g.j.j.g.j.j.j.g.g.g.g.g.g.g.g.g.g.g.g.g.g.g.g.g.g.g.g.g.g.g.g.g.g.g.g.g.g.g.g.g.g.g.g.g.g.g.g.h.h.g.g.h.h.h.g.h.g.h.h.h.h.l.l.l.l.k.k.k.k.h.h.h.k.k.h.h.h.h.h.h.h.h.h.h.h.k.p.u.XX XF.).'.'.'.).).).'.'.].[.[.P.P.P.P.K.K.P.K.P.].K.K.K.K.'.].K.K.'.].].].`.`.`.[.[.[.'.'.].P.P.U.U.L.U.U.U.L.L.L.U.U.U.U.U.U.U.U.L.L.L.L.L.L.L.L.L.L.L.L.L.L.L.L.L.L.L.L.L.L.L.L.L.L.L.L.L.L.L.L.L.L.L.L.L.L.L.L.L.L.L.L.L.L.L.L.L.L.L.L.L.L.L.L.L.L.L.L.Y.L.L.L.L.L.L.L.L.L.L.L.L.L.L.U.Y.Y.Y.Y.U.U.L.L.U.Y.L.L.L.U.U.U.U.L.L.U.Y.U.P.U.U.P.U.U.K.P.U.U.P.P.P.U.U.U.P.                                                      ",
"                                                          M.M.M.M.M.M.M.M.M.M.M.M.M.M.M.M.M.M.M.M.M.M.M.M.M.M.M.M.M.z.z.z.z.M.M.z.z.z.z.z.z.M.M.z.M.z.z.z.M.M.Z.Z.M.z.z.z.z.z.z.z.z.z.z.z.z.z.z.z.z.M.z.z.z.z.z.z.z.z.z.z.z.z.z.z.z.z.z.z.z.z.z.z.z.z.z.z.z.z.z.z.z.z.z.z.z.z.z.z.z.z.z.z.z.z.z.z.l.l.z.l.l.l.l.z.z.z.l.z.z.l.z.l.l.l.l.l.l.l.l.l.l.l.l.l.l.l.l.l.l.l.k.k.l.l.l.l.l.k.k.l.l.l.l.l.l.l.l.l.k.k.h.h.h.g.g.g.g.g.g.g.g.j.g.g.g.g.g.g.g.g.g.g.g.g.g.g.g.g.g.g.g.g.g.g.g.g.g.g.g.g.g.g.g.g.g.g.g.g.g.h.h.h.h.g.g.g.g.g.h.g.g.g.g.h.h.h.g.h.h.g.g.h.h.h.k.l.k.l.l.l.l.l.l.k.k.h.h.h.h.k.k.k.k.h.h.h.h.h.h.h.h.h.k.q.u..X XF./.'.`.).).).).).'.].].[.K.K.K.K.K.K.U.P.P.P.].K.K.P.P.K.K.K.K.P.P.].'.'.`.`.[.[.`.].].].K.P.U.L.L.U.U.U.L.L.L.L.L.U.L.L.U.U.L.L.L.L.L.L.L.L.L.L.L.L.L.L.L.L.L.L.L.L.L.L.L.L.L.L.L.L.L.L.L.L.L.L.L.L.L.L.L.L.L.L.L.L.L.L.L.Y.L.L.L.Y.L.L.L.L.L.L.L.L.L.L.L.L.L.L.L.L.L.Y.L.L.L.L.L.U.U.L.L.L.L.U.U.L.L.U.U.L.L.L.L.L.U.U.U.U.U.].U.U.].U.P.U.].U.P.].].].P.P.U.U.P.                                                        ",
"                                                            M.M.M.M.M.M.M.M.M.M.M.M.M.M.M.M.M.M.M.M.M.M.M.M.M.M.M.M.M.z.z.z.M.z.v.z.z.z.z.z.M.Z.z.z.z.z.z.M.M.M.M.M.M.M.z.z.z.z.z.z.z.z.z.z.z.z.z.z.M.M.M.z.z.z.z.z.z.z.z.z.z.z.z.z.z.z.z.z.z.z.z.z.z.z.z.l.z.z.z.z.z.z.z.z.z.z.z.z.z.z.z.z.z.z.z.l.l.z.l.l.l.l.z.z.l.l.z.v.v.z.l.l.k.l.l.l.l.l.l.l.l.l.l.l.l.l.l.l.l.l.l.l.l.k.l.l.l.l.k.k.l.l.k.k.k.l.l.l.l.z.z.l.k.k.h.h.h.g.g.g.j.j.j.f.g.g.g.g.g.g.g.g.g.g.g.g.g.g.g.g.g.g.g.g.g.g.g.g.h.g.g.g.g.g.g.h.g.g.h.h.h.h.g.g.h.g.h.h.g.h.h.h.h.g.g.g.h.h.h.h.l.k.l.l.l.l.l.k.l.l.l.l.l.k.k.h.h.h.k.k.h.h.h.h.h.h.h.h.g.h.k.q.0.].XXF.'.).).'.'.).).).'.].].].].].P.K.K.[.P.P.P.].P.P.K.I.K.K.P.].`.`.].[.`.`.'.`.[.].].'.].P.P.P.U.U.U.U.U.Y.U.U.Y.L.Y.U.Y.U.U.L.L.L.L.L.L.L.L.L.L.L.L.L.L.L.L.L.L.L.L.L.L.L.L.L.L.L.L.L.L.L.L.L.L.L.L.L.L.L.L.L.L.L.L.L.L.L.L.U.U.L.L.L.L.L.L.L.L.L.L.L.L.L.L.L.L.L.L.Y.Y.Y.Y.Y.U.U.L.L.U.L.L.L.L.U.U.U.U.U.U.U.U.U.L.L.L.L.L.Y.Y.U.Y.].].].U.U.].[.U.P.P.].P.P.P.P.P.                                                          ",
"                                                              M.M.M.M.M.M.M.M.M.M.M.M.M.M.M.M.M.M.M.M.M.M.M.M.M.M.M.M.M.z.z.z.z.z.z.z.z.z.z.z.z.M.z.z.z.z.M.M.M.M.M.Z.Z.z.z.z.z.z.z.z.z.z.z.z.z.z.M.M.M.M.M.z.z.z.z.z.z.z.z.z.z.z.z.z.z.z.z.z.z.z.z.z.z.z.z.z.z.z.z.z.z.z.z.z.z.z.z.z.z.z.z.z.z.z.l.l.l.l.l.l.l.z.z.l.z.z.z.l.l.z.l.l.l.l.l.l.l.l.l.l.l.l.l.l.l.l.l.l.l.l.l.l.k.k.l.l.l.l.l.k.k.l.l.k.l.k.k.l.l.l.l.l.l.l.l.l.l.l.k.k.k.k.k.k.h.h.h.g.g.g.g.g.g.g.g.g.g.g.g.g.g.h.h.h.h.h.h.h.h.h.h.h.h.h.h.h.h.h.h.h.h.h.h.h.h.h.h.h.h.h.h.h.h.h.l.l.l.l.l.l.k.k.k.k.k.k.k.k.l.k.k.k.k.k.k.k.h.h.k.k.h.h.h.h.h.g.h.h.k.q.u..XXXF.).'.'.'.).).'.'.'.'.'.].].].K.K.U.L.K.K.P.U.P.P.I.K.'.K.K.`.`.`.[.'.[.[.`.'.[.].].].].].'.I.U.U.U.U.U.U.U.U.U.U.U.U.U.L.U.U.L.L.L.L.L.L.L.L.L.L.L.L.L.L.L.L.L.L.L.L.L.L.L.L.L.L.L.L.L.L.L.L.L.L.L.L.L.L.L.L.L.L.L.L.L.L.L.L.U.L.L.L.L.L.L.L.L.L.L.L.L.L.L.L.L.L.L.L.L.Y.Y.Y.Y.U.U.L.L.L.L.L.L.L.U.U.U.U.U.U.U.U.U.L.L.L.L.L.L.L.].Y.].U.].].U.P.[.].U.K.U.P.P.P.P.                                                            ",
"                                                                M.M.M.M.M.M.M.M.M.M.M.M.M.M.M.M.M.M.M.M.M.M.M.M.M.M.M.M.M.z.z.z.z.z.z.z.z.z.z.M.M.z.z.z.z.M.M.M.M.Z.M.Z.M.z.z.z.z.z.z.z.z.z.z.z.z.z.M.M.M.M.z.z.z.z.z.z.z.z.z.z.z.z.z.z.z.z.z.z.z.z.z.z.z.z.z.l.l.l.z.z.z.z.z.z.z.z.z.z.z.z.z.z.z.z.z.l.l.l.l.l.l.z.z.z.l.z.z.l.z.l.l.l.l.l.l.l.l.l.l.l.l.l.l.z.z.k.l.k.l.l.k.k.k.l.l.l.l.l.l.l.l.l.l.l.k.k.l.l.k.k.l.l.l.l.l.l.l.l.l.l.l.l.l.l.l.l.l.k.k.k.h.h.h.h.h.h.h.h.h.h.g.g.g.h.h.h.h.h.h.h.h.h.g.h.h.h.h.h.h.h.h.h.h.h.k.l.l.k.k.k.k.l.k.l.l.l.k.k.k.k.l.l.k.l.k.k.k.l.k.k.k.k.h.k.h.h.h.h.h.h.h.h.h.h.g.g.l.q.u..XXX/._.'.'.'.'.).).'.'.'.].].].].P.P.K.L.U.P.P.P.U.].K.K.K.K.K.`.`.K.K.[.].[.[.].].'.].].].P.P.].P.U.Y.U.L.L.U.U.U.U.U.U.U.U.L.U.L.L.L.L.L.L.L.L.L.L.L.L.L.L.L.L.L.L.L.L.L.L.L.L.L.L.L.L.L.L.L.L.L.L.L.L.L.L.L.L.L.L.L.L.L.L.L.L.L.L.L.L.L.L.L.L.L.L.L.L.L.L.L.L.L.L.L.L.L.Y.Y.Y.Y.Y.U.U.L.L.L.L.U.U.L.L.U.U.U.U.U.U.U.U.L.L.L.L.L.L.L.L.Y.].P.P.].U.P.P.P.P.P.P.U.P.P.                                                              ",
"                                                                  M.M.M.M.M.M.M.M.M.M.M.M.M.M.M.M.M.M.M.M.M.M.M.M.M.M.M.M.M.z.z.z.z.z.z.M.M.z.M.M.z.z.z.z.M.M.M.M.M.M.M.Z.M.z.z.z.z.z.z.z.z.z.z.z.z.z.z.z.z.M.z.z.z.z.z.z.z.z.z.z.z.z.z.z.z.z.z.z.z.z.z.z.z.z.z.l.l.z.z.z.z.z.z.z.z.z.z.z.z.z.z.z.z.z.z.l.l.l.l.l.l.z.l.l.l.l.l.l.l.l.l.l.l.l.l.l.l.l.l.l.l.l.l.l.k.l.l.l.l.k.k.k.k.k.k.k.k.l.l.l.l.l.l.l.l.l.l.l.l.l.l.l.l.l.l.l.l.l.l.l.l.l.l.l.l.l.l.l.l.l.l.l.l.l.l.k.k.k.k.k.k.k.k.k.k.k.k.k.k.k.k.k.k.k.k.k.k.k.k.l.l.l.l.l.l.l.l.k.k.k.k.k.k.k.l.l.l.l.l.l.l.k.k.k.k.k.k.k.k.k.k.k.h.h.k.h.h.h.h.h.h.h.h.g.k.t.u..XXXF.).'.'.'.).).'.].'.`.`.[.'.].P.U.L.K.K.P.P.].K.U.].].P.I.I.I.`.`.`.`.[.].].[.[.].'.].'.P.].].P.U.U.U.U.L.L.U.L.L.L.U.L.U.U.Y.L.L.L.L.L.L.L.L.L.L.L.L.L.L.L.L.L.L.L.L.L.L.L.L.L.L.L.L.L.L.L.L.L.L.L.L.L.L.L.L.L.L.L.L.L.L.L.L.L.L.L.Y.L.Y.L.L.L.L.L.L.L.L.L.L.L.L.L.L.L.L.Y.Y.Y.Y.Y.U.U.L.L.L.L.U.U.L.L.U.U.U.U.U.U.U.U.L.L.L.L.L.L.].[.L.[.[.U.P.U.].U.P.].P.P.P.P.                                                                ",
"                                                                    M.M.M.M.M.M.M.M.M.M.M.M.M.M.M.M.M.M.M.M.M.M.M.M.M.M.M.M.M.z.z.z.z.M.M.z.z.z.M.M.M.M.M.M.M.z.z.M.M.M.Z.Z.M.z.z.z.z.z.z.M.z.z.z.z.z.z.z.z.M.M.z.z.z.z.z.z.z.z.z.z.z.z.z.z.z.z.z.z.z.z.z.z.z.z.z.l.l.l.z.z.z.z.z.z.z.z.z.z.z.z.z.z.z.z.z.l.l.l.l.l.l.l.l.l.l.l.l.l.l.l.l.l.l.l.l.l.k.k.l.l.l.l.l.l.l.l.l.l.k.k.k.k.k.k.k.k.l.l.l.l.l.l.l.l.l.l.l.l.l.l.l.l.l.l.l.l.l.l.l.l.l.l.l.l.l.l.k.k.k.l.l.l.l.l.l.l.l.l.l.l.k.l.l.l.l.l.l.l.l.l.l.l.l.l.l.l.l.l.l.l.l.l.l.l.k.l.k.k.k.k.k.k.l.l.l.k.k.l.l.k.l.k.k.k.k.k.k.k.k.k.k.h.h.h.k.k.h.g.h.h.h.h.k.p.0..XXXF.'.).'.'.'.).).].].'.].].[.P.P.P.U.L.K.K.K.K.P.P.P.P.].`.K.K.[.`.`.`.[.].I.].].'.'.].].].].`.P.U.U.U.U.U.U.U.L.L.L.U.L.L.U.U.L.L.L.L.L.L.L.L.L.L.L.L.L.L.L.L.L.L.L.L.L.L.L.L.L.L.L.L.L.L.L.L.L.L.L.L.L.L.L.L.L.L.L.L.L.L.L.L.L.L.L.L.L.U.U.Y.U.L.L.L.L.L.L.L.L.L.L.L.L.L.L.L.L.Y.U.U.U.U.L.U.L.L.U.U.L.U.U.U.U.U.U.U.U.L.L.L.L.L.L.U.[.[.].[.[.U.P.P.].].].P.P.P.P.                                                                  ",
"                                                                      M.M.M.M.M.M.M.M.M.M.M.M.M.M.M.M.M.M.M.M.M.M.M.M.M.M.M.M.M.M.z.z.z.M.z.M.M.M.M.M.M.M.M.z.z.z.M.M.z.M.M.Z.z.z.z.z.z.z.M.M.z.z.z.z.z.z.M.M.M.M.M.z.z.z.z.z.z.z.z.z.z.z.z.z.z.z.z.z.z.z.z.z.z.z.z.l.z.z.z.z.z.z.z.z.z.z.z.z.z.z.z.z.z.z.l.l.l.l.l.l.l.l.z.l.z.z.l.l.l.z.z.l.l.l.l.l.l.l.l.l.l.l.l.l.l.k.k.l.l.k.k.k.k.l.l.l.l.l.l.l.l.l.l.l.l.l.l.l.l.l.l.l.l.l.l.l.l.l.l.l.l.l.l.l.l.l.l.l.l.l.l.l.l.l.l.l.l.l.l.l.l.l.l.l.l.l.l.l.l.l.l.k.l.l.l.l.l.l.l.l.l.l.k.k.k.l.k.k.k.k.k.k.k.k.k.k.l.l.l.l.l.l.k.k.k.k.k.k.k.k.k.k.h.k.k.h.h.h.g.g.k.t.2..XXXF.'.).).'.'.).'.'.'.'.'.].P.P.K.K.K.[.K.K.[.[.[.P.U.].K.K.[.`.K.`.`.`.[.[.[.].].].].P.U.].].U.K.P.U.U.U.U.U.U.U.Y.Y.Y.U.L.U.U.Y.L.L.L.L.L.L.L.L.L.L.L.L.L.L.L.L.L.L.L.L.L.L.L.L.L.L.L.L.L.L.L.L.L.L.L.L.L.L.L.L.L.L.L.L.L.L.L.L.L.L.L.L.L.L.L.Y.L.L.L.L.L.L.Y.L.L.L.L.L.L.L.L.L.L.U.U.U.U.U.Y.U.U.U.U.U.U.U.U.U.U.U.U.L.L.L.L.L.L.L.U.P.L.[.].P.U.U.].].].].P.P.U.U.                                                                    ",
"                                                                        M.M.M.M.M.M.M.M.M.M.M.M.M.M.M.M.M.M.M.M.M.M.M.M.M.M.M.M.Z.M.M.M.M.z.M.M.M.M.z.z.z.z.z.z.z.M.M.z.M.M.Z.Z.z.z.z.z.z.z.z.M.z.z.z.z.z.z.M.M.M.M.z.z.z.z.z.z.z.z.z.z.z.z.z.z.z.z.z.z.z.z.z.z.z.z.z.z.z.z.z.z.z.z.z.z.z.z.z.z.z.z.z.z.z.z.l.l.l.l.l.l.l.l.z.z.z.z.l.l.l.l.z.l.k.l.l.l.l.l.l.l.l.l.l.l.l.k.l.l.l.l.k.k.l.k.l.l.l.l.l.l.l.l.l.l.l.l.l.l.z.z.l.l.l.l.l.l.l.l.l.l.l.l.l.l.l.l.l.l.l.l.l.l.l.l.l.l.l.l.l.l.l.l.l.l.l.l.l.l.l.l.l.l.l.k.l.k.l.l.l.l.l.l.k.k.k.k.k.k.k.k.k.k.k.k.k.k.k.l.k.l.l.l.k.k.k.l.k.k.k.k.k.k.k.h.h.h.h.h.l.e.0..XXX/.).)./.).'.).).'.P.'.'.].P.P.P.K.K.K.[.[.[.[.K.].P.P.].'.K.`.`.`.`.`.K.].].[.].].].P.U.P.P.U.L.U.U.U.U.U.U.U.U.U.Y.Y.L.L.U.L.L.L.L.L.L.L.L.L.L.L.L.L.L.L.L.L.L.L.L.L.L.L.L.L.L.L.L.L.L.L.L.L.L.L.L.L.L.L.L.L.L.L.L.L.L.L.L.L.L.L.L.L.L.L.L.L.L.L.L.L.L.L.L.L.Y.L.L.L.L.L.L.L.L.L.L.L.U.U.U.U.U.U.U.U.U.L.U.U.U.U.U.U.L.L.L.L.U.L.L.L.U.L.L.[.[.].U.].U.U.].].].P.U.                                                                      ",
"                                                                          M.M.M.M.M.M.M.M.M.M.M.M.M.M.M.M.M.M.M.M.M.M.M.M.M.M.M.Z.M.M.M.z.z.z.z.M.M.M.M.M.M.z.z.z.M.z.z.z.z.M.M.Z.M.z.z.z.z.z.z.M.M.z.z.z.z.z.z.M.z.M.z.z.z.z.z.z.z.z.z.z.z.z.z.z.z.z.z.z.z.v.z.z.z.z.z.z.z.z.z.z.z.z.z.z.z.z.z.z.z.z.z.z.z.z.l.l.l.l.l.l.l.l.l.z.l.l.l.l.l.z.l.l.l.l.l.l.l.l.l.l.l.l.l.l.l.l.l.l.z.k.k.l.k.l.l.l.l.l.k.k.k.l.l.l.k.k.z.l.l.l.k.z.z.l.l.l.l.l.l.l.l.l.l.l.l.l.l.l.l.l.l.l.l.l.l.l.l.l.l.l.l.l.l.l.l.l.l.l.l.l.l.l.k.l.l.l.l.l.l.l.l.l.k.k.k.k.k.k.k.k.k.k.k.l.l.k.k.l.l.k.k.k.k.k.l.k.k.k.k.k.k.h.h.h.h.h.k.t.q..XXX^.).'.).).'.'.).).'.`.].'.].P.P.K.K.K.P.P.P.].[.K.].].P.P.'.K.K.`.`.`.`.].].].U.U.P.P.P.].P.P.].L.].U.U.U.U.L.U.U.U.Y.Y.U.U.L.L.L.L.L.Y.L.L.L.L.L.L.L.L.L.L.L.L.L.L.L.L.L.L.L.L.L.L.L.L.L.L.L.L.L.L.L.L.L.L.L.L.L.L.L.L.L.L.L.L.L.L.L.L.L.L.L.L.L.L.L.L.L.L.L.L.U.L.L.L.L.L.L.L.L.L.L.Y.Y.Y.U.U.U.U.U.Y.U.U.U.L.L.L.L.U.U.L.L.L.L.L.L.K.L.L.L.].[.L.U.P.P.U.U.P.].U.                                                                        ",
"                                                                              M.M.M.M.M.M.M.M.M.M.M.M.M.M.M.M.M.M.M.M.M.M.M.M.M.Z.M.M.M.z.z.z.z.M.M.z.M.M.M.M.z.z.z.z.z.z.z.M.M.Z.M.z.z.z.z.z.z.M.M.z.z.z.z.z.z.z.M.M.z.z.z.z.z.z.z.z.z.z.z.z.z.z.z.z.z.z.z.z.z.z.z.z.z.z.z.z.z.z.z.z.z.z.z.z.z.z.z.z.z.z.z.z.z.l.l.l.l.l.l.l.l.l.z.l.l.l.l.l.l.l.l.l.k.l.l.l.l.l.l.l.l.l.l.l.l.l.l.z.l.l.l.l.l.l.l.l.k.k.k.l.l.l.l.z.z.l.l.l.l.l.l.l.z.l.l.l.l.l.l.l.z.l.l.l.l.l.l.l.l.l.l.l.l.l.l.l.l.l.l.l.l.l.l.l.l.l.l.l.l.l.l.k.l.l.l.l.l.l.l.l.k.k.l.k.k.k.k.k.k.k.k.l.l.k.k.l.l.k.l.l.k.k.k.k.k.k.k.k.k.h.h.h.g.k.e.w..XXXF.'.'.).).'.'.'.'.`./.`.[.K.'.].P.K.P.P.P.P.P.'.].[.[.].].].`.K.`.`.`.`.`.'.].P.].U.K.K.P.U.L.L.L.].U.Y.L.U.U.L.L.U.Y.L.Y.U.U.L.L.L.L.L.Y.L.L.L.L.L.L.L.L.L.L.L.L.L.L.L.L.L.L.L.L.L.L.L.L.L.L.L.L.L.L.L.L.L.L.L.L.L.L.L.L.L.L.L.L.L.L.L.L.L.L.L.L.L.L.L.L.L.L.L.L.U.L.L.L.L.L.L.L.L.L.L.Y.Y.L.U.L.U.U.U.U.U.U.Y.L.L.U.U.L.L.U.U.L.L.L.L.[.].[.].P.[.L.U.P.P.P.P.P.                                                                            ",
"                                                                                M.M.M.M.M.M.M.M.M.M.M.M.M.M.M.M.M.M.M.M.M.M.M.M.M.M.M.M.z.z.z.z.z.M.M.M.M.M.M.M.M.z.z.M.z.M.M.M.Z.Z.M.z.z.z.z.z.z.z.z.z.M.M.z.z.z.M.M.M.M.z.z.z.z.z.z.z.z.z.z.z.z.z.z.z.z.z.z.z.z.z.z.z.z.z.z.z.l.z.z.z.z.z.z.z.z.z.z.z.z.z.z.z.z.l.l.l.l.l.l.l.l.l.l.z.z.l.l.l.l.l.l.l.k.l.l.l.l.l.l.l.l.l.l.l.l.l.l.l.l.l.l.l.l.l.l.l.l.l.l.l.l.l.l.l.l.l.z.z.l.l.l.z.z.l.l.l.l.l.l.l.l.l.l.l.l.l.l.l.l.l.l.l.l.l.z.l.l.l.l.l.l.l.l.l.l.l.l.l.l.l.k.k.l.l.k.k.l.l.l.l.l.l.k.k.k.k.k.k.k.k.k.k.l.l.k.l.k.k.k.k.k.k.k.k.k.k.k.h.h.h.g.k.i.3.].XXF.).).).).'.'.'.'.'.'.'.'.K.K.P.K.P.P.K.P.P.P.P.I.].[.K.K.[.[.K.K.`.[.`.`.`.].].[.].[.[.U.U.U.L.L.L.U.U.U.L.U.U.L.L.U.U.L.L.L.U.Y.L.L.L.L.L.L.L.L.L.L.L.L.L.L.L.L.L.L.L.L.L.L.L.L.L.L.L.L.L.L.L.L.L.L.L.L.L.L.L.L.L.L.L.L.L.L.L.L.L.L.Y.L.L.L.L.L.Y.L.L.L.L.L.L.Y.L.L.L.L.L.L.L.L.L.L.Y.U.L.L.L.U.L.L.L.L.U.U.U.U.L.L.U.U.L.L.L.U.L.U.U.L.L.L.U.].[.K.K.U.U.P.P.].                                                                              ",
"                                                                                  M.M.M.M.M.M.M.M.M.M.M.M.M.M.M.M.M.M.M.M.M.M.M.M.M.M.M.M.z.z.M.z.M.M.M.M.M.M.M.M.M.M.M.M.M.z.M.M.Z.M.M.M.z.z.z.z.z.z.z.M.M.z.z.M.M.M.M.z.z.z.z.z.z.z.z.z.z.z.z.z.z.z.z.z.z.z.z.z.z.z.v.z.z.z.z.z.z.l.z.z.z.z.z.z.z.z.z.z.z.z.z.z.z.l.l.z.l.l.z.l.l.l.l.l.l.l.l.l.l.l.z.l.l.l.l.l.l.l.l.l.l.l.l.l.l.l.l.l.l.z.l.l.l.l.l.l.l.l.l.l.l.l.l.l.l.z.z.l.l.l.l.l.z.l.l.l.z.l.z.l.l.l.l.l.l.l.l.l.l.l.l.l.l.l.l.l.l.l.l.l.l.l.l.l.l.l.l.l.l.l.l.k.k.l.k.l.l.l.l.l.l.k.k.l.l.k.k.k.k.k.k.k.l.l.k.k.k.k.k.k.k.k.k.h.k.h.h.h.g.k.i.w.Y.XXF.).).).).'.'.'.'.'.'.].'.P.P.P.P.K.P.P.P.P.P.P.U.P.P.[.`.`.[.`.`.K.`.K.`.].[.[.[.[.[.[.L.Y.U.U.L.].U.U.U.U.U.U.U.L.U.Y.U.L.L.L.L.L.L.L.L.L.L.L.L.L.L.L.L.L.L.L.L.L.L.L.L.L.L.L.L.L.L.L.L.L.L.L.L.L.L.L.L.L.L.L.L.L.L.L.L.L.L.L.L.L.L.L.Y.L.L.L.L.L.Y.L.L.L.L.L.L.L.L.L.L.L.L.L.L.L.L.L.U.U.L.L.L.U.L.L.L.U.Y.U.U.U.L.L.L.L.L.L.L.U.L.L.L.L.L.L.L.P.U.U.P.K.P.U.P.                                                                                ",
"                                                                                    M.M.M.M.M.M.M.M.M.M.M.M.M.M.M.M.M.M.M.M.M.M.M.M.M.M.M.M.M.M.z.M.M.M.z.z.M.M.M.M.M.z.M.M.M.M.M.Z.Z.M.M.M.M.z.M.z.M.z.z.M.z.z.z.z.z.M.z.z.z.z.z.z.z.z.z.z.z.z.z.z.z.z.z.z.z.z.z.z.z.v.z.z.z.z.z.z.z.z.z.z.z.z.z.z.z.z.z.z.z.z.z.z.z.z.l.l.l.l.l.l.l.l.l.z.z.l.l.l.l.l.l.z.l.l.l.l.k.k.k.l.l.l.l.l.l.k.l.z.z.l.l.k.k.l.l.l.l.l.l.l.l.l.l.l.l.z.l.l.l.l.z.z.l.l.l.z.l.z.l.l.l.l.l.l.l.l.l.l.l.l.l.l.z.z.l.l.l.l.l.l.l.z.l.l.l.l.l.l.l.l.l.k.l.l.k.k.l.l.l.l.l.l.l.l.k.k.k.k.k.k.l.k.l.k.k.k.k.k.k.k.k.k.h.h.h.h.g.h.i.0.Y.XX(.).).).).).'.'.).'.'.'.].].P.K.P.P.P.K.K.P.P.K.P.].].P.`.`.`.K.[.`.[.[.`.[.[.[.K.L.[.L.L.L.U.U.U.L.U.U.U.U.U.U.U.L.L.U.Y.U.L.L.L.L.L.L.L.L.L.L.L.L.L.L.L.L.L.L.L.L.L.L.L.L.L.L.L.L.L.L.L.L.L.L.L.Y.L.L.L.L.L.L.L.L.L.L.L.L.L.L.L.L.L.L.L.U.L.L.L.L.L.Y.L.L.L.L.L.L.L.L.L.L.L.L.L.L.L.L.Y.U.L.L.L.L.U.L.L.U.Y.L.L.L.L.L.L.L.U.L.L.U.U.L.[.[.[.[.K.K.P.U.P.P.P.U.U.                                                                                  ",
"                                                                                        M.M.M.M.M.M.M.M.M.M.M.M.M.M.M.M.M.M.M.M.M.M.M.M.M.M.M.z.z.z.M.M.z.z.z.M.M.M.M.z.M.M.M.M.Z.Z.M.M.M.M.M.M.z.z.z.z.M.M.M.M.z.z.z.M.M.z.z.z.M.z.z.z.z.z.z.z.z.z.z.z.z.z.z.z.z.z.z.z.z.z.z.z.z.z.z.z.z.z.z.z.z.z.z.z.z.z.z.z.z.z.z.z.z.z.l.l.z.z.l.l.l.l.z.l.l.l.z.z.l.l.l.l.k.k.k.k.k.l.l.l.l.z.l.k.l.l.z.z.l.k.k.l.l.l.l.l.l.l.l.l.k.k.k.z.l.l.l.l.l.z.l.l.l.l.l.l.l.l.l.l.l.l.l.l.l.l.l.l.l.l.z.z.z.l.k.l.l.l.l.l.l.l.l.l.l.l.l.l.l.l.k.l.l.k.l.l.l.l.l.l.l.l.k.k.k.k.k.k.l.l.k.k.l.k.k.k.k.k.k.k.h.h.h.g.h.i.0.].XXF.).).).).).'.).).'.'.'.I.'.].P.P.K.P.P.P.P.P.P.K.K.P.].].`.`.`.`.`.`.[.[.`.`.[.].P.P.L.].].L.U.U.U.U.U.U.U.U.U.L.L.L.L.L.L.L.L.L.L.L.L.L.L.L.L.L.L.L.L.L.L.L.L.L.L.L.L.L.L.L.L.L.L.L.L.L.L.L.L.U.L.L.L.L.L.L.L.L.L.L.L.Y.Y.L.L.L.L.L.L.L.L.Y.L.L.L.L.L.Y.L.L.L.L.L.L.L.L.L.L.L.L.L.Y.L.L.U.U.L.L.L.U.U.L.L.U.L.L.L.L.L.L.L.U.U.L.L.U.U.L.L.[.L.U.L.K.P.U.P.P.P.                                                                                      ",
"                                                                                          M.M.M.M.M.M.M.M.M.M.M.M.M.M.M.M.M.M.M.M.M.M.M.M.M.M.M.z.z.M.z.z.z.M.M.M.z.z.z.M.M.M.z.Z.Z.M.M.M.M.M.M.M.M.z.z.z.z.M.M.z.z.M.M.z.M.M.M.M.z.z.z.z.z.z.z.z.z.z.z.z.z.z.z.z.z.z.z.z.z.z.z.z.z.z.z.z.z.z.z.z.z.z.z.z.z.z.z.z.z.z.z.z.z.l.l.z.l.l.l.l.z.z.z.l.l.z.z.l.l.l.l.k.l.l.l.l.l.l.l.l.z.l.l.l.l.l.l.l.l.z.l.l.l.l.l.l.l.l.l.k.k.l.l.k.l.l.l.l.l.l.l.l.l.z.z.z.z.l.l.l.l.l.l.l.l.k.l.l.k.l.l.l.l.l.l.l.l.l.l.l.l.z.z.z.z.l.l.l.l.k.k.l.l.l.l.l.l.l.l.l.l.l.k.k.k.k.k.l.l.l.k.k.k.k.k.k.k.k.k.k.h.g.l.i.0.Y.XX/.).).).).'.'.).).'.`.`.K.K.K.K.K.P.P.P.P.P.P.P.P.P.P.P.].].`.`.`.`.`.[.K.`.`.`.[.Y.U.U.U.U.U.L.U.U.U.U.U.U.U.L.U.L.U.U.L.L.L.L.L.L.L.L.L.L.L.L.L.L.L.L.L.L.L.L.L.L.L.L.L.L.L.L.L.L.L.L.L.L.L.L.L.Y.L.L.L.L.L.L.L.L.L.L.L.Y.Y.L.L.L.L.L.L.L.L.L.L.Y.L.L.L.Y.L.L.L.L.L.L.L.Y.Y.Y.L.Y.Y.U.L.L.L.Y.L.U.L.L.L.L.Y.Y.L.L.L.U.L.L.U.U.U.U.L.U.U.L.L.L.L.].U.L.].U.U.].                                                                                        ",
"                                                                                              M.M.M.M.M.M.M.M.M.M.M.M.M.M.M.M.M.M.M.M.M.M.M.M.M.M.M.z.z.z.z.z.M.M.M.z.z.z.M.M.M.M.Z.M.M.M.M.M.M.Z.M.z.z.z.z.M.Z.z.z.M.M.z.M.M.M.M.M.z.z.z.z.z.z.z.z.z.z.z.z.z.z.z.z.z.z.z.z.z.z.z.z.z.z.z.z.z.z.z.z.z.z.z.z.z.z.z.z.z.z.z.z.z.l.l.l.l.l.l.l.l.l.z.z.l.l.l.l.l.l.z.l.l.l.z.l.l.l.k.l.l.l.l.l.z.l.z.l.l.z.k.k.l.k.k.l.z.z.l.l.l.k.l.l.l.z.l.l.l.l.l.l.z.z.l.l.z.z.z.l.l.l.l.l.l.l.l.l.l.l.l.l.l.l.l.l.l.l.l.l.z.z.z.l.l.l.l.l.k.k.l.l.l.l.l.l.l.l.l.l.l.k.k.k.l.l.k.l.l.l.k.k.k.k.k.k.h.h.g.g.k.j.w.T.XXF.'.).).).).'.'.'.'.`.`.`.`.K.K.P.K.K.P.P.P.P.P.P.P.].].'.].K.`.`.`.`.[.[.I.`.`.'.].Y.Y.U.U.Y.U.L.U.U.U.U.U.U.U.L.L.U.U.U.L.L.L.L.L.L.L.L.L.L.L.L.L.L.L.L.L.L.L.L.L.L.L.L.L.L.L.L.L.L.L.L.L.L.L.L.L.L.L.L.L.L.L.L.L.L.L.L.L.L.L.L.L.L.L.L.L.L.L.L.Y.L.L.L.L.L.L.L.L.L.L.L.L.L.Y.Y.Y.Y.U.U.Y.Y.Y.Y.U.U.U.L.L.L.U.U.U.U.U.U.U.U.U.U.U.U.U.U.L.L.[.L.K.[.U.].U.U.                                                                                            ",
"                                                                                                M.M.M.M.M.M.M.M.M.M.M.M.M.M.M.M.M.M.M.M.M.M.M.M.M.M.z.M.z.M.z.M.M.M.M.Z.z.M.M.Z.Z.M.M.M.z.z.M.M.Z.Z.z.z.z.z.z.M.M.M.M.z.z.M.M.M.M.M.z.z.z.z.z.z.z.z.z.z.z.z.z.z.z.z.z.z.z.z.z.z.z.z.z.z.z.z.z.z.z.z.z.z.z.z.z.z.z.z.z.z.z.z.z.z.l.l.l.l.l.l.l.z.l.z.z.l.l.l.l.l.l.l.l.l.l.l.l.l.l.k.l.l.l.l.z.z.z.l.l.z.l.k.l.l.l.l.z.z.z.l.k.k.l.l.z.z.z.z.z.z.z.l.l.l.l.l.z.z.z.l.l.l.l.l.l.l.l.l.l.l.z.l.l.l.l.l.l.l.l.l.l.l.z.l.l.l.l.l.k.k.l.l.l.l.l.l.l.l.l.l.k.k.k.k.l.k.k.l.l.l.k.k.k.k.k.h.k.h.h.k.i.w.T.XX/.'.).).).).).'.`.`.`.`.`.`.`.].K.P.P.K.P.P.K.P.P.P.P.].'.K.K.K.`.`.`.[.[.I.'.I.].P.U.Y.U.U.U.U.U.U.U.U.U.U.U.U.L.U.U.U.Y.L.Y.Y.L.L.L.L.L.L.L.L.L.L.L.L.L.L.L.L.L.L.L.L.L.L.L.L.L.L.L.L.L.L.L.L.L.L.L.L.L.L.L.L.L.L.L.L.L.L.L.L.L.L.L.L.L.L.L.L.L.L.L.L.L.L.L.L.L.L.L.L.L.L.L.L.U.U.U.L.U.Y.Y.Y.U.Y.U.L.U.U.L.L.U.U.U.Y.U.L.L.U.U.U.U.U.U.U.L.[.L.[.K.L.].P.U.                                                                                              ",
"                                                                                                    M.M.M.M.M.M.M.M.M.M.M.M.M.M.M.M.M.M.M.M.M.M.M.M.M.M.M.M.z.z.M.M.M.M.z.M.M.M.M.M.M.M.z.M.M.M.Z.Z.z.z.z.z.z.M.z.z.M.M.z.M.M.M.M.M.M.z.z.z.z.z.z.z.z.z.z.z.z.z.z.z.z.z.z.z.z.z.z.z.z.z.z.z.z.z.z.z.z.z.z.z.z.z.z.z.z.z.z.z.z.z.z.z.l.l.l.l.l.l.z.z.z.z.l.l.z.l.l.l.l.l.l.l.l.l.z.l.l.l.l.l.l.l.l.l.l.l.l.l.k.k.l.l.l.z.z.k.k.l.l.l.l.l.z.z.z.z.l.l.z.z.z.l.l.l.z.z.l.l.l.l.l.l.l.l.l.l.z.l.l.l.l.l.l.l.l.l.l.l.z.z.l.l.l.l.k.k.l.l.l.l.l.l.l.l.l.l.l.k.k.k.l.k.l.l.l.k.k.k.k.k.k.k.h.h.k.i.0.Y.XX/.'.).).).).'.'.`.`.`.`.`.`.`.[.P.P.K.P.P.P.].].P.P.P.P.[.`.`.[.`.'.].`.[.].K.'.].P.U.U.U.U.U.U.U.U.U.U.U.U.U.U.Y.L.U.U.L.L.L.Y.U.L.L.L.L.L.L.L.L.L.L.L.L.L.L.L.L.L.L.L.L.L.L.L.L.L.L.L.L.L.L.L.L.L.L.L.L.L.L.L.L.L.L.L.L.L.L.L.L.L.L.L.L.L.L.L.L.L.L.L.L.L.L.L.L.L.L.L.L.L.L.L.L.U.U.Y.Y.U.U.Y.Y.Y.L.U.U.U.U.L.U.U.U.U.U.U.U.Y.Y.U.U.U.U.U.U.L.L.L.L.L.U.U.                                                                                                  ",
"                                                                                                      M.M.M.M.M.M.M.M.M.M.M.M.M.M.M.M.M.M.M.M.M.Z.M.Z.M.M.z.z.z.z.M.M.M.Z.Z.M.z.M.M.M.M.M.M.M.M.M.M.M.z.z.z.z.M.z.z.M.M.z.z.z.z.z.z.z.z.M.M.z.z.z.z.z.z.z.z.z.z.z.z.z.z.z.z.z.z.z.z.z.z.z.z.z.z.z.z.z.z.z.z.z.z.z.z.z.z.z.z.z.z.z.z.z.l.l.l.l.l.l.l.z.z.z.l.l.l.l.l.l.l.l.z.l.l.l.l.l.l.l.l.l.l.l.l.l.k.k.l.k.k.l.l.k.k.z.z.z.l.z.l.l.l.l.l.l.l.l.l.l.z.z.l.l.l.z.l.l.l.l.l.l.l.l.l.l.l.l.l.l.l.l.l.l.l.l.l.l.l.l.l.l.l.z.l.l.l.l.l.l.l.l.l.l.l.l.l.l.l.l.l.l.k.l.l.l.k.k.h.h.k.k.k.h.k.f.w.Y.XXF.'.).).).).).'.'.`.[.`.`.[.[.[.K.P.K.K.P.P.P.K.].K.K.[.].`.`.`.[.[.'.K.].].].K.I.U.P.U.U.U.U.U.U.U.U.U.U.U.L.U.Y.U.L.L.Y.U.L.L.Y.L.L.L.L.L.L.L.L.L.L.L.L.L.L.L.L.L.L.L.L.L.L.L.L.L.L.L.L.L.L.L.L.L.L.L.L.L.L.L.L.L.L.L.L.L.L.L.L.L.L.L.L.L.L.L.L.L.L.L.L.L.L.Y.Y.L.L.L.L.L.L.L.L.L.Y.Y.Y.Y.L.L.L.L.L.L.L.U.U.U.U.U.U.U.U.U.U.U.U.Y.U.U.U.U.U.U.L.L.L.L.L.].                                                                                                    ",
"                                                                                                          M.Z.M.M.M.M.M.M.M.M.M.M.M.M.M.M.M.M.M.M.M.Z.Z.Z.z.z.z.z.z.M.M.M.M.z.z.z.M.M.M.M.M.M.M.M.M.M.M.z.v.Z.z.z.z.z.M.z.z.M.M.z.z.z.z.M.M.z.z.z.z.z.z.z.z.z.z.z.z.z.z.z.z.z.z.z.z.z.z.z.z.z.z.z.z.z.z.z.z.z.z.z.z.z.z.z.z.z.z.z.z.z.l.l.l.l.l.l.l.l.z.z.l.l.l.l.l.l.l.l.l.l.k.l.z.k.l.l.l.l.l.l.l.l.l.l.l.k.k.l.l.k.k.l.z.z.z.l.l.l.z.l.l.l.z.z.z.z.z.z.l.l.z.z.z.l.z.z.l.l.l.l.l.l.l.l.l.l.l.l.l.l.l.l.l.l.l.l.k.l.l.z.l.l.l.l.l.l.k.k.l.l.l.l.l.l.l.l.l.l.k.l.l.l.k.k.h.k.h.h.k.l.i.3.T.XXF.'.).).).).).).).`.`.`.`.`.[.K.K.K.P.K.P.P.P.P.K.K.K.].'.K.'.].K.[.[.].'.P.].`.`.P.U.U.U.U.U.U.U.U.U.L.L.U.U.U.Y.L.U.L.L.L.U.Y.Y.U.L.L.U.U.L.L.L.L.L.L.L.L.L.L.L.L.L.L.L.L.L.L.L.L.L.L.L.L.L.L.L.L.L.L.L.L.L.L.L.L.L.L.L.L.L.L.L.L.L.L.L.L.L.L.L.L.L.L.L.Y.Y.L.Y.L.L.L.L.L.L.L.L.Y.L.L.L.L.Y.L.L.Y.U.U.Y.Y.Y.Y.L.U.U.U.U.U.L.U.L.L.U.U.L.L.U.U.U.L.L.L.U.                                                                                                        ",
"                                                                                                              M.M.M.M.M.M.M.M.M.M.M.M.M.M.M.M.M.M.M.M.M.M.M.z.z.z.z.z.z.z.Z.z.z.z.M.M.M.M.z.M.M.M.M.z.z.z.z.z.z.M.z.z.z.z.z.M.M.M.M.M.M.M.M.M.z.M.M.z.z.z.z.z.z.z.z.z.z.z.z.z.z.z.z.z.z.v.v.v.v.z.z.z.z.z.z.z.z.z.z.z.z.z.z.z.z.z.z.z.z.l.l.l.l.l.l.z.z.l.l.l.l.l.z.z.z.z.z.k.l.k.k.k.l.l.l.l.z.l.l.l.l.z.k.l.l.l.z.k.k.l.l.z.l.z.l.l.z.l.k.l.z.z.z.l.l.l.l.z.z.l.l.l.z.z.z.z.l.l.l.l.l.l.l.l.l.l.l.l.l.l.l.l.l.l.k.l.l.l.z.l.l.l.l.l.k.k.l.l.l.l.l.l.l.l.l.l.l.l.l.k.k.k.k.k.h.g.l.f.3.T.XX/./.)./.).).).'.'.`.`.`.`.`.[.K.K.K.].].K.P.K.P.P.P.P.P.'.].'.I.I.].[.`.].'.].P.].P.U.U.U.U.U.U.U.U.U.U.U.U.U.L.L.L.L.U.U.L.L.U.U.U.U.L.Y.U.L.L.L.L.L.L.L.L.L.L.L.L.L.L.L.L.L.L.L.L.L.L.L.L.L.L.L.L.L.L.L.L.L.L.L.L.L.L.L.L.L.L.L.L.L.L.L.L.L.L.L.L.L.L.L.L.L.L.L.L.L.L.L.L.L.L.L.L.L.L.L.L.L.U.U.L.Y.U.U.Y.Y.Y.U.L.L.U.U.U.L.L.U.U.L.L.U.L.L.L.L.L.L.L.                                                                                                            ",
"                                                                                                                  M.M.M.M.M.M.M.M.M.M.M.M.M.M.M.M.M.M.M.M.M.M.z.z.z.z.z.z.z.M.M.M.M.M.M.M.z.M.M.M.M.M.M.z.z.z.M.z.M.z.z.z.z.M.M.M.M.M.M.M.M.M.M.M.z.z.z.z.z.z.z.z.z.z.z.z.z.z.z.z.z.z.z.z.v.v.v.z.z.z.z.z.z.z.z.z.z.z.z.z.z.z.z.z.z.z.z.z.z.l.l.l.l.z.z.l.z.l.l.l.l.z.z.z.z.l.z.z.l.k.l.z.l.l.z.z.l.l.l.l.l.l.l.l.z.k.k.l.l.l.l.z.l.l.z.l.l.l.z.l.l.l.l.l.z.z.z.l.l.l.l.z.z.z.z.l.l.z.l.l.l.l.l.l.z.l.l.l.l.z.l.l.l.k.l.l.l.l.l.l.l.l.k.l.l.l.l.l.l.l.l.l.l.l.l.l.l.k.k.k.k.k.k.l.j.0.T.XX/./././.).).).).).'.`.`.[.`.K.K.K.K.P.P.K.P.K.P.P.P.].].P.P.[.[.K.`.'.`.`.K.'.'.P.U.U.Y.U.U.U.U.U.U.U.U.U.U.U.Y.L.L.L.U.U.U.U.U.U.U.U.Y.L.U.U.L.L.L.L.L.L.L.L.L.L.L.L.L.L.L.L.L.L.L.L.L.L.L.L.L.L.L.L.L.L.L.L.L.L.L.L.L.L.L.L.L.L.L.L.L.L.L.L.L.L.L.L.L.L.L.L.L.L.L.L.L.L.L.L.L.L.L.L.L.L.L.L.L.L.L.L.U.U.U.U.U.U.Y.U.U.U.Y.Y.L.L.L.L.U.U.U.L.L.L.[.L.                                                                                                                ",
"                                                                                                                      M.M.M.M.M.M.M.M.M.M.M.M.M.M.M.M.M.M.M.M.M.z.z.z.z.z.z.M.M.M.z.M.M.M.z.M.Z.M.M.M.z.z.z.z.z.z.M.M.z.z.z.M.M.M.M.M.M.z.z.M.M.M.z.z.z.z.z.z.z.z.z.M.z.z.z.z.z.z.z.z.z.z.z.z.z.z.z.z.z.z.z.z.z.z.z.z.z.z.z.z.z.z.z.z.z.z.z.z.l.l.l.l.v.l.l.l.l.l.l.z.z.z.l.l.l.l.z.l.k.k.l.z.z.z.z.l.l.l.k.l.l.l.l.l.l.l.l.z.z.z.z.l.l.l.l.l.l.z.l.l.l.l.l.z.z.l.l.l.z.z.z.z.z.z.z.z.l.l.l.l.l.l.z.l.l.l.l.l.l.l.k.k.k.k.k.l.k.l.k.k.k.l.l.z.l.l.l.l.l.l.l.l.l.k.k.k.k.k.k.h.k.j.0.Y.XX/.).'./././.).).).'.`.`.`.[.[.K.K.K.K.P.K.K.P.P.P.P.P.'.'.'.P.K.[.[.[.K.'.'.].P.I.P.U.U.Y.U.U.U.Y.Y.U.Y.Y.Y.U.L.L.U.L.U.U.Y.U.U.U.U.U.U.L.L.U.U.L.L.L.L.L.L.L.L.L.L.L.L.L.L.L.L.L.L.L.L.L.L.L.L.L.L.L.L.L.L.L.L.L.L.L.L.L.L.L.L.L.L.L.L.L.L.L.L.L.L.L.L.L.L.L.L.L.L.L.L.Y.L.L.L.L.L.L.L.L.L.L.L.L.L.L.L.U.U.U.U.Y.Y.Y.Y.U.U.U.U.L.L.L.L.L.U.U.L.L.L.                                                                                                                    ",
"                                                                                                                          M.M.M.M.M.M.M.M.M.M.M.M.M.M.M.M.M.M.Z.M.z.z.z.z.z.M.M.M.M.z.z.z.z.Z.Z.M.M.M.z.z.M.z.z.z.z.z.v.z.M.M.M.M.M.z.z.M.M.M.z.z.M.z.z.z.z.z.z.z.z.M.z.z.z.z.z.z.z.z.z.z.z.z.z.z.z.z.z.z.z.z.z.z.z.z.z.z.z.z.z.z.z.z.z.z.z.z.z.z.l.l.z.l.l.l.l.l.l.z.z.l.l.l.l.l.z.z.l.l.l.z.l.z.z.l.l.l.l.l.l.l.l.l.l.l.l.l.l.z.z.l.z.l.l.z.l.l.z.z.z.l.l.z.z.z.z.z.z.z.z.z.z.z.z.z.l.l.l.l.l.l.l.l.l.l.l.l.z.l.l.l.k.k.k.l.l.l.l.k.k.l.z.l.l.l.l.l.l.l.l.l.k.k.k.k.k.h.h.k.f.w.T.XXF.'.)./.`.'.`./.).`.`.[.[.[.`.[.[.[.K.P.P.].P.K.P.P.P.'.'.].I.K.[.[.[.K.'.].].].U.K.P.U.U.U.Y.Y.Y.Y.U.U.U.Y.U.L.L.Y.U.Y.L.U.L.U.U.U.U.U.L.L.L.U.U.L.L.L.L.L.L.L.L.L.L.L.L.L.L.L.L.L.L.L.L.L.L.L.L.L.L.L.L.L.L.L.L.L.L.L.L.L.L.L.L.L.L.L.L.L.L.L.L.L.L.L.L.Y.Y.L.L.Y.L.L.U.Y.L.L.L.L.L.L.L.L.L.Y.L.L.L.Y.L.L.U.U.L.Y.Y.L.Y.U.U.U.Y.L.L.U.Y.L.U.U.L.                                                                                                                        ",
"                                                                                                                                M.M.M.M.M.M.M.M.M.M.M.M.M.M.M.M.M.M.z.z.z.M.M.M.M.M.Z.Z.M.M.M.Z.M.Z.M.M.M.M.M.z.z.z.z.z.z.M.Z.M.M.M.z.z.M.M.M.M.z.M.M.z.z.z.z.z.z.z.z.z.z.z.z.z.z.z.z.z.z.z.z.z.z.z.v.v.z.z.z.z.z.z.z.z.z.z.z.z.z.z.z.z.z.z.z.z.z.l.l.l.l.z.l.z.z.l.z.z.z.z.l.l.l.z.z.l.l.l.k.l.l.l.l.l.l.z.z.l.l.l.l.l.l.l.l.l.l.l.l.l.z.z.z.l.l.z.z.z.l.l.l.l.l.z.z.z.l.l.l.l.l.l.l.l.l.l.l.l.l.l.l.l.l.z.l.z.l.l.l.l.k.l.l.l.k.k.l.l.l.z.l.l.l.l.l.l.l.l.k.k.k.k.k.h.k.k.j.w.T.XX/.).).)./.`.'.'.).'.`.`.[.[.[.[.K.K.].P.K.P.K.K.K.P.U.K.K.`.K.'.'.[.[.`.I.'.].].].].K.].U.U.U.Y.Y.Y.Y.U.U.U.U.U.U.Y.U.L.L.L.L.L.U.U.U.U.U.L.Y.Y.L.U.L.L.L.L.L.L.L.L.L.L.L.L.L.L.L.L.L.L.L.L.L.L.L.L.L.L.L.L.L.L.L.L.L.L.L.L.L.L.L.L.L.L.L.L.L.L.L.L.L.L.L.L.U.Y.U.U.L.L.L.L.L.L.L.L.L.L.L.L.L.L.L.L.L.L.Y.L.L.Y.Y.Y.U.U.Y.Y.U.U.U.L.U.U.U.U.L.                                                                                                                              ",
"                                                                                                                                    M.M.M.M.M.M.M.M.M.M.M.M.M.M.M.M.M.z.M.M.M.M.M.M.M.Z.M.M.M.M.M.M.M.M.Z.M.z.z.M.z.z.z.z.z.z.z.M.z.z.z.M.M.M.M.M.M.M.M.z.z.z.z.z.z.z.z.z.z.z.z.z.z.z.z.z.z.z.z.z.v.v.z.z.z.z.z.z.z.z.z.z.z.z.z.z.z.z.z.z.z.z.z.z.z.z.l.z.z.l.l.l.l.z.z.z.z.l.l.l.z.z.z.l.l.l.l.l.l.l.l.l.z.z.z.l.l.l.l.l.k.l.l.z.z.l.l.z.l.l.l.l.l.z.l.l.l.l.l.l.l.l.z.l.l.l.l.l.l.l.l.l.l.l.l.z.l.l.k.l.l.l.l.l.l.l.l.z.z.l.l.l.l.l.l.l.l.l.l.l.l.l.l.l.k.k.k.k.k.k.k.k.j.w.T.XX/.)./.).).).).).).'.'.`.`.[.`.[.K.K.K.P.P.P.P.K.K.].P.P.[.K.K.].].].`.`.P.].'.'.].P.P.P.U.U.U.U.U.U.U.U.Y.Y.U.U.U.Y.Y.L.U.U.U.U.L.L.U.U.U.U.U.L.L.L.L.L.L.L.L.L.L.L.L.L.L.L.L.L.L.L.L.L.L.L.L.L.L.L.L.L.L.L.L.L.L.L.L.L.L.L.L.L.Y.L.L.L.L.L.L.L.L.L.L.L.L.L.L.U.Y.L.L.L.L.L.L.L.L.L.L.L.L.L.L.L.L.L.L.L.L.L.L.L.Y.Y.Y.U.U.U.Y.L.U.U.U.L.U.U.                                                                                                                                  ",
"                                                                                                                                          M.M.M.M.M.M.M.M.M.M.M.M.M.M.M.z.z.z.z.z.M.M.M.Z.M.M.M.M.M.Z.Z.M.M.M.z.z.z.z.z.z.z.z.z.z.z.z.z.M.M.M.M.M.M.M.M.Z.M.z.z.z.z.z.z.M.z.z.z.z.z.z.z.z.z.z.z.z.z.v.z.z.z.z.z.z.z.z.z.z.z.z.z.z.z.z.z.z.z.z.z.z.z.z.z.z.z.l.z.l.l.l.l.l.z.z.z.z.l.z.z.z.z.z.z.l.l.l.l.l.l.l.l.l.l.l.l.l.l.l.l.l.l.l.l.l.l.l.l.l.l.l.l.l.l.l.l.l.l.l.l.k.z.l.l.l.l.l.l.l.l.l.l.l.l.l.k.l.l.k.l.l.l.l.l.l.l.l.l.l.l.l.l.l.k.l.l.l.l.l.k.k.k.k.k.k.k.k.k.j.w.Q.XX/.).).).).).'.'././.'.`.`.`.[.`.K.K.K.K.P.].].P.P.K.[.K.K.K.K.P.P.I.].`.P.].].].'.].P.U.U.U.U.U.U.U.U.U.U.U.U.U.U.U.L.L.L.U.U.U.U.L.L.U.U.U.L.L.U.L.L.L.U.L.L.L.L.L.L.L.L.L.L.L.L.L.L.L.L.L.L.L.L.L.L.L.L.L.L.L.L.L.L.L.L.L.L.L.L.L.L.L.L.L.L.L.L.L.L.L.L.L.L.L.U.Y.U.L.Y.Y.U.U.U.L.L.L.L.L.L.L.L.L.L.L.L.Y.Y.U.U.L.L.U.Y.L.Y.Y.U.U.U.U.                                                                                                                                        ",
"                                                                                                                                                  M.M.M.M.M.M.M.M.M.M.M.M.z.z.z.z.z.M.M.z.z.z.z.z.z.Z.Z.z.M.Z.z.z.z.z.z.z.Z.z.z.z.z.z.M.z.z.z.M.M.z.M.M.M.M.z.z.z.z.z.z.M.z.z.z.z.z.z.z.z.z.z.z.z.z.z.z.z.z.z.z.z.z.z.z.z.z.z.z.z.z.z.z.z.z.z.z.z.z.z.z.z.z.l.l.l.l.l.l.l.z.z.z.z.l.l.z.z.l.z.z.l.l.l.l.l.l.l.l.l.l.l.l.l.l.l.l.l.k.l.l.l.l.l.l.l.l.l.l.l.z.z.z.l.l.l.l.l.k.x.l.l.l.l.l.l.l.l.l.l.l.k.l.l.l.l.l.l.l.l.l.l.l.l.l.l.l.l.l.l.l.k.k.k.k.k.k.k.k.k.k.k.g.k.i.w.T.XX).).'./.).).).'.`././././.`.`.`.`.K.K.K.K.I.K.K.K.P.K.K.K.K.K.K.P.'.I.F.'.].U.P.K.P.].P.U.P.U.U.U.U.U.U.U.U.U.Y.Y.Y.U.U.U.L.L.L.L.L.U.U.U.U.U.L.L.U.L.L.Y.U.U.L.L.L.L.L.L.L.L.L.L.L.L.L.L.L.L.L.L.L.L.L.L.L.L.L.L.L.L.L.L.L.L.L.L.L.L.L.L.L.L.L.L.L.L.L.L.L.L.L.L.U.U.U.L.U.Y.L.U.L.L.L.L.L.L.L.L.L.L.L.L.L.U.U.U.Y.L.L.L.Y.L.U.U.                                                                                                                                                ",
"                                                                                                                                                          M.M.M.M.k.k.h.h.h.g.g.g.g.g.h.g.g.g.g.g.g.h.h.h.h.h.h.g.g.g.g.g.g.g.g.g.g.g.g.g.g.g.g.h.h.h.h.h.g.g.g.g.g.g.g.g.g.g.g.g.g.g.g.g.j.g.g.j.j.g.j.j.j.g.g.g.g.j.j.j.j.j.j.j.j.j.j.j.j.j.j.j.j.j.j.j.j.j.j.j.j.j.j.j.j.j.j.j.j.j.f.f.j.j.j.j.j.j.j.j.j.j.j.j.j.j.j.j.j.j.j.f.i.j.j.j.j.j.j.j.j.j.j.j.j.j.j.f.j.j.j.j.f.f.f.j.j.j.j.j.f.j.j.j.j.j.f.f.f.f.f.f.f.f.j.j.j.j.f.f.f.f.j.f.i.i.i.i.i.i.i.i.i.i.i.y.i.q.,.S.|.J.J.G.G.J.J.J.J.J.J.J.J.J.J.J.J.J.J.J.J.J.J.J.J.J.J.J.J.J.J.J.J.J.J.J.J.J.J.J.J.J.D.J.J.J.D.D.D.D.D.D.D.D.D.D.D.D.D.D.D.D.D.D.D.D.D.D.D.D.D.D.D.D.D.D.D.D.D.D.D.D.D.D.D.D.D.D.D.D.D.D.D.D.D.D.D.D.D.D.D.D.D.D.D.D.D.D.D.D.D.D.D.D.D.D.D.D.D.D.D.D.D.D.D.D.D.D.D.D.D.D.D.D.D.D.D.D.D.D.D.D.D.D.D.D.D.D.D.D.D.D.D.D.D.L.L.L.U.                                                                                                                                                        ",
"                                                                                                                                                                  lXlXlXlXlXlXlXlXlXlXlXlXlXlXlXlXlXlXlXlXlXlXlXlXlXlXlXlXlXlXlXlXlXlXlXlXlXlXlXlXlXlXlXlXlXlXlXlXlXlXlXlXlXlXlXlXlXlXlXlXlXlXlXlXlXlXlXlXlXlXlXlXlXlXlXlXlXlXlXlXlXlXlXlXlXlXhXlXlXlXlXlXlXlXhXhXhXhXhXhXhXhXhXhXhXhXhXlXlXhXhXlXhXhXlXlXhXhXhXhXhXhXhXhXhXhXhXhXhXhXlXhXhXhXhXhXhXhXhXhXhXhXlXhXhXlXlXlXlXlXlXhXlXhXlXlXhXhXhXhXhXhXhXhXhXhXhXhXhXhXhXhXhXhXhXhXhXhXhXhXhXhXhXhXhXhXhXhXhXhXhXhXhXjXlXbXbXbXbXbXbXbXbXbXbXbXbXbXbXvXvXvXvXvXvXvXvXvXbXbXvXvXvXvXbXbXbXvXvXvXbXbXvXvXvXvXvXvXvXvXvXvXvXvXvXzXvXzXzXzXzXvXvXzXzXzXzXzXvXzXzXvXzXzXzXzXzXzXzXzXzXzXzXzXzXzXvXzXzXzXzXzXvXvXvXzXzXvXzXzXvXvXvXvXvXvXzXvXvXzXzXvXvXvXvXzXzXzXzXvXzXzXzXzXzXzXzXzXvXzXzXzXzXzXzXzXzXzXzXzXzXzXzXzXzXvXzXvXvXzXvXvXvXzXzXzXvXvXzXzXvX                                                                                                                                                                ",
"                                                                                                                                                                                KXKXKXKXKXKXKXKXKXKXKXKXKXKXKXKXKXKXKXKXKXKXKXKXKXKXKXKXKXKXKXKXKXKXKXKXKXKXKXKXKXKXKXKXKXKXKXKXKXKXKXKXKXKXKXKXKXKXKXKXKXKXKXKXKXKXKXKXKXKXKXKXKXKXKXKXKXKXKXKXKXKXKXKXKXKXKXKXKXKXKXKXKXKXKXKXKXKXKXKXKXKXKXKXKXKXKXKXKXKXKXKXKXKXKXKXKXKXKXKXKXKXKXKXKXKXKXKXKXKXKXKXKXKXKXKXKXKXKXKXKXKXKXKXKXKXKXKXKXKXKXKXKXKXKXKXKXKXKXKXKXKXKXKXKXKXKXKXKXKXKXKXKXKXKXKXKXKXKXKXKXKXKXKXKXKXKXKXKXKXKXKXKXKXKXKXKXKXKXKXKXKXKXKXKXKXKXKXKXKXKXKXKXKXKXKXKXKXKXKXKXKXKXKXKXKXKXKXKXKXKXKXKXKXKXKXKXKXKXKXKXKXKXKXKXKXKXKXKXKXKXKXKXKXKXKXKXKXKXKXKXKXKXKXKXKXKXKXKXKXKXKXKXKXKXKXKXKXKXKXKXKXKXKXKXKXKXKXKXKXKXKXKXKXKXKXKXKXKXKXKXKXKXKXKXKXKXKXKXKXKXKXKXKXKXKXKXKXKXKXKXKXKXKXKXKXKXKXKXKXKXKXKXKXKXKXKX                                                                                                                                                                              ",
"                                                                                                                                                                                                                                                                                                                                                                                                                                                                                                                                                                                                                                                                                                                                                                                                                                                                                                                                                                                                                                                                ",
"                                                                                                                                                                                                                                                                                                                                                                                                                                                                                                                                                                                                                                                                                                                                                                                                                                                                                                                                                                                                                                                                ",
"                                                                                                                                                                                                                                                                                                                                                                                                                                                                                                                                                                                                                                                                                                                                                                                                                                                                                                                                                                                                                                                                ",
"                                                                                                                                                                                                                                                                                                                                                                                                                                                                                                                                                                                                                                                                                                                                                                                                                                                                                                                                                                                                                                                                ",
"                                                                                                                                                                                                                                                                                                                                                                                                                                                                                                                                                                                                                                                                                                                                                                                                                                                                                                                                                                                                                                                                ",
"                                                                                                                                                                                                                                                                                                                                                                                                                                                                                                                                                                                                                                                                                                                                                                                                                                                                                                                                                                                                                                                                ",
"                                                                                                                                                                                                                                                                                                                                                                                                                                                                                                                                                                                                                                                                                                                                                                                                                                                                                                                                                                                                                                                                "
};
